P3
320 240
255
0 0 0
0 0 0
0 0 0
0 0 0
123 90 231
0 41 0
0 0 0
0 0 0
206 57 231
0 41 49
0 0 0
0 0 0
140 41 0
0 8 57
0 0 0
0 0 0
0 16 0
0 0 0
0 123 148
0 0 0
0 0 0
57 247 0
0 0 0
57 247 0
0 0 0
57 247 0
0 0 0
0 0 0
247 148 214
57 231 206
156 107 173
189 206 123
90 156 206
189 231 181
0 0 8
0 0 0
214 115 165
16 156 8
115 140 156
0 0 0
231 148 0
16 156 8
115 140 156
0 0 0
239 8 33
16 156 8
115 140 156
0 0 0
0 0 0
0 0 0
0 0 0
0 0 0
0 0 16
0 0 0
0 0 0
0 0 0
206 123 165
16 156 8
115 140 156
0 0 0
123 107 165
0 41 0
0 0 0
0 0 0
123 82 33
0 41 0
0 0 0
0 0 0
140 41 0
0 8 57
0 0 0
0 0 0
0 16 0
0 0 0
0 123 156
0 0 0
0 0 0
57 247 0
0 0 0
57 247 0
0 0 0
57 247 0
0 0 0
0 0 0
74 198 165
57 239 132
107 214 148
189 214 189
140 66 181
189 214 181
0 0 8
0 0 0
214 115 165
16 156 8
115 140 156
0 0 0
239 8 33
16 156 8
115 140 156
0 0 0
214 90 231
16 156 8
115 140 156
0 0 0
0 0 0
0 0 0
0 0 0
0 0 0
0 0 16
0 0 0
0 0 0
0 0 0
206 123 165
16 156 8
115 140 156
0 0 0
123 123 99
0 41 0
0 0 0
0 0 0
123 90 231
0 41 0
0 0 0
0 0 0
140 41 0
0 8 57
0 0 0
0 0 0
0 16 0
0 0 0
0 123 156
0 0 0
0 0 0
57 247 0
0 0 0
57 247 0
0 0 0
57 247 0
0 0 0
0 0 0
148 222 82
57 231 33
214 181 206
189 231 16
99 132 231
57 231 165
0 0 8
0 0 0
255 247 165
16 156 8
115 140 156
0 0 0
231 74 198
16 156 8
115 140 156
0 0 0
0 0 0
16 156 16
115 140 156
0 0 0
0 0 0
0 0 0
0 0 0
0 0 0
0 0 16
0 0 0
0 0 0
0 0 0
206 123 165
16 156 8
115 140 156
0 0 0
123 140 33
0 41 0
0 0 0
0 0 0
123 107 165
0 41 0
0 0 0
0 0 0
140 41 0
0 8 57
0 0 0
0 0 0
0 16 0
0 0 0
0 123 165
0 0 0
0 0 0
57 247 0
0 0 0
57 247 0
0 0 0
57 247 0
0 0 0
0 0 0
156 8 214
57 222 247
33 156 8
189 214 214
107 148 239
189 239 41
0 0 8
0 0 0
239 8 33
16 156 8
115 140 156
0 0 0
231 132 165
16 156 8
115 140 156
0 0 0
0 247 66
16 156 16
115 140 156
0 0 0
0 0 0
0 0 0
0 0 0
0 0 0
0 0 16
0 0 0
0 0 0
0 0 0
206 123 165
16 156 8
115 140 156
0 0 0
123 148 231
0 41 0
0 0 0
0 0 0
123 123 99
0 41 0
0 0 0
0 0 0
140 41 0
0 8 57
0 0 0
0 0 0
0 16 0
0 0 0
0 123 165
0 0 0
0 0 0
57 247 0
0 0 0
57 247 0
0 0 0
57 247 0
0 0 0
0 0 0
82 16 99
57 231 41
74 206 123
57 231 99
107 66 198
57 231 90
0 0 8
0 0 0
8 41 33
16 156 16
115 140 156
0 0 0
8 49 132
16 156 16
115 140 156
0 0 0
8 57 231
16 156 16
115 140 156
0 0 0
0 0 0
0 0 0
0 0 0
0 0 0
0 0 16
0 0 0
0 0 0
0 0 0
206 123 165
16 156 8
115 140 156
0 0 0
123 165 165
0 41 0
0 0 0
0 0 0
123 140 33
0 41 0
0 0 0
0 0 0
140 41 0
0 8 57
0 0 0
0 0 0
0 16 0
0 0 0
0 123 173
0 0 0
0 0 0
57 247 0
0 0 0
57 247 0
0 0 0
57 247 0
0 0 0
0 0 0
107 231 90
189 189 231
148 140 239
189 231 156
222 239 49
57 231 255
0 0 8
0 0 0
8 148 231
16 156 16
115 140 156
0 0 0
16 148 132
16 156 16
115 140 156
0 0 0
0 247 66
16 156 16
115 140 156
0 0 0
0 0 0
0 0 0
0 0 0
0 0 0
0 0 16
0 0 0
0 0 0
0 0 0
206 123 165
16 156 8
115 140 156
0 0 0
123 181 99
0 41 0
0 0 0
0 0 0
123 148 231
0 41 0
0 0 0
0 0 0
140 41 0
0 8 57
0 0 0
0 0 0
0 16 0
0 0 0
0 123 173
0 0 0
0 0 0
57 247 0
0 0 0
57 247 0
0 0 0
57 247 0
0 0 0
0 0 0
8 41 140
189 231 66
198 222 165
189 231 107
57 222 206
189 231 57
0 0 8
0 0 0
16 156 231
16 156 16
115 140 156
0 0 0
16 173 66
16 156 16
115 140 156
0 0 0
16 181 165
16 156 16
115 140 156
0 0 0
0 0 0
0 0 0
0 0 0
0 0 0
0 0 16
0 0 0
0 0 0
0 0 0
206 123 165
16 156 8
115 140 156
0 0 0
123 198 33
0 41 0
0 0 0
0 0 0
123 165 165
0 41 0
0 0 0
0 0 0
140 41 0
0 8 57
0 0 0
0 0 0
0 16 0
0 0 0
0 123 181
0 0 0
0 0 0
57 247 0
0 0 0
57 247 0
0 0 0
57 247 0
0 0 0
0 0 0
206 99 165
57 239 231
148 66 8
57 206 41
123 33 49
189 198 0
0 0 8
0 0 0
16 198 0
16 156 16
115 140 156
0 0 0
16 115 99
16 156 16
115 140 156
0 0 0
16 206 99
16 156 16
115 140 156
0 0 0
0 0 0
0 0 0
0 0 0
0 0 0
0 0 16
0 0 0
0 0 0
0 0 0
206 123 165
16 156 8
115 140 156
0 0 0
123 206 231
0 41 0
0 0 0
0 0 0
123 181 99
0 41 0
0 0 0
0 0 0
140 41 0
0 8 57
0 0 0
0 0 0
0 16 0
0 0 0
0 123 181
0 0 0
0 0 0
57 247 0
0 0 0
57 247 0
0 0 0
57 247 0
0 0 0
0 0 0
247 57 132
57 198 173
148 132 173
57 231 173
8 107 107
189 231 239
0 0 8
0 0 0
16 214 198
16 156 16
115 140 156
0 0 0
16 231 33
16 156 16
115 140 156
0 0 0
16 115 99
16 156 16
115 140 156
0 0 0
0 0 0
0 0 0
0 0 0
0 0 0
0 0 16
0 0 0
0 0 0
0 0 0
206 123 165
16 156 8
115 140 156
0 0 0
123 222 165
0 41 0
0 0 0
0 0 0
123 198 33
0 41 0
0 0 0
0 0 0
140 41 0
0 8 57
0 0 0
0 0 0
0 16 0
0 0 0
0 123 189
0 0 0
0 0 0
57 247 0
0 0 0
57 247 0
0 0 0
57 247 0
0 0 0
0 0 0
107 82 123
189 239 123
189 198 206
189 198 0
16 57 181
189 222 214
0 0 8
0 0 0
16 239 132
16 156 16
115 140 156
0 0 0
16 181 165
16 156 16
115 140 156
0 0 0
16 247 231
16 156 16
115 140 156
0 0 0
0 0 0
0 0 0
0 0 0
0 0 0
0 0 16
0 0 0
0 0 0
0 0 0
206 123 165
16 156 8
115 140 156
0 0 0
123 239 99
0 41 0
0 0 0
0 0 0
123 206 231
0 41 0
0 0 0
0 0 0
140 41 0
0 8 57
0 0 0
0 0 0
0 16 0
0 0 0
0 123 189
0 0 0
0 0 0
57 247 0
0 0 0
57 247 0
0 0 0
57 247 0
0 0 0
0 0 0
214 74 132
189 239 107
16 90 123
189 222 132
231 247 198
189 214 24
0 0 8
0 0 0
8 165 66
16 156 16
115 140 156
0 0 0
16 247 231
16 156 16
115 140 156
0 0 0
16 181 165
16 156 16
115 140 156
0 0 0
0 0 0
0 0 0
0 0 0
0 0 0
0 0 16
0 0 0
0 0 0
0 0 0
206 123 165
16 156 8
115 140 156
0 0 0
123 255 33
0 41 0
0 0 0
0 0 0
123 222 165
0 41 0
0 0 0
0 0 0
140 41 0
0 8 57
0 0 0
0 0 0
0 16 0
0 0 0
0 123 198
0 0 0
0 0 0
57 247 0
0 0 0
57 247 0
0 0 0
57 247 0
0 0 0
0 0 0
173 123 16
57 173 148
115 16 99
189 231 255
90 82 99
189 231 165
0 0 8
0 0 0
24 0 66
16 156 16
115 140 156
0 0 0
24 8 165
16 156 16
115 140 156
0 0 0
24 24 0
16 156 16
115 140 156
0 0 0
0 0 0
0 0 0
0 0 0
0 0 0
0 0 16
0 0 0
0 0 0
0 0 0
206 123 165
16 156 8
115 140 156
0 0 0
132 0 231
0 41 0
0 0 0
0 0 0
123 239 99
0 41 0
0 0 0
0 0 0
140 41 0
0 8 57
0 0 0
0 0 0
0 16 0
0 0 0
0 123 198
0 0 0
0 0 0
57 247 0
0 0 0
57 247 0
0 0 0
57 247 0
0 0 0
0 0 0
66 198 181
57 181 173
0 222 66
57 231 198
165 255 24
189 231 231
0 0 8
0 0 0
24 33 99
16 156 16
115 140 156
0 0 0
24 41 198
16 156 16
115 140 156
0 0 0
24 57 33
16 156 16
115 140 156
0 0 0
0 0 0
0 0 0
0 0 0
0 0 0
0 0 16
0 0 0
0 0 0
0 0 0
206 123 165
16 156 8
115 140 156
0 0 0
132 16 165
0 41 0
0 0 0
0 0 0
123 255 33
0 41 0
0 0 0
0 0 0
140 41 0
0 8 57
0 0 0
0 0 0
0 16 0
0 0 0
0 123 206
0 0 0
0 0 0
57 247 0
0 0 0
57 247 0
0 0 0
57 247 0
0 0 0
0 0 0
107 189 206
189 214 239
0 132 8
189 222 41
198 49 231
189 239 90
0 0 8
0 0 0
24 33 99
16 156 16
115 140 156
0 0 0
24 66 132
16 156 16
115 140 156
0 0 0
24 41 198
16 156 16
115 140 156
0 0 0
0 0 0
0 0 0
0 0 0
0 0 0
0 0 16
0 0 0
0 0 0
0 0 0
206 123 165
16 156 8
115 140 156
0 0 0
132 33 99
0 41 0
0 0 0
0 0 0
132 0 231
0 41 0
0 0 0
0 0 0
140 41 0
0 8 57
0 0 0
0 0 0
0 16 0
0 0 0
0 123 206
0 0 0
0 0 0
57 247 0
0 0 0
57 247 0
0 0 0
57 247 0
0 0 0
0 0 0
99 132 74
57 222 189
24 156 222
189 239 123
49 49 198
57 198 181
0 0 8
0 0 0
24 74 231
16 156 16
115 140 156
0 0 0
24 90 66
16 156 16
115 140 156
0 0 0
24 8 165
16 156 16
115 140 156
0 0 0
0 0 0
0 0 0
0 0 0
0 0 0
0 0 16
0 0 0
0 0 0
0 0 0
206 123 165
16 156 8
115 140 156
0 0 0
132 49 33
0 41 0
0 0 0
0 0 0
132 16 165
0 41 0
0 0 0
0 0 0
140 41 0
0 8 57
0 0 0
0 0 0
0 16 0
0 0 0
0 123 214
0 0 0
0 0 0
57 247 0
0 0 0
57 247 0
0 0 0
57 247 0
0 0 0
0 0 0
115 123 206
57 231 239
239 90 57
189 231 115
255 82 82
57 214 90
0 0 8
0 0 0
24 99 165
16 156 16
115 140 156
0 0 0
24 115 0
16 156 16
115 140 156
0 0 0
24 90 66
16 156 16
115 140 156
0 0 0
0 0 0
0 0 0
0 0 0
0 0 0
0 0 16
0 0 0
0 0 0
0 0 0
206 123 165
16 156 8
115 140 156
0 0 0
132 57 231
0 41 0
0 0 0
0 0 0
132 33 99
0 41 0
0 0 0
0 0 0
140 41 0
0 8 57
0 0 0
0 0 0
0 16 0
0 0 0
0 123 214
0 0 0
0 0 0
57 247 0
0 0 0
57 247 0
0 0 0
57 247 0
0 0 0
0 0 0
148 140 49
57 239 49
8 115 148
57 231 57
0 214 123
189 206 140
0 0 8
0 0 0
24 99 165
16 156 16
115 140 156
0 0 0
24 57 33
16 156 16
115 140 156
0 0 0
24 115 0
16 156 16
115 140 156
0 0 0
0 0 0
0 0 0
0 0 0
0 0 0
0 0 16
0 0 0
0 0 0
0 0 0
206 123 165
16 156 8
115 140 156
0 0 0
132 74 165
0 41 0
0 0 0
0 0 0
132 49 33
0 41 0
0 0 0
0 0 0
140 41 0
0 8 57
0 0 0
0 0 0
0 16 0
0 0 0
0 123 222
0 0 0
0 0 0
57 247 0
0 0 0
57 247 0
0 0 0
57 247 0
0 0 0
0 0 0
24 90 74
57 214 123
231 132 49
57 214 33
90 82 41
189 239 165
0 0 8
0 0 0
214 115 165
16 156 8
115 140 156
0 0 0
24 123 99
16 156 16
115 140 156
0 0 0
24 148 33
16 156 16
115 140 156
0 0 0
0 0 0
0 0 0
0 0 0
0 0 0
0 0 16
0 0 0
0 0 0
0 0 0
206 123 165
16 156 8
115 140 156
0 0 0
132 90 99
0 41 0
0 0 0
0 0 0
132 57 231
0 41 0
0 0 0
0 0 0
140 41 0
0 8 57
0 0 0
0 0 0
0 16 0
0 0 0
0 123 222
0 0 0
0 0 0
57 247 0
0 0 0
57 247 0
0 0 0
57 247 0
0 0 0
0 0 0
132 0 189
57 198 132
33 82 99
57 156 123
189 173 115
189 239 247
0 0 8
0 0 0
214 115 165
16 156 8
115 140 156
0 0 0
24 148 33
16 156 16
115 140 156
0 0 0
24 156 132
16 156 16
115 140 156
0 0 0
0 0 0
0 0 0
0 0 0
0 0 0
0 0 16
0 0 0
0 0 0
0 0 0
206 123 165
16 156 8
115 140 156
0 0 0
132 107 33
0 41 0
0 0 0
0 0 0
132 74 165
0 41 0
0 0 0
0 0 0
140 41 0
0 8 57
0 0 0
0 0 0
0 16 0
0 0 0
0 123 231
0 0 0
0 0 0
57 247 0
0 0 0
57 247 0
0 0 0
57 247 0
0 0 0
0 0 0
82 247 148
57 214 165
165 140 66
57 231 16
33 57 41
189 239 41
0 0 8
0 0 0
214 115 165
16 156 8
115 140 156
0 0 0
231 33 66
16 156 8
115 140 156
0 0 0
24 123 99
16 156 16
115 140 156
0 0 0
0 0 0
0 0 0
0 0 0
0 0 0
0 0 16
0 0 0
0 0 0
0 0 0
206 123 165
16 156 8
115 140 156
0 0 0
132 115 231
0 41 0
0 0 0
0 0 0
132 90 99
0 41 0
0 0 0
0 0 0
140 41 0
0 8 57
0 0 0
0 0 0
0 16 0
0 0 0
0 123 231
0 0 0
0 0 0
57 247 0
0 0 0
57 247 0
0 0 0
57 247 0
0 0 0
0 0 0
247 8 66
189 222 107
148 0 165
189 214 214
16 115 148
189 239 82
0 0 8
0 0 0
214 115 165
16 156 8
115 140 156
0 0 0
24 156 132
16 156 16
115 140 156
0 0 0
231 148 0
16 156 8
115 140 156
0 0 0
0 0 0
0 0 0
0 0 0
0 0 0
0 0 16
0 0 0
0 0 0
0 0 0
206 123 165
16 156 8
115 140 156
0 0 0
132 132 165
0 41 0
0 0 0
0 0 0
132 107 33
0 41 0
0 0 0
0 0 0
140 41 0
0 8 57
0 0 0
0 0 0
0 16 0
0 0 0
0 123 239
0 0 0
0 0 0
57 247 0
0 0 0
57 247 0
0 0 0
57 247 0
0 0 0
0 0 0
16 99 247
57 239 189
16 99 247
189 189 189
140 206 189
57 214 206
0 0 8
0 0 0
24 214 99
16 156 16
115 140 156
0 0 0
8 49 132
16 156 16
115 140 156
0 0 0
24 222 198
16 156 16
115 140 156
0 0 0
0 0 0
0 0 0
0 0 0
0 0 0
0 0 16
0 0 0
0 0 0
0 0 0
206 123 165
16 156 8
115 140 156
0 0 0
132 148 99
0 41 0
0 0 0
0 0 0
132 115 231
0 41 0
0 0 0
0 0 0
140 41 0
0 8 57
0 0 0
0 0 0
0 16 0
0 0 0
0 123 239
0 0 0
0 0 0
57 247 0
0 0 0
57 247 0
0 0 0
57 247 0
0 0 0
0 0 0
82 49 123
57 239 148
198 99 189
189 214 189
198 222 57
57 214 90
0 0 8
0 0 0
24 214 99
16 156 16
115 140 156
0 0 0
24 222 198
16 156 16
115 140 156
0 0 0
0 8 99
16 156 16
115 140 156
0 0 0
0 0 0
0 0 0
0 0 0
0 0 0
0 0 16
0 0 0
0 0 0
0 0 0
206 123 165
16 156 8
115 140 156
0 0 0
132 165 33
0 41 0
0 0 0
0 0 0
132 132 165
0 41 0
0 0 0
0 0 0
140 41 0
0 8 57
0 0 0
0 0 0
0 16 0
0 0 0
0 123 247
0 0 0
0 0 0
57 247 0
0 0 0
57 247 0
0 0 0
57 247 0
0 0 0
0 0 0
33 148 239
57 231 255
82 222 123
57 231 115
0 239 132
57 214 24
0 0 8
0 0 0
24 239 33
16 156 16
115 140 156
0 0 0
8 57 231
16 156 16
115 140 156
0 0 0
8 49 132
16 156 16
115 140 156
0 0 0
0 0 0
0 0 0
0 0 0
0 0 0
0 0 16
0 0 0
0 0 0
0 0 0
206 123 165
16 156 8
115 140 156
0 0 0
132 173 231
0 41 0
0 0 0
0 0 0
132 148 99
0 41 0
0 0 0
0 0 0
140 41 0
0 8 57
0 0 0
0 0 0
0 16 0
0 0 0
0 123 247
0 0 0
0 0 0
57 247 0
0 0 0
57 247 0
0 0 0
57 247 0
0 0 0
0 0 0
90 74 255
57 239 49
181 41 57
189 214 165
247 214 247
57 222 255
0 0 8
0 0 0
24 222 198
16 156 16
115 140 156
0 0 0
24 206 0
16 156 16
115 140 156
0 0 0
0 8 99
16 156 16
115 140 156
0 0 0
0 0 0
0 0 0
0 0 0
0 0 0
0 0 16
0 0 0
0 0 0
0 0 0
206 123 165
16 156 8
115 140 156
0 0 0
132 189 165
0 41 0
0 0 0
0 0 0
132 165 33
0 41 0
0 0 0
0 0 0
140 41 0
0 8 57
0 0 0
0 0 0
0 16 0
0 0 0
0 123 255
0 0 0
0 0 0
57 247 0
0 0 0
57 247 0
0 0 0
57 247 0
0 0 0
0 0 0
49 16 115
57 231 41
255 173 90
57 214 214
90 0 222
57 239 8
0 0 8
0 0 0
8 49 132
16 156 16
115 140 156
0 0 0
8 41 33
16 156 16
115 140 156
0 0 0
8 24 198
16 156 16
115 140 156
0 0 0
0 0 0
0 0 0
0 0 0
0 0 0
0 0 16
0 0 0
0 0 0
0 0 0
206 123 165
16 156 8
115 140 156
0 0 0
132 206 99
0 41 0
0 0 0
0 0 0
132 173 231
0 41 0
0 0 0
0 0 0
140 41 0
0 8 57
0 0 0
0 0 0
0 16 0
0 0 0
0 123 255
0 0 0
0 0 0
57 247 0
0 0 0
57 247 0
0 0 0
57 247 0
0 0 0
0 0 0
206 41 156
57 239 198
181 99 115
57 214 181
189 41 206
57 140 222
0 0 8
0 0 0
24 214 99
16 156 16
115 140 156
0 0 0
24 239 33
16 156 16
115 140 156
0 0 0
8 49 132
16 156 16
115 140 156
0 0 0
0 0 0
0 0 0
0 0 0
0 0 0
0 0 16
0 0 0
0 0 0
0 0 0
206 123 165
16 156 8
115 140 156
0 0 0
132 222 33
0 41 0
0 0 0
0 0 0
132 189 165
0 41 0
0 0 0
0 0 0
140 41 0
0 8 57
0 0 0
0 0 0
0 16 0
0 0 0
0 132 0
0 0 0
0 0 0
57 247 0
0 0 0
57 247 0
0 0 0
57 247 0
0 0 0
0 0 0
189 222 74
57 231 82
239 206 173
189 222 231
16 231 74
189 231 156
0 0 8
0 0 0
255 222 231
16 156 8
115 140 156
0 0 0
24 247 132
16 156 16
115 140 156
0 0 0
24 214 99
16 156 16
115 140 156
0 0 0
0 0 0
0 0 0
0 0 0
0 0 0
0 0 16
0 0 0
0 0 0
0 0 0
206 123 165
16 156 8
115 140 156
0 0 0
132 231 231
0 41 0
0 0 0
0 0 0
132 206 99
0 41 0
0 0 0
0 0 0
140 41 0
0 8 57
0 0 0
0 0 0
0 16 0
0 0 0
0 132 0
0 0 0
0 0 0
57 247 0
0 0 0
57 247 0
0 0 0
57 247 0
0 0 0
0 0 0
0 33 99
57 231 41
189 214 231
189 239 0
74 66 41
189 222 0
0 0 8
0 0 0
255 222 231
16 156 8
115 140 156
0 0 0
24 214 99
16 156 16
115 140 156
0 0 0
0 8 99
16 156 16
115 140 156
0 0 0
0 0 0
0 0 0
0 0 0
0 0 0
0 0 16
0 0 0
0 0 0
0 0 0
206 123 165
16 156 8
115 140 156
0 0 0
132 247 165
0 41 0
0 0 0
0 0 0
132 222 33
0 41 0
0 0 0
0 0 0
140 41 0
0 8 57
0 0 0
0 0 0
0 16 0
0 0 0
0 132 8
0 0 0
0 0 0
57 247 0
0 0 0
57 247 0
0 0 0
57 247 0
0 0 0
0 0 0
222 231 239
189 239 115
165 99 49
189 189 239
24 8 74
189 222 239
0 0 8
0 0 0
16 231 33
16 156 16
115 140 156
0 0 0
16 181 165
16 156 16
115 140 156
0 0 0
16 239 132
16 156 16
115 140 156
0 0 0
0 0 0
0 0 0
0 0 0
0 0 0
0 0 16
0 0 0
0 0 0
0 0 0
206 123 165
16 156 8
115 140 156
0 0 0
140 0 99
0 41 0
0 0 0
0 0 0
132 231 231
0 41 0
0 0 0
0 0 0
140 41 0
0 8 57
0 0 0
0 0 0
0 16 0
0 0 0
0 132 8
0 0 0
0 0 0
57 247 0
0 0 0
57 247 0
0 0 0
57 247 0
0 0 0
0 0 0
90 222 123
57 239 239
140 156 74
189 198 198
33 140 132
57 181 132
0 0 8
0 0 0
8 148 231
16 156 16
115 140 156
0 0 0
16 198 0
16 156 16
115 140 156
0 0 0
16 206 99
16 156 16
115 140 156
0 0 0
0 0 0
0 0 0
0 0 0
0 0 0
0 0 16
0 0 0
0 0 0
0 0 0
206 123 165
16 156 8
115 140 156
0 0 0
140 16 33
0 41 0
0 0 0
0 0 0
132 247 165
0 41 0
0 0 0
0 0 0
140 41 0
0 8 57
0 0 0
0 0 0
0 16 0
0 0 0
0 132 16
0 0 0
0 0 0
57 247 0
0 0 0
57 247 0
0 0 0
57 247 0
0 0 0
0 0 0
239 99 247
189 206 132
123 255 132
189 239 8
173 74 181
189 231 115
0 0 8
0 0 0
24 255 231
16 156 16
115 140 156
0 0 0
24 66 132
16 156 16
115 140 156
0 0 0
24 8 165
16 156 16
115 140 156
0 0 0
0 0 0
0 0 0
0 0 0
0 0 0
0 0 16
0 0 0
0 0 0
0 0 0
206 123 165
16 156 8
115 140 156
0 0 0
140 24 231
0 41 0
0 0 0
0 0 0
140 0 99
0 41 0
0 0 0
0 0 0
140 41 0
0 8 57
0 0 0
0 0 0
0 16 0
0 0 0
0 132 16
0 0 0
0 0 0
57 247 0
0 0 0
57 247 0
0 0 0
57 247 0
0 0 0
0 0 0
49 214 16
189 239 33
107 57 99
189 231 57
24 33 66
189 214 41
0 0 8
0 0 0
16 173 66
16 156 16
115 140 156
0 0 0
8 165 66
16 156 16
115 140 156
0 0 0
16 181 165
16 156 16
115 140 156
0 0 0
0 0 0
0 0 0
0 0 0
0 0 0
0 0 16
0 0 0
0 0 0
0 0 0
206 123 165
16 156 8
115 140 156
0 0 0
140 41 165
0 41 0
0 0 0
0 0 0
140 16 33
0 41 0
0 0 0
0 0 0
140 41 0
0 8 57
0 0 0
0 0 0
0 16 0
0 0 0
0 132 24
0 0 0
0 0 0
57 247 0
0 0 0
57 247 0
0 0 0
57 247 0
0 0 0
0 0 0
222 140 165
57 239 198
115 66 181
57 206 148
24 66 165
189 214 8
0 0 8
0 0 0
16 214 198
16 156 16
115 140 156
0 0 0
16 115 99
16 156 16
115 140 156
0 0 0
16 198 0
16 156 16
115 140 156
0 0 0
0 0 0
0 0 0
0 0 0
0 0 0
0 0 16
0 0 0
0 0 0
0 0 0
206 123 165
16 156 8
115 140 156
0 0 0
140 57 99
0 41 0
0 0 0
0 0 0
140 24 231
0 41 0
0 0 0
0 0 0
140 41 0
0 8 57
0 0 0
0 0 0
0 16 0
0 0 0
0 132 24
0 0 0
0 0 0
57 247 0
0 0 0
57 247 0
0 0 0
57 247 0
0 0 0
0 0 0
0 165 156
57 239 148
115 165 165
189 222 165
181 41 173
57 148 231
0 0 8
0 0 0
33 8 66
16 156 16
115 140 156
0 0 0
16 198 0
16 156 16
115 140 156
0 0 0
8 148 231
16 156 16
115 140 156
0 0 0
0 0 0
0 0 0
0 0 0
0 0 0
0 0 16
0 0 0
0 0 0
0 0 0
206 123 165
16 156 8
115 140 156
0 0 0
140 74 33
0 41 0
0 0 0
0 0 0
140 41 165
0 41 0
0 0 0
0 0 0
140 41 0
0 8 57
0 0 0
0 0 0
0 16 0
0 0 0
0 132 33
0 0 0
0 0 0
57 247 0
0 0 0
57 247 0
0 0 0
57 247 0
0 0 0
0 0 0
66 8 123
189 156 132
107 8 173
189 239 247
156 41 16
57 198 57
0 0 8
0 0 0
16 173 66
16 156 16
115 140 156
0 0 0
8 148 231
16 156 16
115 140 156
0 0 0
8 165 66
16 156 16
115 140 156
0 0 0
0 0 0
0 0 0
0 0 0
0 0 0
0 0 16
0 0 0
0 0 0
0 0 0
206 123 165
16 156 8
115 140 156
0 0 0
140 82 231
0 41 0
0 0 0
0 0 0
140 57 99
0 41 0
0 0 0
0 0 0
140 41 0
0 8 57
0 0 0
0 0 0
0 16 0
0 0 0
0 132 33
0 0 0
0 0 0
57 247 0
0 0 0
57 247 0
0 0 0
57 247 0
0 0 0
0 0 0
0 0 0
0 0 0
231 165 156
189 239 247
8 90 173
57 198 8
0 0 8
0 0 0
33 8 66
16 156 16
115 140 156
0 0 0
8 148 231
16 156 16
115 140 156
0 0 0
16 173 66
16 156 16
115 140 156
0 0 0
0 0 0
0 0 0
0 0 0
0 0 0
0 0 16
0 0 0
0 0 0
0 0 0
206 123 165
16 156 8
115 140 156
0 0 0
140 99 165
0 41 0
0 0 0
0 0 0
140 74 33
0 41 0
0 0 0
0 0 0
140 41 0
0 8 57
0 0 0
0 0 0
0 16 0
0 0 0
0 132 41
0 0 0
0 0 0
57 247 0
0 0 0
57 247 0
0 0 0
57 247 0
0 0 0
0 0 0
247 214 239
57 173 41
222 255 57
57 231 206
181 231 41
189 231 214
0 0 8
0 0 0
16 239 132
16 156 16
115 140 156
0 0 0
16 115 99
16 156 16
115 140 156
0 0 0
16 231 33
16 156 16
115 140 156
0 0 0
0 0 0
0 0 0
0 0 0
0 0 0
0 0 16
0 0 0
0 0 0
0 0 0
206 123 165
16 156 8
115 140 156
0 0 0
140 115 99
0 41 0
0 0 0
0 0 0
140 82 231
0 41 0
0 0 0
0 0 0
140 41 0
0 8 57
0 0 0
0 0 0
0 16 0
0 0 0
0 132 41
0 0 0
0 0 0
57 247 0
0 0 0
57 247 0
0 0 0
57 247 0
0 0 0
0 0 0
0 0 0
132 0 0
49 90 198
189 239 140
239 255 239
189 222 173
0 0 8
0 0 0
16 156 231
16 156 16
115 140 156
0 0 0
33 8 66
16 156 16
115 140 156
0 0 0
16 173 66
16 156 16
115 140 156
0 0 0
0 0 0
0 0 0
0 0 0
0 0 0
0 0 16
0 0 0
0 0 0
0 0 0
206 123 165
16 156 8
115 140 156
0 0 0
140 132 33
0 41 0
0 0 0
0 0 0
140 99 165
0 41 0
0 0 0
0 0 0
140 41 0
0 8 57
0 0 0
0 0 0
0 16 0
0 0 0
0 132 49
0 0 0
0 0 0
57 247 0
0 0 0
57 247 0
0 0 0
57 247 0
0 0 0
0 0 0
8 115 90
57 231 24
148 16 57
189 231 123
198 222 33
189 231 74
0 0 8
0 0 0
16 156 231
16 156 16
115 140 156
0 0 0
16 198 0
16 156 16
115 140 156
0 0 0
33 8 66
16 156 16
115 140 156
0 0 0
0 0 0
0 0 0
0 0 0
0 0 0
0 0 16
0 0 0
0 0 0
0 0 0
206 123 165
16 156 8
115 140 156
0 0 0
140 140 231
0 41 0
0 0 0
0 0 0
140 115 99
0 41 0
0 0 0
0 0 0
140 41 0
0 8 57
0 0 0
0 0 0
0 16 0
0 0 0
0 132 49
0 0 0
0 0 0
57 247 0
0 0 0
57 247 0
0 0 0
57 247 0
0 0 0
0 0 0
148 206 41
57 231 49
107 66 198
189 222 173
49 16 41
189 231 206
0 0 8
0 0 0
16 156 231
16 156 16
115 140 156
0 0 0
16 214 198
16 156 16
115 140 156
0 0 0
16 198 0
16 156 16
115 140 156
0 0 0
0 0 0
0 0 0
0 0 0
0 0 0
0 0 16
0 0 0
0 0 0
0 0 0
206 123 165
16 156 8
115 140 156
0 0 0
140 156 165
0 41 0
0 0 0
0 0 0
140 132 33
0 41 0
0 0 0
0 0 0
140 41 0
0 8 57
0 0 0
0 0 0
0 16 0
0 0 0
0 132 57
0 0 0
0 0 0
57 247 0
0 0 0
57 247 0
0 0 0
57 247 0
0 0 0
0 0 0
99 156 99
57 82 8
33 156 90
189 222 24
214 247 0
189 239 173
0 0 8
0 0 0
16 156 231
16 156 16
115 140 156
0 0 0
16 231 33
16 156 16
115 140 156
0 0 0
16 214 198
16 156 16
115 140 156
0 0 0
0 0 0
0 0 0
0 0 0
0 0 0
0 0 16
0 0 0
0 0 0
0 0 0
206 123 165
16 156 8
115 140 156
0 0 0
140 173 99
0 41 0
0 0 0
0 0 0
140 140 231
0 41 0
0 0 0
0 0 0
140 41 0
0 8 57
0 0 0
0 0 0
0 16 0
0 0 0
0 132 57
0 0 0
0 0 0
57 247 0
0 0 0
57 247 0
0 0 0
57 247 0
0 0 0
0 0 0
247 181 41
189 231 66
57 24 90
189 222 181
173 165 57
189 231 181
0 0 8
0 0 0
16 156 231
16 156 16
115 140 156
0 0 0
16 181 165
16 156 16
115 140 156
0 0 0
16 231 33
16 156 16
115 140 156
0 0 0
0 0 0
0 0 0
0 0 0
0 0 0
0 0 16
0 0 0
0 0 0
0 0 0
206 123 165
16 156 8
115 140 156
0 0 0
140 189 33
0 41 0
0 0 0
0 0 0
140 156 165
0 41 0
0 0 0
0 0 0
140 41 0
0 8 57
0 0 0
0 0 0
0 16 0
0 0 0
0 132 66
0 0 0
0 0 0
57 247 0
0 0 0
57 247 0
0 0 0
57 247 0
0 0 0
0 0 0
206 198 99
57 156 90
57 231 49
189 231 247
90 148 90
189 231 181
0 0 8
0 0 0
24 0 66
16 156 16
115 140 156
0 0 0
24 74 231
16 156 16
115 140 156
0 0 0
24 8 165
16 156 16
115 140 156
0 0 0
0 0 0
0 0 0
0 0 0
0 0 0
0 0 16
0 0 0
0 0 0
0 0 0
206 123 165
16 156 8
115 140 156
0 0 0
140 198 231
0 41 0
0 0 0
0 0 0
140 173 99
0 41 0
0 0 0
0 0 0
140 41 0
0 8 57
0 0 0
0 0 0
0 16 0
0 0 0
0 132 66
0 0 0
0 0 0
57 247 0
0 0 0
57 247 0
0 0 0
57 247 0
0 0 0
0 0 0
173 231 148
57 239 24
74 123 49
189 231 33
214 123 247
189 214 165
0 0 8
0 0 0
24 0 66
16 156 16
115 140 156
0 0 0
24 99 165
16 156 16
115 140 156
0 0 0
24 74 231
16 156 16
115 140 156
0 0 0
0 0 0
0 0 0
0 0 0
0 0 0
0 0 16
0 0 0
0 0 0
0 0 0
206 123 165
16 156 8
115 140 156
0 0 0
140 214 165
0 41 0
0 0 0
0 0 0
140 189 33
0 41 0
0 0 0
0 0 0
140 41 0
0 8 57
0 0 0
0 0 0
0 16 0
0 0 0
0 132 74
0 0 0
0 0 0
57 247 0
0 0 0
57 247 0
0 0 0
57 247 0
0 0 0
0 0 0
181 181 107
57 198 214
49 107 74
189 222 90
8 66 49
189 239 148
0 0 8
0 0 0
24 33 99
16 156 16
115 140 156
0 0 0
33 16 165
16 156 16
115 140 156
0 0 0
24 0 66
16 156 16
115 140 156
0 0 0
0 0 0
0 0 0
0 0 0
0 0 0
0 0 16
0 0 0
0 0 0
0 0 0
206 123 165
16 156 8
115 140 156
0 0 0
140 231 99
0 41 0
0 0 0
0 0 0
140 198 231
0 41 0
0 0 0
0 0 0
140 41 0
0 8 57
0 0 0
0 0 0
0 16 0
0 0 0
0 132 74
0 0 0
0 0 0
57 247 0
0 0 0
57 247 0
0 0 0
57 247 0
0 0 0
0 0 0
214 148 132
57 173 198
222 8 41
189 231 8
239 123 0
189 239 107
0 0 8
0 0 0
24 0 66
16 156 16
115 140 156
0 0 0
24 24 0
16 156 16
115 140 156
0 0 0
24 33 99
16 156 16
115 140 156
0 0 0
0 0 0
0 0 0
0 0 0
0 0 0
0 0 16
0 0 0
0 0 0
0 0 0
206 123 165
16 156 8
115 140 156
0 0 0
140 247 33
0 41 0
0 0 0
0 0 0
140 214 165
0 41 0
0 0 0
0 0 0
140 41 0
0 8 57
0 0 0
0 0 0
0 16 0
0 0 0
0 132 82
0 0 0
0 0 0
57 247 0
0 0 0
57 247 0
0 0 0
57 247 0
0 0 0
0 0 0
148 198 222
57 239 66
189 255 189
189 198 214
74 74 123
189 231 49
0 0 8
0 0 0
24 0 66
16 156 16
115 140 156
0 0 0
33 16 165
16 156 16
115 140 156
0 0 0
24 99 165
16 156 16
115 140 156
0 0 0
0 0 0
0 0 0
0 0 0
0 0 0
0 0 16
0 0 0
0 0 0
0 0 0
206 123 165
16 156 8
115 140 156
0 0 0
140 255 231
0 41 0
0 0 0
0 0 0
140 231 99
0 41 0
0 0 0
0 0 0
140 41 0
0 8 57
0 0 0
0 0 0
0 16 0
0 0 0
0 132 82
0 0 0
0 0 0
57 247 0
0 0 0
57 247 0
0 0 0
57 247 0
0 0 0
0 0 0
198 255 107
57 239 165
82 74 173
189 214 115
181 8 41
189 214 57
0 0 8
0 0 0
214 90 231
16 156 8
115 140 156
0 0 0
239 8 33
16 156 8
115 140 156
0 0 0
0 107 198
16 156 16
115 140 156
0 0 0
0 0 0
0 0 0
0 0 0
0 0 0
0 0 16
0 0 0
0 0 0
0 0 0
206 123 165
16 156 8
115 140 156
0 0 0
148 8 165
0 41 0
0 0 0
0 0 0
140 247 33
0 41 0
0 0 0
0 0 0
140 41 0
0 8 57
0 0 0
0 0 0
0 16 0
0 0 0
0 132 90
0 0 0
0 0 0
57 247 0
0 0 0
57 247 0
0 0 0
57 247 0
0 0 0
0 0 0
74 214 115
57 239 132
0 57 255
57 206 49
181 0 49
57 222 132
0 0 8
0 0 0
0 0 0
16 156 16
115 140 156
0 0 0
8 57 231
16 156 16
115 140 156
0 0 0
24 239 33
16 156 16
115 140 156
0 0 0
0 0 0
0 0 0
0 0 0
0 0 0
0 0 16
0 0 0
0 0 0
0 0 0
206 123 165
16 156 8
115 140 156
0 0 0
148 24 99
0 41 0
0 0 0
0 0 0
140 255 231
0 41 0
0 0 0
0 0 0
140 41 0
0 8 57
0 0 0
0 0 0
0 16 0
0 0 0
0 132 90
0 0 0
0 0 0
57 247 0
0 0 0
57 247 0
0 0 0
57 247 0
0 0 0
0 0 0
214 74 148
57 239 239
173 239 148
189 181 239
41 66 239
57 198 222
0 0 8
0 0 0
33 33 0
16 156 16
115 140 156
0 0 0
24 239 33
16 156 16
115 140 156
0 0 0
24 247 132
16 156 16
115 140 156
0 0 0
0 0 0
0 0 0
0 0 0
0 0 0
0 0 16
0 0 0
0 0 0
0 0 0
206 123 165
16 156 8
115 140 156
0 0 0
148 41 33
0 41 0
0 0 0
0 0 0
148 8 165
0 41 0
0 0 0
0 0 0
140 41 0
0 8 57
0 0 0
0 0 0
0 16 0
0 0 0
0 132 99
0 0 0
0 0 0
57 247 0
0 0 0
57 247 0
0 0 0
57 247 0
0 0 0
0 0 0
148 24 41
57 239 239
189 33 66
189 198 8
148 0 148
189 198 33
0 0 8
0 0 0
33 33 0
16 156 16
115 140 156
0 0 0
24 247 132
16 156 16
115 140 156
0 0 0
255 214 132
16 156 8
115 140 156
0 0 0
0 0 0
0 0 0
0 0 0
0 0 0
0 0 16
0 0 0
0 0 0
0 0 0
206 123 165
16 156 8
115 140 156
0 0 0
148 49 231
0 41 0
0 0 0
0 0 0
148 24 99
0 41 0
0 0 0
0 0 0
140 41 0
0 8 57
0 0 0
0 0 0
0 16 0
0 0 0
0 132 99
0 0 0
0 0 0
57 247 0
0 0 0
57 247 0
0 0 0
57 247 0
0 0 0
0 0 0
206 123 49
57 231 132
49 247 206
189 222 255
82 57 165
189 231 99
0 0 8
0 0 0
255 214 132
16 156 8
115 140 156
0 0 0
24 247 132
16 156 16
115 140 156
0 0 0
255 222 231
16 156 8
115 140 156
0 0 0
0 0 0
0 0 0
0 0 0
0 0 0
0 0 16
0 0 0
0 0 0
0 0 0
206 123 165
16 156 8
115 140 156
0 0 0
148 66 165
0 41 0
0 0 0
0 0 0
148 41 33
0 41 0
0 0 0
0 0 0
140 41 0
0 8 57
0 0 0
0 0 0
0 16 0
0 0 0
0 132 107
0 0 0
0 0 0
57 247 0
0 0 0
57 247 0
0 0 0
57 247 0
0 0 0
0 0 0
181 33 16
57 231 198
222 206 123
57 222 33
132 115 181
57 231 107
0 0 8
0 0 0
8 24 198
16 156 16
115 140 156
0 0 0
24 206 0
16 156 16
115 140 156
0 0 0
24 222 198
16 156 16
115 140 156
0 0 0
0 0 0
0 0 0
0 0 0
0 0 0
0 0 16
0 0 0
0 0 0
0 0 0
206 123 165
16 156 8
115 140 156
0 0 0
148 82 99
0 41 0
0 0 0
0 0 0
148 49 231
0 41 0
0 0 0
0 0 0
140 41 0
0 8 57
0 0 0
0 0 0
0 16 0
0 0 0
0 132 107
0 0 0
0 0 0
57 247 0
0 0 0
57 247 0
0 0 0
57 247 0
0 0 0
0 0 0
99 24 0
189 231 115
132 173 8
189 231 115
24 66 33
189 222 255
0 0 8
0 0 0
8 148 231
16 156 16
115 140 156
0 0 0
16 206 99
16 156 16
115 140 156
0 0 0
24 255 231
16 156 16
115 140 156
0 0 0
0 0 0
0 0 0
0 0 0
0 0 0
0 0 16
0 0 0
0 0 0
0 0 0
206 123 165
16 156 8
115 140 156
0 0 0
148 99 33
0 41 0
0 0 0
0 0 0
148 66 165
0 41 0
0 0 0
0 0 0
140 41 0
0 8 57
0 0 0
0 0 0
0 16 0
0 0 0
0 132 115
0 0 0
0 0 0
57 247 0
0 0 0
57 247 0
0 0 0
57 247 0
0 0 0
0 0 0
173 156 123
57 148 132
8 156 82
189 239 198
156 140 173
57 214 198
0 0 8
0 0 0
8 148 231
16 156 16
115 140 156
0 0 0
24 255 231
16 156 16
115 140 156
0 0 0
16 148 132
16 156 16
115 140 156
0 0 0
0 0 0
0 0 0
0 0 0
0 0 0
0 0 16
0 0 0
0 0 0
0 0 0
206 123 165
16 156 8
115 140 156
0 0 0
148 107 231
0 41 0
0 0 0
0 0 0
148 82 99
0 41 0
0 0 0
0 0 0
140 41 0
0 8 57
0 0 0
0 0 0
0 16 0
0 0 0
0 132 115
0 0 0
0 0 0
57 247 0
0 0 0
57 247 0
0 0 0
57 247 0
0 0 0
0 0 0
247 16 107
57 239 49
99 24 82
189 231 66
255 198 239
189 206 8
0 0 8
0 0 0
16 148 132
16 156 16
115 140 156
0 0 0
24 90 66
16 156 16
115 140 156
0 0 0
24 115 0
16 156 16
115 140 156
0 0 0
0 0 0
0 0 0
0 0 0
0 0 0
0 0 16
0 0 0
0 0 0
0 0 0
206 123 165
16 156 8
115 140 156
0 0 0
148 123 165
0 41 0
0 0 0
0 0 0
148 99 33
0 41 0
0 0 0
0 0 0
140 41 0
0 8 57
0 0 0
0 0 0
0 16 0
0 0 0
0 132 123
0 0 0
0 0 0
57 247 0
0 0 0
57 247 0
0 0 0
57 247 0
0 0 0
0 0 0
132 132 8
57 231 57
214 255 239
57 239 74
247 255 74
189 156 239
0 0 8
0 0 0
0 107 198
16 156 16
115 140 156
0 0 0
24 115 0
16 156 16
115 140 156
0 0 0
24 57 33
16 156 16
115 140 156
0 0 0
0 0 0
0 0 0
0 0 0
0 0 0
0 0 16
0 0 0
0 0 0
0 0 0
206 123 165
16 156 8
115 140 156
0 0 0
148 140 99
0 41 0
0 0 0
0 0 0
148 107 231
0 41 0
0 0 0
0 0 0
140 41 0
0 8 57
0 0 0
0 0 0
0 16 0
0 0 0
0 132 123
0 0 0
0 0 0
57 247 0
0 0 0
57 247 0
0 0 0
57 247 0
0 0 0
0 0 0
189 24 173
57 206 0
255 99 247
57 239 115
239 123 165
189 222 173
0 0 8
0 0 0
16 115 99
16 156 16
115 140 156
0 0 0
0 107 198
16 156 16
115 140 156
0 0 0
24 41 198
16 156 16
115 140 156
0 0 0
0 0 0
0 0 0
0 0 0
0 0 0
0 0 16
0 0 0
0 0 0
0 0 0
206 123 165
16 156 8
115 140 156
0 0 0
148 156 33
0 41 0
0 0 0
0 0 0
148 123 165
0 41 0
0 0 0
0 0 0
140 41 0
0 8 57
0 0 0
0 0 0
0 16 0
0 0 0
0 132 132
0 0 0
0 0 0
57 247 0
0 0 0
57 247 0
0 0 0
57 247 0
0 0 0
0 0 0
198 140 189
189 231 198
140 24 140
189 214 66
115 74 140
189 231 165
0 0 8
0 0 0
16 115 99
16 156 16
115 140 156
0 0 0
24 41 198
16 156 16
115 140 156
0 0 0
16 206 99
16 156 16
115 140 156
0 0 0
0 0 0
0 0 0
0 0 0
0 0 0
0 0 16
0 0 0
0 0 0
0 0 0
206 123 165
16 156 8
115 140 156
0 0 0
148 165 231
0 41 0
0 0 0
0 0 0
148 140 99
0 41 0
0 0 0
0 0 0
140 41 0
0 8 57
0 0 0
0 0 0
0 16 0
0 0 0
0 132 132
0 0 0
0 0 0
57 247 0
0 0 0
57 247 0
0 0 0
57 247 0
0 0 0
0 0 0
198 140 189
57 231 198
140 24 140
189 214 66
115 74 140
189 231 165
0 0 8
0 0 0
33 189 66
16 156 16
115 140 156
0 0 0
33 198 165
16 156 16
115 140 156
0 0 0
33 214 0
16 156 16
115 140 156
0 0 0
0 0 0
0 0 0
0 0 0
0 0 0
0 0 16
0 0 0
0 0 0
0 0 0
206 123 165
16 156 8
115 140 156
0 0 0
148 181 165
0 41 0
0 0 0
0 0 0
148 156 33
0 41 0
0 0 0
0 0 0
140 41 0
0 8 57
0 0 0
0 0 0
0 16 0
0 0 0
0 132 140
0 0 0
0 0 0
57 247 0
0 0 0
57 247 0
0 0 0
57 247 0
0 0 0
0 0 0
189 24 173
189 206 0
255 99 247
57 239 115
239 123 165
189 222 173
0 0 8
0 0 0
33 189 66
16 156 16
115 140 156
0 0 0
33 214 0
16 156 16
115 140 156
0 0 0
33 222 99
16 156 16
115 140 156
0 0 0
0 0 0
0 0 0
0 0 0
0 0 0
0 0 16
0 0 0
0 0 0
0 0 0
206 123 165
16 156 8
115 140 156
0 0 0
148 198 99
0 41 0
0 0 0
0 0 0
148 165 231
0 41 0
0 0 0
0 0 0
140 41 0
0 8 57
0 0 0
0 0 0
0 16 0
0 0 0
0 132 140
0 0 0
0 0 0
57 247 0
0 0 0
57 247 0
0 0 0
57 247 0
0 0 0
0 0 0
132 132 8
189 231 57
214 255 239
57 239 74
247 255 74
189 156 239
0 0 8
0 0 0
33 222 99
16 156 16
115 140 156
0 0 0
33 231 198
16 156 16
115 140 156
0 0 0
33 247 33
16 156 16
115 140 156
0 0 0
0 0 0
0 0 0
0 0 0
0 0 0
0 0 16
0 0 0
0 0 0
0 0 0
206 123 165
16 156 8
115 140 156
0 0 0
148 214 33
0 41 0
0 0 0
0 0 0
148 181 165
0 41 0
0 0 0
0 0 0
140 41 0
0 8 57
0 0 0
0 0 0
0 16 0
0 0 0
0 132 148
0 0 0
0 0 0
57 247 0
0 0 0
57 247 0
0 0 0
57 247 0
0 0 0
0 0 0
247 16 107
189 239 49
99 24 82
189 231 66
255 198 239
189 206 8
0 0 8
0 0 0
33 255 132
16 156 16
115 140 156
0 0 0
33 247 33
16 156 16
115 140 156
0 0 0
41 0 231
16 156 16
115 140 156
0 0 0
0 0 0
0 0 0
0 0 0
0 0 0
0 0 16
0 0 0
0 0 0
0 0 0
206 123 165
16 156 8
115 140 156
0 0 0
148 222 231
0 41 0
0 0 0
0 0 0
148 198 99
0 41 0
0 0 0
0 0 0
140 41 0
0 8 57
0 0 0
0 0 0
0 16 0
0 0 0
0 132 148
0 0 0
0 0 0
57 247 0
0 0 0
57 247 0
0 0 0
57 247 0
0 0 0
0 0 0
189 82 74
189 165 74
115 206 90
189 239 198
16 115 132
57 214 165
0 0 8
0 0 0
41 16 66
16 156 16
115 140 156
0 0 0
33 255 132
16 156 16
115 140 156
0 0 0
41 24 165
16 156 16
115 140 156
0 0 0
0 0 0
0 0 0
0 0 0
0 0 0
0 0 16
0 0 0
0 0 0
0 0 0
206 123 165
16 156 8
115 140 156
0 0 0
148 239 165
0 41 0
0 0 0
0 0 0
148 214 33
0 41 0
0 0 0
0 0 0
140 41 0
0 8 57
0 0 0
0 0 0
0 16 0
0 0 0
0 132 156
0 0 0
0 0 0
57 247 0
0 0 0
57 247 0
0 0 0
57 247 0
0 0 0
0 0 0
255 66 239
57 231 123
156 90 115
189 231 115
206 115 255
189 222 214
0 0 8
0 0 0
41 16 66
16 156 16
115 140 156
0 0 0
41 24 165
16 156 16
115 140 156
0 0 0
33 198 165
16 156 16
115 140 156
0 0 0
0 0 0
0 0 0
0 0 0
0 0 0
0 0 16
0 0 0
0 0 0
0 0 0
206 123 165
16 156 8
115 140 156
0 0 0
148 255 99
0 41 0
0 0 0
0 0 0
148 222 231
0 41 0
0 0 0
0 0 0
140 41 0
0 8 57
0 0 0
0 0 0
0 16 0
0 0 0
0 132 156
0 0 0
0 0 0
57 247 0
0 0 0
57 247 0
0 0 0
57 247 0
0 0 0
0 0 0
0 33 181
189 231 181
239 222 41
57 222 16
8 16 24
57 231 140
0 0 8
0 0 0
41 41 0
16 156 16
115 140 156
0 0 0
41 74 33
16 156 16
115 140 156
0 0 0
41 49 99
16 156 16
115 140 156
0 0 0
0 0 0
0 0 0
0 0 0
0 0 0
0 0 16
0 0 0
0 0 0
0 0 0
206 123 165
16 156 8
115 140 156
0 0 0
156 8 33
0 41 0
0 0 0
0 0 0
148 239 165
0 41 0
0 0 0
0 0 0
140 41 0
0 8 57
0 0 0
0 0 0
0 16 0
0 0 0
0 132 165
0 0 0
0 0 0
57 247 0
0 0 0
57 247 0
0 0 0
57 247 0
0 0 0
0 0 0
206 123 49
189 231 132
49 247 206
189 222 255
82 57 165
189 231 99
0 0 8
0 0 0
33 82 231
16 156 16
115 140 156
0 0 0
41 82 132
16 156 16
115 140 156
0 0 0
41 90 231
16 156 16
115 140 156
0 0 0
0 0 0
0 0 0
0 0 0
0 0 0
0 0 16
0 0 0
0 0 0
0 0 0
206 123 165
16 156 8
115 140 156
0 0 0
156 16 231
0 41 0
0 0 0
0 0 0
148 255 99
0 41 0
0 0 0
0 0 0
140 41 0
0 8 57
0 0 0
0 0 0
0 16 0
0 0 0
0 132 165
0 0 0
0 0 0
57 247 0
0 0 0
57 247 0
0 0 0
57 247 0
0 0 0
0 0 0
148 24 41
189 239 239
189 33 66
189 198 8
148 0 148
189 198 33
0 0 8
0 0 0
33 99 66
16 156 16
115 140 156
0 0 0
33 82 231
16 156 16
115 140 156
0 0 0
41 90 231
16 156 16
115 140 156
0 0 0
0 0 0
0 0 0
0 0 0
0 0 0
0 0 16
0 0 0
0 0 0
0 0 0
206 123 165
16 156 8
115 140 156
0 0 0
156 33 165
0 41 0
0 0 0
0 0 0
156 8 33
0 41 0
0 0 0
0 0 0
140 41 0
0 8 57
0 0 0
0 0 0
0 16 0
0 0 0
0 132 173
0 0 0
0 0 0
57 247 0
0 0 0
57 247 0
0 0 0
57 247 0
0 0 0
0 0 0
214 74 148
189 239 239
173 239 148
189 181 239
41 66 239
57 198 222
0 0 8
0 0 0
33 99 66
16 156 16
115 140 156
0 0 0
41 90 231
16 156 16
115 140 156
0 0 0
41 107 66
16 156 16
115 140 156
0 0 0
0 0 0
0 0 0
0 0 0
0 0 0
0 0 16
0 0 0
0 0 0
0 0 0
206 123 165
16 156 8
115 140 156
0 0 0
156 49 99
0 41 0
0 0 0
0 0 0
156 16 231
0 41 0
0 0 0
0 0 0
140 41 0
0 8 57
0 0 0
0 0 0
0 16 0
0 0 0
0 132 173
0 0 0
0 0 0
57 247 0
0 0 0
57 247 0
0 0 0
57 247 0
0 0 0
0 0 0
74 214 115
189 239 132
0 57 255
57 206 49
181 0 49
57 222 132
0 0 8
0 0 0
41 115 165
16 156 16
115 140 156
0 0 0
41 107 66
16 156 16
115 140 156
0 0 0
41 132 0
16 156 16
115 140 156
0 0 0
0 0 0
0 0 0
0 0 0
0 0 0
0 0 16
0 0 0
0 0 0
0 0 0
206 123 165
16 156 8
115 140 156
0 0 0
156 66 33
0 41 0
0 0 0
0 0 0
156 33 165
0 41 0
0 0 0
0 0 0
140 41 0
0 8 57
0 0 0
0 0 0
0 16 0
0 0 0
0 132 181
0 0 0
0 0 0
57 247 0
0 0 0
57 247 0
0 0 0
57 247 0
0 0 0
0 0 0
115 33 16
189 239 156
173 41 8
189 214 148
24 206 24
189 214 66
0 0 8
0 0 0
41 165 33
16 156 16
115 140 156
0 0 0
33 222 99
16 156 16
115 140 156
0 0 0
41 173 132
16 156 16
115 140 156
0 0 0
0 0 0
0 0 0
0 0 0
0 0 0
0 0 16
0 0 0
0 0 0
0 0 0
206 123 165
16 156 8
115 140 156
0 0 0
156 74 231
0 41 0
0 0 0
0 0 0
156 49 99
0 41 0
0 0 0
0 0 0
140 41 0
0 8 57
0 0 0
0 0 0
0 16 0
0 0 0
0 132 181
0 0 0
0 0 0
57 247 0
0 0 0
57 247 0
0 0 0
57 247 0
0 0 0
0 0 0
148 198 222
189 239 66
189 255 189
189 198 214
74 74 123
189 231 49
0 0 8
0 0 0
41 222 0
16 156 16
115 140 156
0 0 0
41 231 99
16 156 16
115 140 156
0 0 0
41 239 198
16 156 16
115 140 156
0 0 0
0 0 0
0 0 0
0 0 0
0 0 0
0 0 16
0 0 0
0 0 0
0 0 0
206 123 165
16 156 8
115 140 156
0 0 0
156 90 165
0 41 0
0 0 0
0 0 0
156 66 33
0 41 0
0 0 0
0 0 0
140 41 0
0 8 57
0 0 0
0 0 0
0 16 0
0 0 0
0 132 189
0 0 0
0 0 0
57 247 0
0 0 0
57 247 0
0 0 0
57 247 0
0 0 0
0 0 0
214 148 132
189 173 198
222 8 41
189 231 8
239 123 0
189 239 107
0 0 8
0 0 0
41 222 0
16 156 16
115 140 156
0 0 0
41 255 33
16 156 16
115 140 156
0 0 0
49 0 132
16 156 16
115 140 156
0 0 0
0 0 0
0 0 0
0 0 0
0 0 0
0 0 16
0 0 0
0 0 0
0 0 0
206 123 165
16 156 8
115 140 156
0 0 0
156 107 99
0 41 0
0 0 0
0 0 0
156 74 231
0 41 0
0 0 0
0 0 0
140 41 0
0 8 57
0 0 0
0 0 0
0 16 0
0 0 0
0 132 189
0 0 0
0 0 0
57 247 0
0 0 0
57 247 0
0 0 0
57 247 0
0 0 0
0 0 0
181 181 107
189 198 214
49 107 74
189 222 90
8 66 49
189 239 148
0 0 8
0 0 0
41 255 33
16 156 16
115 140 156
0 0 0
41 222 0
16 156 16
115 140 156
0 0 0
41 239 198
16 156 16
115 140 156
0 0 0
0 0 0
0 0 0
0 0 0
0 0 0
0 0 16
0 0 0
0 0 0
0 0 0
206 123 165
16 156 8
115 140 156
0 0 0
156 123 33
0 41 0
0 0 0
0 0 0
156 90 165
0 41 0
0 0 0
0 0 0
140 41 0
0 8 57
0 0 0
0 0 0
0 16 0
0 0 0
0 132 198
0 0 0
0 0 0
57 247 0
0 0 0
57 247 0
0 0 0
57 247 0
0 0 0
0 0 0
173 231 148
189 239 24
74 123 49
189 231 33
214 123 247
189 214 165
0 0 8
0 0 0
41 222 0
16 156 16
115 140 156
0 0 0
49 8 231
16 156 16
115 140 156
0 0 0
41 231 99
16 156 16
115 140 156
0 0 0
0 0 0
0 0 0
0 0 0
0 0 0
0 0 16
0 0 0
0 0 0
0 0 0
206 123 165
16 156 8
115 140 156
0 0 0
156 132 231
0 41 0
0 0 0
0 0 0
156 107 99
0 41 0
0 0 0
0 0 0
140 41 0
0 8 57
0 0 0
0 0 0
0 16 0
0 0 0
0 132 198
0 0 0
0 0 0
57 247 0
0 0 0
57 247 0
0 0 0
57 247 0
0 0 0
0 0 0
206 198 99
189 156 90
57 231 49
189 231 247
90 148 90
189 231 181
0 0 8
0 0 0
41 222 0
16 156 16
115 140 156
0 0 0
49 24 66
16 156 16
115 140 156
0 0 0
49 8 231
16 156 16
115 140 156
0 0 0
0 0 0
0 0 0
0 0 0
0 0 0
0 0 16
0 0 0
0 0 0
0 0 0
206 123 165
16 156 8
115 140 156
0 0 0
156 148 165
0 41 0
0 0 0
0 0 0
156 123 33
0 41 0
0 0 0
0 0 0
140 41 0
0 8 57
0 0 0
0 0 0
0 16 0
0 0 0
0 132 206
0 0 0
0 0 0
57 247 0
0 0 0
57 247 0
0 0 0
57 247 0
0 0 0
0 0 0
247 181 41
57 231 66
57 24 90
189 222 181
173 165 57
189 231 181
0 0 8
0 0 0
49 33 165
16 156 16
115 140 156
0 0 0
49 49 0
16 156 16
115 140 156
0 0 0
49 57 99
16 156 16
115 140 156
0 0 0
0 0 0
0 0 0
0 0 0
0 0 0
0 0 16
0 0 0
0 0 0
0 0 0
206 123 165
16 156 8
115 140 156
0 0 0
156 165 99
0 41 0
0 0 0
0 0 0
156 132 231
0 41 0
0 0 0
0 0 0
140 41 0
0 8 57
0 0 0
0 0 0
0 16 0
0 0 0
0 132 206
0 0 0
0 0 0
57 247 0
0 0 0
57 247 0
0 0 0
57 247 0
0 0 0
0 0 0
99 156 99
189 82 8
33 156 90
189 222 24
214 247 0
189 239 173
0 0 8
0 0 0
49 33 165
16 156 16
115 140 156
0 0 0
49 66 198
16 156 16
115 140 156
0 0 0
49 49 0
16 156 16
115 140 156
0 0 0
0 0 0
0 0 0
0 0 0
0 0 0
0 0 16
0 0 0
0 0 0
0 0 0
206 123 165
16 156 8
115 140 156
0 0 0
156 181 33
0 41 0
0 0 0
0 0 0
156 148 165
0 41 0
0 0 0
0 0 0
140 41 0
0 8 57
0 0 0
0 0 0
0 16 0
0 0 0
0 132 214
0 0 0
0 0 0
57 247 0
0 0 0
57 247 0
0 0 0
57 247 0
0 0 0
0 0 0
148 206 41
189 231 49
107 66 198
189 222 173
49 16 41
189 231 206
0 0 8
0 0 0
49 33 165
16 156 16
115 140 156
0 0 0
49 82 33
16 156 16
115 140 156
0 0 0
49 66 198
16 156 16
115 140 156
0 0 0
0 0 0
0 0 0
0 0 0
0 0 0
0 0 16
0 0 0
0 0 0
0 0 0
206 123 165
16 156 8
115 140 156
0 0 0
156 189 231
0 41 0
0 0 0
0 0 0
156 165 99
0 41 0
0 0 0
0 0 0
140 41 0
0 8 57
0 0 0
0 0 0
0 16 0
0 0 0
0 132 214
0 0 0
0 0 0
57 247 0
0 0 0
57 247 0
0 0 0
57 247 0
0 0 0
0 0 0
8 115 90
189 231 24
148 16 57
189 231 123
198 222 33
189 231 74
0 0 8
0 0 0
49 33 165
16 156 16
115 140 156
0 0 0
49 90 132
16 156 16
115 140 156
0 0 0
49 82 33
16 156 16
115 140 156
0 0 0
0 0 0
0 0 0
0 0 0
0 0 0
0 0 16
0 0 0
0 0 0
0 0 0
206 123 165
16 156 8
115 140 156
0 0 0
156 206 165
0 41 0
0 0 0
0 0 0
156 181 33
0 41 0
0 0 0
0 0 0
140 41 0
0 8 57
0 0 0
0 0 0
0 16 0
0 0 0
0 132 222
0 0 0
0 0 0
57 247 0
0 0 0
57 247 0
0 0 0
57 247 0
0 0 0
0 0 0
0 0 0
132 0 0
49 90 198
189 239 140
239 255 239
189 222 173
0 0 8
0 0 0
49 33 165
16 156 16
115 140 156
0 0 0
49 99 231
16 156 16
115 140 156
0 0 0
49 90 132
16 156 16
115 140 156
0 0 0
0 0 0
0 0 0
0 0 0
0 0 0
0 0 16
0 0 0
0 0 0
0 0 0
206 123 165
16 156 8
115 140 156
0 0 0
156 222 99
0 41 0
0 0 0
0 0 0
156 189 231
0 41 0
0 0 0
0 0 0
140 41 0
0 8 57
0 0 0
0 0 0
0 16 0
0 0 0
0 132 222
0 0 0
0 0 0
57 247 0
0 0 0
57 247 0
0 0 0
57 247 0
0 0 0
0 0 0
74 24 206
189 173 99
165 247 99
57 231 206
222 239 8
189 231 214
0 0 8
0 0 0
16 239 132
16 156 16
115 140 156
0 0 0
49 49 0
16 156 16
115 140 156
0 0 0
33 189 66
16 156 16
115 140 156
0 0 0
0 0 0
0 0 0
0 0 0
0 0 0
0 0 16
0 0 0
0 0 0
0 0 0
206 123 165
16 156 8
115 140 156
0 0 0
156 239 33
0 41 0
0 0 0
0 0 0
156 206 165
0 41 0
0 0 0
0 0 0
140 41 0
0 8 57
0 0 0
0 0 0
0 16 0
0 0 0
0 132 231
0 0 0
0 0 0
57 247 0
0 0 0
57 247 0
0 0 0
57 247 0
0 0 0
0 0 0
0 0 0
0 0 0
99 74 0
189 239 255
198 132 107
57 189 148
0 0 8
0 0 0
49 90 132
16 156 16
115 140 156
0 0 0
49 99 231
16 156 16
115 140 156
0 0 0
41 16 66
16 156 16
115 140 156
0 0 0
0 0 0
0 0 0
0 0 0
0 0 0
0 0 16
0 0 0
0 0 0
0 0 0
206 123 165
16 156 8
115 140 156
0 0 0
156 247 231
0 41 0
0 0 0
0 0 0
156 222 99
0 41 0
0 0 0
0 0 0
140 41 0
0 8 57
0 0 0
0 0 0
0 16 0
0 0 0
0 132 231
0 0 0
0 0 0
57 247 0
0 0 0
57 247 0
0 0 0
57 247 0
0 0 0
0 0 0
123 82 41
57 165 206
132 107 247
189 239 247
24 181 99
57 198 24
0 0 8
0 0 0
49 99 231
16 156 16
115 140 156
0 0 0
8 165 66
16 156 16
115 140 156
0 0 0
41 16 66
16 156 16
115 140 156
0 0 0
0 0 0
0 0 0
0 0 0
0 0 0
0 0 16
0 0 0
0 0 0
0 0 0
206 123 165
16 156 8
115 140 156
0 0 0
165 0 165
0 41 0
0 0 0
0 0 0
156 239 33
0 41 0
0 0 0
0 0 0
140 41 0
0 8 57
0 0 0
0 0 0
0 16 0
0 0 0
0 132 239
0 0 0
0 0 0
57 247 0
0 0 0
57 247 0
0 0 0
57 247 0
0 0 0
0 0 0
132 16 49
189 239 132
49 49 0
189 222 206
107 198 181
189 148 66
0 0 8
0 0 0
49 90 132
16 156 16
115 140 156
0 0 0
41 16 66
16 156 16
115 140 156
0 0 0
49 82 33
16 156 16
115 140 156
0 0 0
0 0 0
0 0 0
0 0 0
0 0 0
0 0 16
0 0 0
0 0 0
0 0 0
206 123 165
16 156 8
115 140 156
0 0 0
165 16 99
0 41 0
0 0 0
0 0 0
156 247 231
0 41 0
0 0 0
0 0 0
140 41 0
0 8 57
0 0 0
0 0 0
0 16 0
0 0 0
0 132 239
0 0 0
0 0 0
57 247 0
0 0 0
57 247 0
0 0 0
57 247 0
0 0 0
0 0 0
222 140 165
189 239 198
115 66 181
57 206 148
24 66 165
189 214 8
0 0 8
0 0 0
49 66 198
16 156 16
115 140 156
0 0 0
49 82 33
16 156 16
115 140 156
0 0 0
33 189 66
16 156 16
115 140 156
0 0 0
0 0 0
0 0 0
0 0 0
0 0 0
0 0 16
0 0 0
0 0 0
0 0 0
206 123 165
16 156 8
115 140 156
0 0 0
165 33 33
0 41 0
0 0 0
0 0 0
165 0 165
0 41 0
0 0 0
0 0 0
140 41 0
0 8 57
0 0 0
0 0 0
0 16 0
0 0 0
0 132 247
0 0 0
0 0 0
57 247 0
0 0 0
57 247 0
0 0 0
57 247 0
0 0 0
0 0 0
49 214 16
57 239 33
107 57 99
189 231 57
24 33 66
189 214 41
0 0 8
0 0 0
49 99 231
16 156 16
115 140 156
0 0 0
49 57 99
16 156 16
115 140 156
0 0 0
8 165 66
16 156 16
115 140 156
0 0 0
0 0 0
0 0 0
0 0 0
0 0 0
0 0 16
0 0 0
0 0 0
0 0 0
206 123 165
16 156 8
115 140 156
0 0 0
165 41 231
0 41 0
0 0 0
0 0 0
165 16 99
0 41 0
0 0 0
0 0 0
140 41 0
0 8 57
0 0 0
0 0 0
0 16 0
0 0 0
0 132 247
0 0 0
0 0 0
57 247 0
0 0 0
57 247 0
0 0 0
57 247 0
0 0 0
0 0 0
123 173 16
57 239 156
198 189 148
189 189 123
82 239 99
189 222 74
0 0 8
0 0 0
16 247 231
16 156 16
115 140 156
0 0 0
49 57 99
16 156 16
115 140 156
0 0 0
16 239 132
16 156 16
115 140 156
0 0 0
0 0 0
0 0 0
0 0 0
0 0 0
0 0 16
0 0 0
0 0 0
0 0 0
206 123 165
16 156 8
115 140 156
0 0 0
165 57 165
0 41 0
0 0 0
0 0 0
165 33 33
0 41 0
0 0 0
0 0 0
140 41 0
0 8 57
0 0 0
0 0 0
0 16 0
0 0 0
0 132 255
0 0 0
0 0 0
57 247 0
0 0 0
57 247 0
0 0 0
57 247 0
0 0 0
0 0 0
239 99 247
57 206 132
123 255 132
189 239 8
173 74 181
189 231 115
0 0 8
0 0 0
41 24 165
16 156 16
115 140 156
0 0 0
49 24 66
16 156 16
115 140 156
0 0 0
49 115 66
16 156 16
115 140 156
0 0 0
0 0 0
0 0 0
0 0 0
0 0 0
0 0 16
0 0 0
0 0 0
0 0 0
206 123 165
16 156 8
115 140 156
0 0 0
165 74 99
0 41 0
0 0 0
0 0 0
165 41 231
0 41 0
0 0 0
0 0 0
140 41 0
0 8 57
0 0 0
0 0 0
0 16 0
0 0 0
0 132 255
0 0 0
0 0 0
57 247 0
0 0 0
57 247 0
0 0 0
57 247 0
0 0 0
0 0 0
165 255 33
189 239 247
115 41 132
189 189 255
231 156 140
57 173 74
0 0 8
0 0 0
41 16 66
16 156 16
115 140 156
0 0 0
33 198 165
16 156 16
115 140 156
0 0 0
49 82 33
16 156 16
115 140 156
0 0 0
0 0 0
0 0 0
0 0 0
0 0 0
0 0 16
0 0 0
0 0 0
0 0 0
206 123 165
16 156 8
115 140 156
0 0 0
165 90 33
0 41 0
0 0 0
0 0 0
165 57 165
0 41 0
0 0 0
0 0 0
140 41 0
0 8 57
0 0 0
0 0 0
0 16 0
0 0 0
0 140 0
0 0 0
0 0 0
57 247 0
0 0 0
57 247 0
0 0 0
57 247 0
0 0 0
0 0 0
214 49 214
57 239 132
247 49 231
189 181 247
57 165 16
189 222 198
0 0 8
0 0 0
49 49 0
16 156 16
115 140 156
0 0 0
16 239 132
16 156 16
115 140 156
0 0 0
49 57 99
16 156 16
115 140 156
0 0 0
0 0 0
0 0 0
0 0 0
0 0 0
0 0 16
0 0 0
0 0 0
0 0 0
206 123 165
16 156 8
115 140 156
0 0 0
165 99 231
0 41 0
0 0 0
0 0 0
165 74 99
0 41 0
0 0 0
0 0 0
140 41 0
0 8 57
0 0 0
0 0 0
0 16 0
0 0 0
0 140 0
0 0 0
0 0 0
57 247 0
0 0 0
57 247 0
0 0 0
57 247 0
0 0 0
0 0 0
247 57 49
189 231 74
255 132 16
189 231 231
57 16 156
189 222 16
0 0 8
0 0 0
41 82 132
16 156 16
115 140 156
0 0 0
41 140 99
16 156 16
115 140 156
0 0 0
49 140 0
16 156 16
115 140 156
0 0 0
0 0 0
0 0 0
0 0 0
0 0 0
0 0 16
0 0 0
0 0 0
0 0 0
206 123 165
16 156 8
115 140 156
0 0 0
165 115 165
0 41 0
0 0 0
0 0 0
165 90 33
0 41 0
0 0 0
0 0 0
140 41 0
0 8 57
0 0 0
0 0 0
0 16 0
0 0 0
0 140 8
0 0 0
0 0 0
57 247 0
0 0 0
57 247 0
0 0 0
57 247 0
0 0 0
0 0 0
123 132 247
189 231 115
49 140 198
189 222 247
148 115 99
189 231 123
0 0 8
0 0 0
41 82 132
16 156 16
115 140 156
0 0 0
49 140 0
16 156 16
115 140 156
0 0 0
41 90 231
16 156 16
115 140 156
0 0 0
0 0 0
0 0 0
0 0 0
0 0 0
0 0 16
0 0 0
0 0 0
0 0 0
206 123 165
16 156 8
115 140 156
0 0 0
165 132 99
0 41 0
0 0 0
0 0 0
165 99 231
0 41 0
0 0 0
0 0 0
140 41 0
0 8 57
0 0 0
0 0 0
0 16 0
0 0 0
0 140 8
0 0 0
0 0 0
57 247 0
0 0 0
57 247 0
0 0 0
57 247 0
0 0 0
0 0 0
189 49 239
189 239 222
99 173 115
57 214 24
247 239 49
189 173 0
0 0 8
0 0 0
49 140 0
16 156 16
115 140 156
0 0 0
49 148 99
16 156 16
115 140 156
0 0 0
41 107 66
16 156 16
115 140 156
0 0 0
0 0 0
0 0 0
0 0 0
0 0 0
0 0 16
0 0 0
0 0 0
0 0 0
206 123 165
16 156 8
115 140 156
0 0 0
165 148 33
0 41 0
0 0 0
0 0 0
165 115 165
0 41 0
0 0 0
0 0 0
140 41 0
0 8 57
0 0 0
0 0 0
0 16 0
0 0 0
0 140 16
0 0 0
0 0 0
57 247 0
0 0 0
57 247 0
0 0 0
57 247 0
0 0 0
0 0 0
247 16 99
189 231 41
33 99 24
57 222 24
148 82 49
57 231 255
0 0 8
0 0 0
49 148 99
16 156 16
115 140 156
0 0 0
41 41 0
16 156 16
115 140 156
0 0 0
49 156 198
16 156 16
115 140 156
0 0 0
0 0 0
0 0 0
0 0 0
0 0 0
0 0 16
0 0 0
0 0 0
0 0 0
206 123 165
16 156 8
115 140 156
0 0 0
165 156 231
0 41 0
0 0 0
0 0 0
165 132 99
0 41 0
0 0 0
0 0 0
140 41 0
0 8 57
0 0 0
0 0 0
0 16 0
0 0 0
0 140 16
0 0 0
0 0 0
57 247 0
0 0 0
57 247 0
0 0 0
57 247 0
0 0 0
0 0 0
189 206 99
189 231 255
16 214 66
189 222 74
206 0 0
57 231 16
0 0 8
0 0 0
41 74 33
16 156 16
115 140 156
0 0 0
41 140 99
16 156 16
115 140 156
0 0 0
41 49 99
16 156 16
115 140 156
0 0 0
0 0 0
0 0 0
0 0 0
0 0 0
0 0 16
0 0 0
0 0 0
0 0 0
206 123 165
16 156 8
115 140 156
0 0 0
165 173 165
0 41 0
0 0 0
0 0 0
165 148 33
0 41 0
0 0 0
0 0 0
140 41 0
0 8 57
0 0 0
0 0 0
0 16 0
0 0 0
0 140 24
0 0 0
0 0 0
57 247 0
0 0 0
57 247 0
0 0 0
57 247 0
0 0 0
0 0 0
33 148 239
189 231 255
82 222 123
57 231 115
0 239 132
57 214 24
0 0 8
0 0 0
41 107 66
16 156 16
115 140 156
0 0 0
49 148 99
16 156 16
115 140 156
0 0 0
41 132 0
16 156 16
115 140 156
0 0 0
0 0 0
0 0 0
0 0 0
0 0 0
0 0 16
0 0 0
0 0 0
0 0 0
206 123 165
16 156 8
115 140 156
0 0 0
165 189 99
0 41 0
0 0 0
0 0 0
165 156 231
0 41 0
0 0 0
0 0 0
140 41 0
0 8 57
0 0 0
0 0 0
0 16 0
0 0 0
0 140 24
0 0 0
0 0 0
57 247 0
0 0 0
57 247 0
0 0 0
57 247 0
0 0 0
0 0 0
41 57 198
189 239 148
74 181 24
189 222 140
107 107 24
57 181 247
0 0 8
0 0 0
49 140 0
16 156 16
115 140 156
0 0 0
41 140 99
16 156 16
115 140 156
0 0 0
41 74 33
16 156 16
115 140 156
0 0 0
0 0 0
0 0 0
0 0 0
0 0 0
0 0 16
0 0 0
0 0 0
0 0 0
206 123 165
16 156 8
115 140 156
0 0 0
165 206 33
0 41 0
0 0 0
0 0 0
165 173 165
0 41 0
0 0 0
0 0 0
140 41 0
0 8 57
0 0 0
0 0 0
0 16 0
0 0 0
0 140 33
0 0 0
0 0 0
57 247 0
0 0 0
57 247 0
0 0 0
57 247 0
0 0 0
0 0 0
165 49 231
189 239 239
140 132 82
189 165 148
198 57 148
57 198 222
0 0 8
0 0 0
49 140 0
16 156 16
115 140 156
0 0 0
41 74 33
16 156 16
115 140 156
0 0 0
49 148 99
16 156 16
115 140 156
0 0 0
0 0 0
0 0 0
0 0 0
0 0 0
0 0 16
0 0 0
0 0 0
0 0 0
206 123 165
16 156 8
115 140 156
0 0 0
165 214 231
0 41 0
0 0 0
0 0 0
165 189 99
0 41 0
0 0 0
0 0 0
140 41 0
0 8 57
0 0 0
0 0 0
0 16 0
0 0 0
0 140 33
0 0 0
0 0 0
57 247 0
0 0 0
57 247 0
0 0 0
57 247 0
0 0 0
0 0 0
247 8 66
57 222 107
148 0 165
189 214 214
16 115 148
189 239 82
0 0 8
0 0 0
57 66 99
16 156 16
115 140 156
0 0 0
57 74 198
16 156 16
115 140 156
0 0 0
57 90 33
16 156 16
115 140 156
0 0 0
0 0 0
0 0 0
0 0 0
0 0 0
0 0 16
0 0 0
0 0 0
0 0 0
206 123 165
16 156 8
115 140 156
0 0 0
165 231 165
0 41 0
0 0 0
0 0 0
165 206 33
0 41 0
0 0 0
0 0 0
140 41 0
0 8 57
0 0 0
0 0 0
0 16 0
0 0 0
0 140 41
0 0 0
0 0 0
57 247 0
0 0 0
57 247 0
0 0 0
57 247 0
0 0 0
0 0 0
82 247 148
189 214 165
165 140 66
57 231 16
33 57 41
189 239 41
0 0 8
0 0 0
57 66 99
16 156 16
115 140 156
0 0 0
57 222 165
16 156 16
115 140 156
0 0 0
33 74 132
16 156 16
115 140 156
0 0 0
0 0 0
0 0 0
0 0 0
0 0 0
0 0 16
0 0 0
0 0 0
0 0 0
206 123 165
16 156 8
115 140 156
0 0 0
165 247 99
0 41 0
0 0 0
0 0 0
165 214 231
0 41 0
0 0 0
0 0 0
140 41 0
0 8 57
0 0 0
0 0 0
0 16 0
0 0 0
0 140 41
0 0 0
0 0 0
57 247 0
0 0 0
57 247 0
0 0 0
57 247 0
0 0 0
0 0 0
132 0 189
189 198 132
33 82 99
57 156 123
189 173 115
189 239 247
0 0 8
0 0 0
57 66 99
16 156 16
115 140 156
0 0 0
57 90 33
16 156 16
115 140 156
0 0 0
57 239 0
16 156 16
115 140 156
0 0 0
0 0 0
0 0 0
0 0 0
0 0 0
0 0 16
0 0 0
0 0 0
0 0 0
206 123 165
16 156 8
115 140 156
0 0 0
173 0 33
0 41 0
0 0 0
0 0 0
165 231 165
0 41 0
0 0 0
0 0 0
140 41 0
0 8 57
0 0 0
0 0 0
0 16 0
0 0 0
0 140 49
0 0 0
0 0 0
57 247 0
0 0 0
57 247 0
0 0 0
57 247 0
0 0 0
0 0 0
24 90 74
189 214 123
231 132 49
57 214 33
90 82 41
189 239 165
0 0 8
0 0 0
57 66 99
16 156 16
115 140 156
0 0 0
57 239 0
16 156 16
115 140 156
0 0 0
57 222 165
16 156 16
115 140 156
0 0 0
0 0 0
0 0 0
0 0 0
0 0 0
0 0 16
0 0 0
0 0 0
0 0 0
206 123 165
16 156 8
115 140 156
0 0 0
173 8 231
0 41 0
0 0 0
0 0 0
165 247 99
0 41 0
0 0 0
0 0 0
140 41 0
0 8 57
0 0 0
0 0 0
0 16 0
0 0 0
0 140 49
0 0 0
0 0 0
57 247 0
0 0 0
57 247 0
0 0 0
57 247 0
0 0 0
0 0 0
148 140 49
189 239 49
8 115 148
57 231 57
0 214 123
189 206 140
0 0 8
0 0 0
41 231 99
16 156 16
115 140 156
0 0 0
33 247 33
16 156 16
115 140 156
0 0 0
33 231 198
16 156 16
115 140 156
0 0 0
0 0 0
0 0 0
0 0 0
0 0 0
0 0 16
0 0 0
0 0 0
0 0 0
206 123 165
16 156 8
115 140 156
0 0 0
173 24 165
0 41 0
0 0 0
0 0 0
173 0 33
0 41 0
0 0 0
0 0 0
140 41 0
0 8 57
0 0 0
0 0 0
0 16 0
0 0 0
0 140 57
0 0 0
0 0 0
57 247 0
0 0 0
57 247 0
0 0 0
57 247 0
0 0 0
0 0 0
115 123 206
189 231 239
239 90 57
189 231 115
255 82 82
57 214 90
0 0 8
0 0 0
41 231 99
16 156 16
115 140 156
0 0 0
41 0 231
16 156 16
115 140 156
0 0 0
33 247 33
16 156 16
115 140 156
0 0 0
0 0 0
0 0 0
0 0 0
0 0 0
0 0 16
0 0 0
0 0 0
0 0 0
206 123 165
16 156 8
115 140 156
0 0 0
173 41 99
0 41 0
0 0 0
0 0 0
173 8 231
0 41 0
0 0 0
0 0 0
140 41 0
0 8 57
0 0 0
0 0 0
0 16 0
0 0 0
0 140 57
0 0 0
0 0 0
57 247 0
0 0 0
57 247 0
0 0 0
57 247 0
0 0 0
0 0 0
90 231 41
189 181 74
66 57 255
189 239 206
66 132 140
57 214 107
0 0 8
0 0 0
49 24 66
16 156 16
115 140 156
0 0 0
41 24 165
16 156 16
115 140 156
0 0 0
41 0 231
16 156 16
115 140 156
0 0 0
0 0 0
0 0 0
0 0 0
0 0 0
0 0 16
0 0 0
0 0 0
0 0 0
206 123 165
16 156 8
115 140 156
0 0 0
173 57 33
0 41 0
0 0 0
0 0 0
173 24 165
0 41 0
0 0 0
0 0 0
140 41 0
0 8 57
0 0 0
0 0 0
0 16 0
0 0 0
0 140 66
0 0 0
0 0 0
57 247 0
0 0 0
57 247 0
0 0 0
57 247 0
0 0 0
0 0 0
107 189 206
57 214 239
0 132 8
189 222 41
198 49 231
189 239 90
0 0 8
0 0 0
41 255 33
16 156 16
115 140 156
0 0 0
33 214 0
16 156 16
115 140 156
0 0 0
49 115 66
16 156 16
115 140 156
0 0 0
0 0 0
0 0 0
0 0 0
0 0 0
0 0 16
0 0 0
0 0 0
0 0 0
206 123 165
16 156 8
115 140 156
0 0 0
173 66 231
0 41 0
0 0 0
0 0 0
173 41 99
0 41 0
0 0 0
0 0 0
140 41 0
0 8 57
0 0 0
0 0 0
0 16 0
0 0 0
0 140 66
0 0 0
0 0 0
57 247 0
0 0 0
57 247 0
0 0 0
57 247 0
0 0 0
0 0 0
66 198 181
189 181 173
0 222 66
57 231 198
165 255 24
189 231 231
0 0 8
0 0 0
41 255 33
16 156 16
115 140 156
0 0 0
33 231 198
16 156 16
115 140 156
0 0 0
33 214 0
16 156 16
115 140 156
0 0 0
0 0 0
0 0 0
0 0 0
0 0 0
0 0 16
0 0 0
0 0 0
0 0 0
206 123 165
16 156 8
115 140 156
0 0 0
173 82 165
0 41 0
0 0 0
0 0 0
173 57 33
0 41 0
0 0 0
0 0 0
140 41 0
0 8 57
0 0 0
0 0 0
0 16 0
0 0 0
0 140 74
0 0 0
0 0 0
57 247 0
0 0 0
57 247 0
0 0 0
57 247 0
0 0 0
0 0 0
173 123 16
189 173 148
115 16 99
189 231 255
90 82 99
189 231 165
0 0 8
0 0 0
41 222 0
16 156 16
115 140 156
0 0 0
49 0 132
16 156 16
115 140 156
0 0 0
49 24 66
16 156 16
115 140 156
0 0 0
0 0 0
0 0 0
0 0 0
0 0 0
0 0 16
0 0 0
0 0 0
0 0 0
206 123 165
16 156 8
115 140 156
0 0 0
173 99 99
0 41 0
0 0 0
0 0 0
173 66 231
0 41 0
0 0 0
0 0 0
140 41 0
0 8 57
0 0 0
0 0 0
0 16 0
0 0 0
0 140 74
0 0 0
0 0 0
57 247 0
0 0 0
57 247 0
0 0 0
57 247 0
0 0 0
0 0 0
66 16 148
57 239 156
115 255 99
189 214 198
189 148 148
189 214 8
0 0 8
0 0 0
8 165 66
16 156 16
115 140 156
0 0 0
49 57 99
16 156 16
115 140 156
0 0 0
16 247 231
16 156 16
115 140 156
0 0 0
0 0 0
0 0 0
0 0 0
0 0 0
0 0 16
0 0 0
0 0 0
0 0 0
206 123 165
16 156 8
115 140 156
0 0 0
173 115 33
0 41 0
0 0 0
0 0 0
173 82 165
0 41 0
0 0 0
0 0 0
140 41 0
0 8 57
0 0 0
0 0 0
0 16 0
0 0 0
0 140 82
0 0 0
0 0 0
57 247 0
0 0 0
57 247 0
0 0 0
57 247 0
0 0 0
0 0 0
247 57 132
189 198 173
148 132 173
57 231 173
8 107 107
189 231 239
0 0 8
0 0 0
49 66 198
16 156 16
115 140 156
0 0 0
33 189 66
16 156 16
115 140 156
0 0 0
49 49 0
16 156 16
115 140 156
0 0 0
0 0 0
0 0 0
0 0 0
0 0 0
0 0 16
0 0 0
0 0 0
0 0 0
206 123 165
16 156 8
115 140 156
0 0 0
173 123 231
0 41 0
0 0 0
0 0 0
173 99 99
0 41 0
0 0 0
0 0 0
140 41 0
0 8 57
0 0 0
0 0 0
0 16 0
0 0 0
0 140 82
0 0 0
0 0 0
57 247 0
0 0 0
57 247 0
0 0 0
57 247 0
0 0 0
0 0 0
206 99 165
189 239 231
148 66 8
57 206 41
123 33 49
189 198 0
0 0 8
0 0 0
49 82 33
16 156 16
115 140 156
0 0 0
33 198 165
16 156 16
115 140 156
0 0 0
33 189 66
16 156 16
115 140 156
0 0 0
0 0 0
0 0 0
0 0 0
0 0 0
0 0 16
0 0 0
0 0 0
0 0 0
206 123 165
16 156 8
115 140 156
0 0 0
173 140 165
0 41 0
0 0 0
0 0 0
173 115 33
0 41 0
0 0 0
0 0 0
140 41 0
0 8 57
0 0 0
0 0 0
0 16 0
0 0 0
0 140 90
0 0 0
0 0 0
57 247 0
0 0 0
57 247 0
0 0 0
57 247 0
0 0 0
0 0 0
8 41 140
57 231 66
198 222 165
189 231 107
57 222 206
189 231 57
0 0 8
0 0 0
49 33 165
16 156 16
115 140 156
0 0 0
49 57 99
16 156 16
115 140 156
0 0 0
49 99 231
16 156 16
115 140 156
0 0 0
0 0 0
0 0 0
0 0 0
0 0 0
0 0 16
0 0 0
0 0 0
0 0 0
206 123 165
16 156 8
115 140 156
0 0 0
173 156 99
0 41 0
0 0 0
0 0 0
173 123 231
0 41 0
0 0 0
0 0 0
140 41 0
0 8 57
0 0 0
0 0 0
0 16 0
0 0 0
0 140 90
0 0 0
0 0 0
57 247 0
0 0 0
57 247 0
0 0 0
57 247 0
0 0 0
0 0 0
189 33 8
57 189 206
66 173 206
189 231 156
66 198 181
57 239 0
0 0 8
0 0 0
41 16 66
16 156 16
115 140 156
0 0 0
66 49 165
16 156 16
115 140 156
0 0 0
33 255 132
16 156 16
115 140 156
0 0 0
0 0 0
0 0 0
0 0 0
0 0 0
0 0 16
0 0 0
0 0 0
0 0 0
206 123 165
16 156 8
115 140 156
0 0 0
173 173 33
0 41 0
0 0 0
0 0 0
173 140 165
0 41 0
0 0 0
0 0 0
140 41 0
0 8 57
0 0 0
0 0 0
0 16 0
0 0 0
0 140 99
0 0 0
0 0 0
57 247 0
0 0 0
57 247 0
0 0 0
57 247 0
0 0 0
0 0 0
24 198 181
189 231 41
66 90 24
57 231 99
165 148 123
57 231 90
0 0 8
0 0 0
49 156 198
16 156 16
115 140 156
0 0 0
41 132 0
16 156 16
115 140 156
0 0 0
49 148 99
16 156 16
115 140 156
0 0 0
0 0 0
0 0 0
0 0 0
0 0 0
0 0 16
0 0 0
0 0 0
0 0 0
206 123 165
16 156 8
115 140 156
0 0 0
173 181 231
0 41 0
0 0 0
0 0 0
173 156 99
0 41 0
0 0 0
0 0 0
140 41 0
0 8 57
0 0 0
0 0 0
0 16 0
0 0 0
0 140 99
0 0 0
0 0 0
57 247 0
0 0 0
57 247 0
0 0 0
57 247 0
0 0 0
0 0 0
123 231 8
189 231 24
239 140 49
189 214 206
99 16 206
189 239 24
0 0 8
0 0 0
41 173 132
16 156 16
115 140 156
0 0 0
66 49 165
16 156 16
115 140 156
0 0 0
66 165 99
16 156 16
115 140 156
0 0 0
0 0 0
0 0 0
0 0 0
0 0 0
0 0 16
0 0 0
0 0 0
0 0 0
206 123 165
16 156 8
115 140 156
0 0 0
173 198 165
0 41 0
0 0 0
0 0 0
173 173 33
0 41 0
0 0 0
0 0 0
140 41 0
0 8 57
0 0 0
0 0 0
0 16 0
0 0 0
0 140 107
0 0 0
0 0 0
57 247 0
0 0 0
57 247 0
0 0 0
57 247 0
0 0 0
0 0 0
247 148 214
189 231 206
156 107 173
189 206 123
90 156 206
189 231 181
0 0 8
0 0 0
57 66 99
16 156 16
115 140 156
0 0 0
41 173 132
16 156 16
115 140 156
0 0 0
57 74 198
16 156 16
115 140 156
0 0 0
0 0 0
0 0 0
0 0 0
0 0 0
0 0 16
0 0 0
0 0 0
0 0 0
206 123 165
16 156 8
115 140 156
0 0 0
173 214 99
0 41 0
0 0 0
0 0 0
173 181 231
0 41 0
0 0 0
0 0 0
140 41 0
0 8 57
0 0 0
0 0 0
0 16 0
0 0 0
0 140 107
0 0 0
0 0 0
57 247 0
0 0 0
57 247 0
0 0 0
57 247 0
0 0 0
0 0 0
148 222 82
189 231 33
214 181 206
189 231 16
99 132 231
57 231 165
0 0 8
0 0 0
33 132 99
16 156 16
115 140 156
0 0 0
41 115 165
16 156 16
115 140 156
0 0 0
33 107 165
16 156 16
115 140 156
0 0 0
0 0 0
0 0 0
0 0 0
0 0 0
0 0 16
0 0 0
0 0 0
0 0 0
206 123 165
16 156 8
115 140 156
0 0 0
173 231 33
0 41 0
0 0 0
0 0 0
173 198 165
0 41 0
0 0 0
0 0 0
140 41 0
0 8 57
0 0 0
0 0 0
0 16 0
0 0 0
0 140 115
0 0 0
0 0 0
57 247 0
0 0 0
57 247 0
0 0 0
57 247 0
0 0 0
0 0 0
66 255 198
189 231 214
74 206 214
189 156 90
165 49 99
189 231 214
0 0 8
0 0 0
41 173 132
16 156 16
115 140 156
0 0 0
66 165 99
16 156 16
115 140 156
0 0 0
57 74 198
16 156 16
115 140 156
0 0 0
0 0 0
0 0 0
0 0 0
0 0 0
0 0 16
0 0 0
0 0 0
0 0 0
206 123 165
16 156 8
115 140 156
0 0 0
173 239 231
0 41 0
0 0 0
0 0 0
173 214 99
0 41 0
0 0 0
0 0 0
140 41 0
0 8 57
0 0 0
0 0 0
0 16 0
0 0 0
0 140 115
0 0 0
0 0 0
57 247 0
0 0 0
57 247 0
0 0 0
57 247 0
0 0 0
0 0 0
148 41 57
189 239 132
222 255 165
189 214 198
66 90 33
189 214 148
0 0 8
0 0 0
57 66 99
16 156 16
115 140 156
0 0 0
41 165 33
16 156 16
115 140 156
0 0 0
41 173 132
16 156 16
115 140 156
0 0 0
0 0 0
0 0 0
0 0 0
0 0 0
0 0 16
0 0 0
0 0 0
0 0 0
206 123 165
16 156 8
115 140 156
0 0 0
173 255 165
0 41 0
0 0 0
0 0 0
173 231 33
0 41 0
0 0 0
0 0 0
140 41 0
0 8 57
0 0 0
0 0 0
0 16 0
0 0 0
0 140 123
0 0 0
0 0 0
57 247 0
0 0 0
57 247 0
0 0 0
57 247 0
0 0 0
0 0 0
99 132 74
189 222 189
24 156 222
189 239 123
49 49 198
57 198 181
0 0 8
0 0 0
49 8 231
16 156 16
115 140 156
0 0 0
49 24 66
16 156 16
115 140 156
0 0 0
41 0 231
16 156 16
115 140 156
0 0 0
0 0 0
0 0 0
0 0 0
0 0 0
0 0 16
0 0 0
0 0 0
0 0 0
206 123 165
16 156 8
115 140 156
0 0 0
181 8 99
0 41 0
0 0 0
0 0 0
173 239 231
0 41 0
0 0 0
0 0 0
140 41 0
0 8 57
0 0 0
0 0 0
0 16 0
0 0 0
0 140 123
0 0 0
0 0 0
57 247 0
0 0 0
57 247 0
0 0 0
57 247 0
0 0 0
0 0 0
90 231 41
57 181 74
66 57 255
189 239 206
66 132 140
57 214 107
0 0 8
0 0 0
24 255 231
16 156 16
115 140 156
0 0 0
24 8 165
16 156 16
115 140 156
0 0 0
24 90 66
16 156 16
115 140 156
0 0 0
0 0 0
0 0 0
0 0 0
0 0 0
0 0 16
0 0 0
0 0 0
0 0 0
206 123 165
16 156 8
115 140 156
0 0 0
181 24 33
0 41 0
0 0 0
0 0 0
173 255 165
0 41 0
0 0 0
0 0 0
140 41 0
0 8 57
0 0 0
0 0 0
0 16 0
0 0 0
0 140 132
0 0 0
0 0 0
57 247 0
0 0 0
57 247 0
0 0 0
57 247 0
0 0 0
0 0 0
231 132 156
189 239 24
82 165 156
57 189 99
156 148 132
57 231 115
0 0 8
0 0 0
33 255 132
16 156 16
115 140 156
0 0 0
66 49 165
16 156 16
115 140 156
0 0 0
41 173 132
16 156 16
115 140 156
0 0 0
0 0 0
0 0 0
0 0 0
0 0 0
0 0 16
0 0 0
0 0 0
0 0 0
206 123 165
16 156 8
115 140 156
0 0 0
181 33 231
0 41 0
0 0 0
0 0 0
181 8 99
0 41 0
0 0 0
0 0 0
140 41 0
0 8 57
0 0 0
0 0 0
0 16 0
0 0 0
0 140 132
0 0 0
0 0 0
57 247 0
0 0 0
57 247 0
0 0 0
57 247 0
0 0 0
0 0 0
115 140 173
189 189 206
90 74 74
189 239 33
115 90 156
189 231 115
0 0 8
0 0 0
16 239 132
16 156 16
115 140 156
0 0 0
33 189 66
16 156 16
115 140 156
0 0 0
16 16 0
16 156 16
115 140 156
0 0 0
0 0 0
0 0 0
0 0 0
0 0 0
0 0 16
0 0 0
0 0 0
0 0 0
206 123 165
16 156 8
115 140 156
0 0 0
181 49 165
0 41 0
0 0 0
0 0 0
181 24 33
0 41 0
0 0 0
0 0 0
140 41 0
0 8 57
0 0 0
0 0 0
0 16 0
0 0 0
0 140 140
0 0 0
0 0 0
57 247 0
0 0 0
57 247 0
0 0 0
57 247 0
0 0 0
0 0 0
57 198 148
57 148 123
165 99 99
57 231 239
33 222 99
189 231 189
0 0 8
0 0 0
41 239 198
16 156 16
115 140 156
0 0 0
33 231 198
16 156 16
115 140 156
0 0 0
41 255 33
16 156 16
115 140 156
0 0 0
0 0 0
0 0 0
0 0 0
0 0 0
0 0 16
0 0 0
0 0 0
0 0 0
206 123 165
16 156 8
115 140 156
0 0 0
181 66 99
0 41 0
0 0 0
0 0 0
181 33 231
0 41 0
0 0 0
0 0 0
140 41 0
0 8 57
0 0 0
0 0 0
0 16 0
0 0 0
0 140 140
0 0 0
0 0 0
57 247 0
0 0 0
57 247 0
0 0 0
57 247 0
0 0 0
0 0 0
140 123 255
57 231 123
90 0 132
189 181 156
239 82 82
189 239 24
0 0 8
0 0 0
49 0 132
16 156 16
115 140 156
0 0 0
41 255 33
16 156 16
115 140 156
0 0 0
49 115 66
16 156 16
115 140 156
0 0 0
0 0 0
0 0 0
0 0 0
0 0 0
0 0 16
0 0 0
0 0 0
0 0 0
206 123 165
16 156 8
115 140 156
0 0 0
181 82 33
0 41 0
0 0 0
0 0 0
181 49 165
0 41 0
0 0 0
0 0 0
140 41 0
0 8 57
0 0 0
0 0 0
0 16 0
0 0 0
0 140 148
0 0 0
0 0 0
57 247 0
0 0 0
57 247 0
0 0 0
57 247 0
0 0 0
0 0 0
198 239 231
189 231 239
181 24 148
189 231 107
90 255 82
57 214 107
0 0 8
0 0 0
49 8 231
16 156 16
115 140 156
0 0 0
41 0 231
16 156 16
115 140 156
0 0 0
41 231 99
16 156 16
115 140 156
0 0 0
0 0 0
0 0 0
0 0 0
0 0 0
0 0 16
0 0 0
0 0 0
0 0 0
206 123 165
16 156 8
115 140 156
0 0 0
181 90 231
0 41 0
0 0 0
0 0 0
181 66 99
0 41 0
0 0 0
0 0 0
140 41 0
0 8 57
0 0 0
0 0 0
0 16 0
0 0 0
0 140 148
0 0 0
0 0 0
57 247 0
0 0 0
57 247 0
0 0 0
57 247 0
0 0 0
0 0 0
173 24 239
189 239 41
173 123 0
57 231 74
214 24 132
189 198 247
0 0 8
0 0 0
41 239 198
16 156 16
115 140 156
0 0 0
41 231 99
16 156 16
115 140 156
0 0 0
33 231 198
16 156 16
115 140 156
0 0 0
0 0 0
0 0 0
0 0 0
0 0 0
0 0 16
0 0 0
0 0 0
0 0 0
206 123 165
16 156 8
115 140 156
0 0 0
181 107 165
0 41 0
0 0 0
0 0 0
181 82 33
0 41 0
0 0 0
0 0 0
140 41 0
0 8 57
0 0 0
0 0 0
0 16 0
0 0 0
0 140 156
0 0 0
0 0 0
57 247 0
0 0 0
57 247 0
0 0 0
57 247 0
0 0 0
0 0 0
74 239 8
189 231 132
16 198 231
57 198 107
0 132 132
57 239 8
0 0 8
0 0 0
41 74 33
16 156 16
115 140 156
0 0 0
41 41 0
16 156 16
115 140 156
0 0 0
49 148 99
16 156 16
115 140 156
0 0 0
0 0 0
0 0 0
0 0 0
0 0 0
0 0 16
0 0 0
0 0 0
0 0 0
206 123 165
16 156 8
115 140 156
0 0 0
181 123 99
0 41 0
0 0 0
0 0 0
181 90 231
0 41 0
0 0 0
0 0 0
140 41 0
0 8 57
0 0 0
0 0 0
0 16 0
0 0 0
0 140 156
0 0 0
0 0 0
57 247 0
0 0 0
57 247 0
0 0 0
57 247 0
0 0 0
0 0 0
255 49 173
189 239 222
49 148 0
57 206 239
66 0 57
189 189 33
0 0 8
0 0 0
41 90 231
16 156 16
115 140 156
0 0 0
49 140 0
16 156 16
115 140 156
0 0 0
41 107 66
16 156 16
115 140 156
0 0 0
0 0 0
0 0 0
0 0 0
0 0 0
0 0 16
0 0 0
0 0 0
0 0 0
206 123 165
16 156 8
115 140 156
0 0 0
181 140 33
0 41 0
0 0 0
0 0 0
181 107 165
0 41 0
0 0 0
0 0 0
140 41 0
0 8 57
0 0 0
0 0 0
0 16 0
0 0 0
0 140 165
0 0 0
0 0 0
57 247 0
0 0 0
57 247 0
0 0 0
57 247 0
0 0 0
0 0 0
0 16 115
57 214 181
214 0 181
189 239 49
140 198 132
189 222 239
0 0 8
0 0 0
49 0 132
16 156 16
115 140 156
0 0 0
49 115 66
16 156 16
115 140 156
0 0 0
49 24 66
16 156 16
115 140 156
0 0 0
0 0 0
0 0 0
0 0 0
0 0 0
0 0 16
0 0 0
0 0 0
0 0 0
206 123 165
16 156 8
115 140 156
0 0 0
181 148 231
0 41 0
0 0 0
0 0 0
181 123 99
0 41 0
0 0 0
0 0 0
140 41 0
0 8 57
0 0 0
0 0 0
0 16 0
0 0 0
0 140 165
0 0 0
0 0 0
57 247 0
0 0 0
57 247 0
0 0 0
57 247 0
0 0 0
0 0 0
206 107 140
189 231 255
198 214 231
57 132 173
140 66 140
57 231 165
0 0 8
0 0 0
33 132 99
16 156 16
115 140 156
0 0 0
41 107 66
16 156 16
115 140 156
0 0 0
41 115 165
16 156 16
115 140 156
0 0 0
0 0 0
0 0 0
0 0 0
0 0 0
0 0 16
0 0 0
0 0 0
0 0 0
206 123 165
16 156 8
115 140 156
0 0 0
181 165 165
0 41 0
0 0 0
0 0 0
181 140 33
0 41 0
0 0 0
0 0 0
140 41 0
0 8 57
0 0 0
0 0 0
0 16 0
0 0 0
0 140 173
0 0 0
0 0 0
57 247 0
0 0 0
57 247 0
0 0 0
57 247 0
0 0 0
0 0 0
247 165 247
189 239 239
16 181 173
189 189 74
206 255 0
57 198 181
0 0 8
0 0 0
33 132 99
16 156 16
115 140 156
0 0 0
33 99 66
16 156 16
115 140 156
0 0 0
41 107 66
16 156 16
115 140 156
0 0 0
0 0 0
0 0 0
0 0 0
0 0 0
0 0 16
0 0 0
0 0 0
0 0 0
206 123 165
16 156 8
115 140 156
0 0 0
181 181 99
0 41 0
0 0 0
0 0 0
181 148 231
0 41 0
0 0 0
0 0 0
140 41 0
0 8 57
0 0 0
0 0 0
0 16 0
0 0 0
0 140 173
0 0 0
0 0 0
57 247 0
0 0 0
57 247 0
0 0 0
57 247 0
0 0 0
0 0 0
115 90 140
57 231 107
115 41 82
189 231 115
255 41 247
189 231 0
0 0 8
0 0 0
49 115 66
16 156 16
115 140 156
0 0 0
33 198 165
16 156 16
115 140 156
0 0 0
41 24 165
16 156 16
115 140 156
0 0 0
0 0 0
0 0 0
0 0 0
0 0 0
0 0 16
0 0 0
0 0 0
0 0 0
206 123 165
16 156 8
115 140 156
0 0 0
181 198 33
0 41 0
0 0 0
0 0 0
181 165 165
0 41 0
0 0 0
0 0 0
140 41 0
0 8 57
0 0 0
0 0 0
0 16 0
0 0 0
0 140 181
0 0 0
0 0 0
57 247 0
0 0 0
57 247 0
0 0 0
57 247 0
0 0 0
0 0 0
231 231 123
189 181 140
140 156 181
189 239 214
214 123 82
57 214 66
0 0 8
0 0 0
41 0 231
16 156 16
115 140 156
0 0 0
41 24 165
16 156 16
115 140 156
0 0 0
33 255 132
16 156 16
115 140 156
0 0 0
0 0 0
0 0 0
0 0 0
0 0 0
0 0 16
0 0 0
0 0 0
0 0 0
206 123 165
16 156 8
115 140 156
0 0 0
181 206 231
0 41 0
0 0 0
0 0 0
181 181 99
0 41 0
0 0 0
0 0 0
140 41 0
0 8 57
0 0 0
0 0 0
0 16 0
0 0 0
0 140 181
0 0 0
0 0 0
57 247 0
0 0 0
57 247 0
0 0 0
57 247 0
0 0 0
0 0 0
247 115 165
189 231 123
99 115 90
57 181 165
148 41 99
57 239 24
0 0 8
0 0 0
41 173 132
16 156 16
115 140 156
0 0 0
33 247 33
16 156 16
115 140 156
0 0 0
33 255 132
16 156 16
115 140 156
0 0 0
0 0 0
0 0 0
0 0 0
0 0 0
0 0 16
0 0 0
0 0 0
0 0 0
206 123 165
16 156 8
115 140 156
0 0 0
181 222 165
0 41 0
0 0 0
0 0 0
181 198 33
0 41 0
0 0 0
0 0 0
140 41 0
0 8 57
0 0 0
0 0 0
0 16 0
0 0 0
0 140 189
0 0 0
0 0 0
57 247 0
0 0 0
57 247 0
0 0 0
57 247 0
0 0 0
0 0 0
16 66 156
189 231 57
239 115 165
57 239 82
206 148 140
189 148 8
0 0 8
0 0 0
41 173 132
16 156 16
115 140 156
0 0 0
33 222 99
16 156 16
115 140 156
0 0 0
33 247 33
16 156 16
115 140 156
0 0 0
0 0 0
0 0 0
0 0 0
0 0 0
0 0 16
0 0 0
0 0 0
0 0 0
206 123 165
16 156 8
115 140 156
0 0 0
181 239 99
0 41 0
0 0 0
0 0 0
181 206 231
0 41 0
0 0 0
0 0 0
140 41 0
0 8 57
0 0 0
0 0 0
0 16 0
0 0 0
0 140 189
0 0 0
0 0 0
57 247 0
0 0 0
57 247 0
0 0 0
57 247 0
0 0 0
0 0 0
239 115 33
57 181 16
24 140 198
57 239 206
231 33 66
189 214 115
0 0 8
0 0 0
33 231 198
16 156 16
115 140 156
0 0 0
33 222 99
16 156 16
115 140 156
0 0 0
33 214 0
16 156 16
115 140 156
0 0 0
0 0 0
0 0 0
0 0 0
0 0 0
0 0 16
0 0 0
0 0 0
0 0 0
206 123 165
16 156 8
115 140 156
0 0 0
181 255 33
0 41 0
0 0 0
0 0 0
181 222 165
0 41 0
0 0 0
0 0 0
140 41 0
0 8 57
0 0 0
0 0 0
0 16 0
0 0 0
0 140 198
0 0 0
0 0 0
57 247 0
0 0 0
57 247 0
0 0 0
57 247 0
0 0 0
0 0 0
90 0 33
57 231 132
156 173 66
189 214 214
247 198 255
189 231 198
0 0 8
0 0 0
49 115 66
16 156 16
115 140 156
0 0 0
33 214 0
16 156 16
115 140 156
0 0 0
33 198 165
16 156 16
115 140 156
0 0 0
0 0 0
0 0 0
0 0 0
0 0 0
0 0 16
0 0 0
0 0 0
0 0 0
206 123 165
16 156 8
115 140 156
0 0 0
189 0 231
0 41 0
0 0 0
0 0 0
181 239 99
0 41 0
0 0 0
0 0 0
140 41 0
0 8 57
0 0 0
0 0 0
0 16 0
0 0 0
0 140 198
0 0 0
0 0 0
57 247 0
0 0 0
57 247 0
0 0 0
57 247 0
0 0 0
0 0 0
90 0 33
189 231 132
156 173 66
189 214 214
247 198 255
189 231 198
0 0 8
0 0 0
24 66 132
16 156 16
115 140 156
0 0 0
16 206 99
16 156 16
115 140 156
0 0 0
24 41 198
16 156 16
115 140 156
0 0 0
0 0 0
0 0 0
0 0 0
0 0 0
0 0 16
0 0 0
0 0 0
0 0 0
206 123 165
16 156 8
115 140 156
0 0 0
189 16 165
0 41 0
0 0 0
0 0 0
181 255 33
0 41 0
0 0 0
0 0 0
140 41 0
0 8 57
0 0 0
0 0 0
0 16 0
0 0 0
0 140 206
0 0 0
0 0 0
57 247 0
0 0 0
57 247 0
0 0 0
57 247 0
0 0 0
0 0 0
239 115 33
189 181 16
24 140 198
57 239 206
231 33 66
189 214 115
0 0 8
0 0 0
24 57 33
16 156 16
115 140 156
0 0 0
24 41 198
16 156 16
115 140 156
0 0 0
0 107 198
16 156 16
115 140 156
0 0 0
0 0 0
0 0 0
0 0 0
0 0 0
0 0 16
0 0 0
0 0 0
0 0 0
206 123 165
16 156 8
115 140 156
0 0 0
189 33 99
0 41 0
0 0 0
0 0 0
189 0 231
0 41 0
0 0 0
0 0 0
140 41 0
0 8 57
0 0 0
0 0 0
0 16 0
0 0 0
0 140 206
0 0 0
0 0 0
57 247 0
0 0 0
57 247 0
0 0 0
57 247 0
0 0 0
0 0 0
16 66 156
57 231 57
239 115 165
57 239 82
206 148 140
189 148 8
0 0 8
0 0 0
239 8 33
16 156 8
115 140 156
0 0 0
24 115 0
16 156 16
115 140 156
0 0 0
0 107 198
16 156 16
115 140 156
0 0 0
0 0 0
0 0 0
0 0 0
0 0 0
0 0 16
0 0 0
0 0 0
0 0 0
206 123 165
16 156 8
115 140 156
0 0 0
189 49 33
0 41 0
0 0 0
0 0 0
189 16 165
0 41 0
0 0 0
0 0 0
140 41 0
0 8 57
0 0 0
0 0 0
0 16 0
0 0 0
0 140 214
0 0 0
0 0 0
57 247 0
0 0 0
57 247 0
0 0 0
57 247 0
0 0 0
0 0 0
247 115 165
57 231 123
99 115 90
57 181 165
148 41 99
57 239 24
0 0 8
0 0 0
239 8 33
16 156 8
115 140 156
0 0 0
16 148 132
16 156 16
115 140 156
0 0 0
24 115 0
16 156 16
115 140 156
0 0 0
0 0 0
0 0 0
0 0 0
0 0 0
0 0 16
0 0 0
0 0 0
0 0 0
206 123 165
16 156 8
115 140 156
0 0 0
189 57 231
0 41 0
0 0 0
0 0 0
189 33 99
0 41 0
0 0 0
0 0 0
140 41 0
0 8 57
0 0 0
0 0 0
0 16 0
0 0 0
0 140 214
0 0 0
0 0 0
57 247 0
0 0 0
57 247 0
0 0 0
57 247 0
0 0 0
0 0 0
231 231 123
57 181 140
140 156 181
189 239 214
214 123 82
57 214 66
0 0 8
0 0 0
24 90 66
16 156 16
115 140 156
0 0 0
16 148 132
16 156 16
115 140 156
0 0 0
24 255 231
16 156 16
115 140 156
0 0 0
0 0 0
0 0 0
0 0 0
0 0 0
0 0 16
0 0 0
0 0 0
0 0 0
206 123 165
16 156 8
115 140 156
0 0 0
189 74 165
0 41 0
0 0 0
0 0 0
189 49 33
0 41 0
0 0 0
0 0 0
140 41 0
0 8 57
0 0 0
0 0 0
0 16 0
0 0 0
0 140 222
0 0 0
0 0 0
57 247 0
0 0 0
57 247 0
0 0 0
57 247 0
0 0 0
0 0 0
115 90 140
189 231 107
115 41 82
189 231 115
255 41 247
189 231 0
0 0 8
0 0 0
24 66 132
16 156 16
115 140 156
0 0 0
24 255 231
16 156 16
115 140 156
0 0 0
16 206 99
16 156 16
115 140 156
0 0 0
0 0 0
0 0 0
0 0 0
0 0 0
0 0 16
0 0 0
0 0 0
0 0 0
206 123 165
16 156 8
115 140 156
0 0 0
189 90 99
0 41 0
0 0 0
0 0 0
189 57 231
0 41 0
0 0 0
0 0 0
140 41 0
0 8 57
0 0 0
0 0 0
0 16 0
0 0 0
0 140 222
0 0 0
0 0 0
57 247 0
0 0 0
57 247 0
0 0 0
57 247 0
0 0 0
0 0 0
247 165 247
57 239 239
16 181 173
189 189 74
206 255 0
57 198 181
0 0 8
0 0 0
255 247 165
16 156 8
115 140 156
0 0 0
24 239 33
16 156 16
115 140 156
0 0 0
33 33 0
16 156 16
115 140 156
0 0 0
0 0 0
0 0 0
0 0 0
0 0 0
0 0 16
0 0 0
0 0 0
0 0 0
206 123 165
16 156 8
115 140 156
0 0 0
189 107 33
0 41 0
0 0 0
0 0 0
189 74 165
0 41 0
0 0 0
0 0 0
140 41 0
0 8 57
0 0 0
0 0 0
0 16 0
0 0 0
0 140 231
0 0 0
0 0 0
57 247 0
0 0 0
57 247 0
0 0 0
57 247 0
0 0 0
0 0 0
206 107 140
57 231 255
198 214 231
57 132 173
140 66 140
57 231 165
0 0 8
0 0 0
255 247 165
16 156 8
115 140 156
0 0 0
0 0 0
16 156 16
115 140 156
0 0 0
24 239 33
16 156 16
115 140 156
0 0 0
0 0 0
0 0 0
0 0 0
0 0 0
0 0 16
0 0 0
0 0 0
0 0 0
206 123 165
16 156 8
115 140 156
0 0 0
189 115 231
0 41 0
0 0 0
0 0 0
189 90 99
0 41 0
0 0 0
0 0 0
140 41 0
0 8 57
0 0 0
0 0 0
0 16 0
0 0 0
0 140 231
0 0 0
0 0 0
57 247 0
0 0 0
57 247 0
0 0 0
57 247 0
0 0 0
0 0 0
107 189 123
57 189 140
181 231 123
189 239 41
198 57 214
189 231 99
0 0 8
0 0 0
16 16 0
16 156 16
115 140 156
0 0 0
16 115 99
16 156 16
115 140 156
0 0 0
16 239 132
16 156 16
115 140 156
0 0 0
0 0 0
0 0 0
0 0 0
0 0 0
0 0 16
0 0 0
0 0 0
0 0 0
206 123 165
16 156 8
115 140 156
0 0 0
189 132 165
0 41 0
0 0 0
0 0 0
189 107 33
0 41 0
0 0 0
0 0 0
140 41 0
0 8 57
0 0 0
0 0 0
0 16 0
0 0 0
0 140 239
0 0 0
0 0 0
57 247 0
0 0 0
57 247 0
0 0 0
57 247 0
0 0 0
0 0 0
0 16 115
189 214 181
214 0 181
189 239 49
140 198 132
189 222 239
0 0 8
0 0 0
24 24 0
16 156 16
115 140 156
0 0 0
24 8 165
16 156 16
115 140 156
0 0 0
24 66 132
16 156 16
115 140 156
0 0 0
0 0 0
0 0 0
0 0 0
0 0 0
0 0 16
0 0 0
0 0 0
0 0 0
206 123 165
16 156 8
115 140 156
0 0 0
189 148 99
0 41 0
0 0 0
0 0 0
189 115 231
0 41 0
0 0 0
0 0 0
140 41 0
0 8 57
0 0 0
0 0 0
0 16 0
0 0 0
0 140 239
0 0 0
0 0 0
57 247 0
0 0 0
57 247 0
0 0 0
57 247 0
0 0 0
0 0 0
198 206 24
57 239 206
24 82 123
57 214 74
206 74 239
189 198 33
0 0 8
0 0 0
24 247 132
16 156 16
115 140 156
0 0 0
24 239 33
16 156 16
115 140 156
0 0 0
24 214 99
16 156 16
115 140 156
0 0 0
0 0 0
0 0 0
0 0 0
0 0 0
0 0 16
0 0 0
0 0 0
0 0 0
206 123 165
16 156 8
115 140 156
0 0 0
189 165 33
0 41 0
0 0 0
0 0 0
189 132 165
0 41 0
0 0 0
0 0 0
140 41 0
0 8 57
0 0 0
0 0 0
0 16 0
0 0 0
0 140 247
0 0 0
0 0 0
57 247 0
0 0 0
57 247 0
0 0 0
57 247 0
0 0 0
0 0 0
41 132 222
57 231 140
49 24 24
57 181 16
148 16 33
57 239 16
0 0 8
0 0 0
24 222 198
16 156 16
115 140 156
0 0 0
8 49 132
16 156 16
115 140 156
0 0 0
8 24 198
16 156 16
115 140 156
0 0 0
0 0 0
0 0 0
0 0 0
0 0 0
0 0 16
0 0 0
0 0 0
0 0 0
206 123 165
16 156 8
115 140 156
0 0 0
189 173 231
0 41 0
0 0 0
0 0 0
189 148 99
0 41 0
0 0 0
0 0 0
140 41 0
0 8 57
0 0 0
0 0 0
0 16 0
0 0 0
0 140 247
0 0 0
0 0 0
57 247 0
0 0 0
57 247 0
0 0 0
57 247 0
0 0 0
0 0 0
173 24 239
57 239 41
173 123 0
57 231 74
214 24 132
189 198 247
0 0 8
0 0 0
33 16 165
16 156 16
115 140 156
0 0 0
24 57 33
16 156 16
115 140 156
0 0 0
24 99 165
16 156 16
115 140 156
0 0 0
0 0 0
0 0 0
0 0 0
0 0 0
0 0 16
0 0 0
0 0 0
0 0 0
206 123 165
16 156 8
115 140 156
0 0 0
189 189 165
0 41 0
0 0 0
0 0 0
189 165 33
0 41 0
0 0 0
0 0 0
140 41 0
0 8 57
0 0 0
0 0 0
0 16 0
0 0 0
0 140 255
0 0 0
0 0 0
57 247 0
0 0 0
57 247 0
0 0 0
57 247 0
0 0 0
0 0 0
198 239 231
57 231 239
181 24 148
189 231 107
90 255 82
57 214 107
0 0 8
0 0 0
24 74 231
16 156 16
115 140 156
0 0 0
24 99 165
16 156 16
115 140 156
0 0 0
24 90 66
16 156 16
115 140 156
0 0 0
0 0 0
0 0 0
0 0 0
0 0 0
0 0 16
0 0 0
0 0 0
0 0 0
206 123 165
16 156 8
115 140 156
0 0 0
189 206 99
0 41 0
0 0 0
0 0 0
189 173 231
0 41 0
0 0 0
0 0 0
140 41 0
0 8 57
0 0 0
0 0 0
0 16 0
0 0 0
0 140 255
0 0 0
0 0 0
57 247 0
0 0 0
57 247 0
0 0 0
57 247 0
0 0 0
0 0 0
140 123 255
189 231 123
90 0 132
189 181 156
239 82 82
189 239 24
0 0 8
0 0 0
24 24 0
16 156 16
115 140 156
0 0 0
24 66 132
16 156 16
115 140 156
0 0 0
24 33 99
16 156 16
115 140 156
0 0 0
0 0 0
0 0 0
0 0 0
0 0 0
0 0 16
0 0 0
0 0 0
0 0 0
206 123 165
16 156 8
115 140 156
0 0 0
189 222 33
0 41 0
0 0 0
0 0 0
189 189 165
0 41 0
0 0 0
0 0 0
140 41 0
0 8 57
0 0 0
0 0 0
0 16 0
0 0 0
0 148 0
0 0 0
0 0 0
57 247 0
0 0 0
57 247 0
0 0 0
57 247 0
0 0 0
0 0 0
57 198 148
189 148 123
165 99 99
57 231 239
33 222 99
189 231 189
0 0 8
0 0 0
33 16 165
16 156 16
115 140 156
0 0 0
24 33 99
16 156 16
115 140 156
0 0 0
24 57 33
16 156 16
115 140 156
0 0 0
0 0 0
0 0 0
0 0 0
0 0 0
0 0 16
0 0 0
0 0 0
0 0 0
206 123 165
16 156 8
115 140 156
0 0 0
189 231 231
0 41 0
0 0 0
0 0 0
189 206 99
0 41 0
0 0 0
0 0 0
140 41 0
0 8 57
0 0 0
0 0 0
0 16 0
0 0 0
0 148 0
0 0 0
0 0 0
57 247 0
0 0 0
57 247 0
0 0 0
57 247 0
0 0 0
0 0 0
231 132 156
57 239 24
82 165 156
57 189 99
156 148 132
57 231 115
0 0 8
0 0 0
16 148 132
16 156 16
115 140 156
0 0 0
239 8 33
16 156 8
115 140 156
0 0 0
0 247 66
16 156 16
115 140 156
0 0 0
0 0 0
0 0 0
0 0 0
0 0 0
0 0 16
0 0 0
0 0 0
0 0 0
206 123 165
16 156 8
115 140 156
0 0 0
189 247 165
0 41 0
0 0 0
0 0 0
189 222 33
0 41 0
0 0 0
0 0 0
140 41 0
0 8 57
0 0 0
0 0 0
0 16 0
0 0 0
0 148 8
0 0 0
0 0 0
57 247 0
0 0 0
57 247 0
0 0 0
57 247 0
0 0 0
0 0 0
123 206 33
57 231 206
123 8 132
57 173 74
8 57 115
189 231 222
0 0 8
0 0 0
239 8 33
16 156 8
115 140 156
0 0 0
231 148 0
16 156 8
115 140 156
0 0 0
231 132 165
16 156 8
115 140 156
0 0 0
0 0 0
0 0 0
0 0 0
0 0 0
0 0 16
0 0 0
0 0 0
0 0 0
206 123 165
16 156 8
115 140 156
0 0 0
198 0 99
0 41 0
0 0 0
0 0 0
189 231 231
0 41 0
0 0 0
0 0 0
140 41 0
0 8 57
0 0 0
0 0 0
0 16 0
0 0 0
0 148 8
0 0 0
0 0 0
57 247 0
0 0 0
57 247 0
0 0 0
57 247 0
0 0 0
0 0 0
57 156 74
189 189 16
198 90 33
57 239 8
82 99 33
57 231 148
0 0 8
0 0 0
247 16 33
16 156 8
115 140 156
0 0 0
247 24 132
16 156 8
115 140 156
0 0 0
247 33 231
16 156 8
115 140 156
0 0 0
0 0 0
0 0 0
0 0 0
0 0 0
0 0 24
0 0 0
0 0 0
0 0 0
206 140 132
16 156 8
115 140 156
0 0 0
198 16 33
0 41 0
0 0 0
0 0 0
189 247 165
0 41 0
0 0 0
0 0 0
140 41 0
0 8 57
0 0 0
0 0 0
0 16 0
0 0 0
0 148 16
0 0 0
0 0 0
57 247 0
0 0 0
57 247 0
0 0 0
57 247 0
0 0 0
0 0 0
123 115 206
57 231 181
255 247 8
189 231 165
0 16 82
189 214 173
0 0 8
0 0 0
247 49 66
16 156 8
115 140 156
0 0 0
247 57 165
16 156 8
115 140 156
0 0 0
247 74 0
16 156 8
115 140 156
0 0 0
0 0 0
0 0 0
0 0 0
0 0 0
0 0 24
0 0 0
0 0 0
0 0 0
206 140 132
16 156 8
115 140 156
0 0 0
198 24 231
0 41 0
0 0 0
0 0 0
198 0 99
0 41 0
0 0 0
0 0 0
140 41 0
0 8 57
0 0 0
0 0 0
0 16 0
0 0 0
0 148 16
0 0 0
0 0 0
57 247 0
0 0 0
57 247 0
0 0 0
57 247 0
0 0 0
0 0 0
0 66 255
189 231 132
66 123 165
57 231 156
181 206 16
57 222 115
0 0 8
0 0 0
247 82 99
16 156 8
115 140 156
0 0 0
247 33 231
16 156 8
115 140 156
0 0 0
239 140 165
16 156 8
115 140 156
0 0 0
0 0 0
0 0 0
0 0 0
0 0 0
0 0 24
0 0 0
0 0 0
0 0 0
206 140 132
16 156 8
115 140 156
0 0 0
198 41 165
0 41 0
0 0 0
0 0 0
198 16 33
0 41 0
0 0 0
0 0 0
140 41 0
0 8 57
0 0 0
0 0 0
0 16 0
0 0 0
0 148 24
0 0 0
0 0 0
57 247 0
0 0 0
57 247 0
0 0 0
57 247 0
0 0 0
0 0 0
16 123 148
57 206 165
33 165 66
189 239 165
255 33 107
189 214 214
0 0 8
0 0 0
247 173 99
16 156 8
115 140 156
0 0 0
247 49 66
16 156 8
115 140 156
0 0 0
247 74 0
16 156 8
115 140 156
0 0 0
0 0 0
0 0 0
0 0 0
0 0 0
0 0 24
0 0 0
0 0 0
0 0 0
206 140 132
16 156 8
115 140 156
0 0 0
198 57 99
0 41 0
0 0 0
0 0 0
198 24 231
0 41 0
0 0 0
0 0 0
140 41 0
0 8 57
0 0 0
0 0 0
0 16 0
0 0 0
0 148 24
0 0 0
0 0 0
57 247 0
0 0 0
57 247 0
0 0 0
57 247 0
0 0 0
0 0 0
0 0 0
132 0 0
66 107 148
57 214 222
8 57 247
57 239 189
0 0 8
0 0 0
247 74 0
16 156 8
115 140 156
0 0 0
247 16 33
16 156 8
115 140 156
0 0 0
247 82 99
16 156 8
115 140 156
0 0 0
0 0 0
0 0 0
0 0 0
0 0 0
0 0 24
0 0 0
0 0 0
0 0 0
206 140 132
16 156 8
115 140 156
0 0 0
198 74 33
0 41 0
0 0 0
0 0 0
198 41 165
0 41 0
0 0 0
0 0 0
140 41 0
0 8 57
0 0 0
0 0 0
0 16 0
0 0 0
0 148 33
0 0 0
0 0 0
57 247 0
0 0 0
57 247 0
0 0 0
57 247 0
0 0 0
0 0 0
8 82 90
189 222 99
99 247 8
57 214 148
206 148 198
57 239 99
0 0 8
0 0 0
247 74 0
16 156 8
115 140 156
0 0 0
247 82 99
16 156 8
115 140 156
0 0 0
0 181 0
16 156 16
115 140 156
0 0 0
0 0 0
0 0 0
0 0 0
0 0 0
0 0 24
0 0 0
0 0 0
0 0 0
206 140 132
16 156 8
115 140 156
0 0 0
198 82 231
0 41 0
0 0 0
0 0 0
198 57 99
0 41 0
0 0 0
0 0 0
140 41 0
0 8 57
0 0 0
0 0 0
0 16 0
0 0 0
0 148 33
0 0 0
0 0 0
57 247 0
0 0 0
57 247 0
0 0 0
57 247 0
0 0 0
0 0 0
24 222 90
189 239 132
115 123 165
189 214 115
24 107 74
57 214 239
0 0 8
0 0 0
247 74 0
16 156 8
115 140 156
0 0 0
0 181 0
16 156 16
115 140 156
0 0 0
247 173 99
16 156 8
115 140 156
0 0 0
0 0 0
0 0 0
0 0 0
0 0 0
0 0 24
0 0 0
0 0 0
0 0 0
206 140 132
16 156 8
115 140 156
0 0 0
198 99 165
0 41 0
0 0 0
0 0 0
198 74 33
0 41 0
0 0 0
0 0 0
140 41 0
0 8 57
0 0 0
0 0 0
0 16 0
0 0 0
0 148 41
0 0 0
0 0 0
57 247 0
0 0 0
57 247 0
0 0 0
57 247 0
0 0 0
0 0 0
49 140 247
57 222 41
66 173 16
189 231 206
107 8 99
189 231 99
0 0 8
0 0 0
247 57 165
16 156 8
115 140 156
0 0 0
247 49 66
16 156 8
115 140 156
0 0 0
247 173 99
16 156 8
115 140 156
0 0 0
0 0 0
0 0 0
0 0 0
0 0 0
0 0 24
0 0 0
0 0 0
0 0 0
206 140 132
16 156 8
115 140 156
0 0 0
198 115 99
0 41 0
0 0 0
0 0 0
198 82 231
0 41 0
0 0 0
0 0 0
140 41 0
0 8 57
0 0 0
0 0 0
0 16 0
0 0 0
0 148 41
0 0 0
0 0 0
57 247 0
0 0 0
57 247 0
0 0 0
57 247 0
0 0 0
0 0 0
0 0 0
0 0 0
239 198 74
189 239 90
16 82 16
189 231 41
0 0 8
0 0 0
247 74 0
16 156 8
115 140 156
0 0 0
247 57 165
16 156 8
115 140 156
0 0 0
8 231 132
16 156 16
115 140 156
0 0 0
0 0 0
0 0 0
0 0 0
0 0 0
0 0 24
0 0 0
0 0 0
0 0 0
206 140 132
16 156 8
115 140 156
0 0 0
198 132 33
0 41 0
0 0 0
0 0 0
198 99 165
0 41 0
0 0 0
0 0 0
140 41 0
0 8 57
0 0 0
0 0 0
0 16 0
0 0 0
0 148 49
0 0 0
0 0 0
57 247 0
0 0 0
57 247 0
0 0 0
57 247 0
0 0 0
0 0 0
0 0 0
0 0 0
231 165 66
57 231 247
173 247 33
57 231 173
0 0 8
0 0 0
247 24 132
16 156 8
115 140 156
0 0 0
247 16 33
16 156 8
115 140 156
0 0 0
8 255 66
16 156 16
115 140 156
0 0 0
0 0 0
0 0 0
0 0 0
0 0 0
0 0 24
0 0 0
0 0 0
0 0 0
206 140 132
16 156 8
115 140 156
0 0 0
198 140 231
0 41 0
0 0 0
0 0 0
198 115 99
0 41 0
0 0 0
0 0 0
140 41 0
0 8 57
0 0 0
0 0 0
0 16 0
0 0 0
0 148 49
0 0 0
0 0 0
57 247 0
0 0 0
57 247 0
0 0 0
57 247 0
0 0 0
0 0 0
0 0 0
132 0 0
66 107 148
57 214 222
8 57 247
57 239 189
0 0 8
0 0 0
8 255 66
16 156 16
115 140 156
0 0 0
247 16 33
16 156 8
115 140 156
0 0 0
247 74 0
16 156 8
115 140 156
0 0 0
0 0 0
0 0 0
0 0 0
0 0 0
0 0 24
0 0 0
0 0 0
0 0 0
206 140 132
16 156 8
115 140 156
0 0 0
198 156 165
0 41 0
0 0 0
0 0 0
198 132 33
0 41 0
0 0 0
0 0 0
140 41 0
0 8 57
0 0 0
0 0 0
0 16 0
0 0 0
0 148 57
0 0 0
0 0 0
57 247 0
0 0 0
57 247 0
0 0 0
57 247 0
0 0 0
0 0 0
0 0 0
0 0 0
66 107 140
57 214 222
8 57 247
57 239 189
0 0 8
0 0 0
8 255 66
16 156 16
115 140 156
0 0 0
247 74 0
16 156 8
115 140 156
0 0 0
8 231 132
16 156 16
115 140 156
0 0 0
0 0 0
0 0 0
0 0 0
0 0 0
0 0 24
0 0 0
0 0 0
0 0 0
206 140 132
16 156 8
115 140 156
0 0 0
198 173 99
0 41 0
0 0 0
0 0 0
198 140 231
0 41 0
0 0 0
0 0 0
140 41 0
0 8 57
0 0 0
0 0 0
0 16 0
0 0 0
0 148 57
0 0 0
0 0 0
57 247 0
0 0 0
57 247 0
0 0 0
57 247 0
0 0 0
0 0 0
132 156 90
57 239 132
140 198 222
189 214 115
239 198 198
57 214 231
0 0 8
0 0 0
8 231 132
16 156 16
115 140 156
0 0 0
74 33 231
16 156 16
115 140 156
0 0 0
74 49 66
16 156 16
115 140 156
0 0 0
0 0 0
0 0 0
0 0 0
0 0 0
0 0 24
0 0 0
0 0 0
0 0 0
206 140 132
16 156 8
115 140 156
0 0 0
198 189 33
0 41 0
0 0 0
0 0 0
198 156 165
0 41 0
0 0 0
0 0 0
140 41 0
0 8 57
0 0 0
0 0 0
0 16 0
0 0 0
0 148 66
0 0 0
0 0 0
57 247 0
0 0 0
57 247 0
0 0 0
57 247 0
0 0 0
0 0 0
198 255 74
57 222 123
49 140 173
57 214 140
74 222 148
57 239 90
0 0 8
0 0 0
8 231 132
16 156 16
115 140 156
0 0 0
74 49 66
16 156 16
115 140 156
0 0 0
74 57 165
16 156 16
115 140 156
0 0 0
0 0 0
0 0 0
0 0 0
0 0 0
0 0 24
0 0 0
0 0 0
0 0 0
206 140 132
16 156 8
115 140 156
0 0 0
198 198 231
0 41 0
0 0 0
0 0 0
198 173 99
0 41 0
0 0 0
0 0 0
140 41 0
0 8 57
0 0 0
0 0 0
0 16 0
0 0 0
0 148 66
0 0 0
0 0 0
57 247 0
0 0 0
57 247 0
0 0 0
57 247 0
0 0 0
0 0 0
0 0 0
132 0 0
66 107 148
57 214 222
8 57 247
57 239 189
0 0 8
0 0 0
8 231 132
16 156 16
115 140 156
0 0 0
74 57 165
16 156 16
115 140 156
0 0 0
8 255 66
16 156 16
115 140 156
0 0 0
0 0 0
0 0 0
0 0 0
0 0 0
0 0 24
0 0 0
0 0 0
0 0 0
206 140 132
16 156 8
115 140 156
0 0 0
198 214 165
0 41 0
0 0 0
0 0 0
198 189 33
0 41 0
0 0 0
0 0 0
140 41 0
0 8 57
0 0 0
0 0 0
0 16 0
0 0 0
0 148 74
0 0 0
0 0 0
57 247 0
0 0 0
57 247 0
0 0 0
57 247 0
0 0 0
0 0 0
107 214 222
189 206 74
222 239 107
189 239 173
99 156 74
189 214 189
0 0 8
0 0 0
74 33 231
16 156 16
115 140 156
0 0 0
8 231 132
16 156 16
115 140 156
0 0 0
82 8 198
16 156 16
115 140 156
0 0 0
0 0 0
0 0 0
0 0 0
0 0 0
0 0 24
0 0 0
0 0 0
0 0 0
206 140 132
16 156 8
115 140 156
0 0 0
198 231 99
0 41 0
0 0 0
0 0 0
198 198 231
0 41 0
0 0 0
0 0 0
140 41 0
0 8 57
0 0 0
0 0 0
0 16 0
0 0 0
0 148 74
0 0 0
0 0 0
57 247 0
0 0 0
57 247 0
0 0 0
57 247 0
0 0 0
0 0 0
214 82 198
57 231 140
156 132 107
57 231 140
107 99 90
57 222 115
0 0 8
0 0 0
74 57 165
16 156 16
115 140 156
0 0 0
90 189 99
16 156 16
115 140 156
0 0 0
90 165 165
16 156 16
115 140 156
0 0 0
0 0 0
0 0 0
0 0 0
0 0 0
0 0 24
0 0 0
0 0 0
0 0 0
206 140 132
16 156 8
115 140 156
0 0 0
198 247 33
0 41 0
0 0 0
0 0 0
198 214 165
0 41 0
0 0 0
0 0 0
140 41 0
0 8 57
0 0 0
0 0 0
0 16 0
0 0 0
0 148 82
0 0 0
0 0 0
57 247 0
0 0 0
57 247 0
0 0 0
57 247 0
0 0 0
0 0 0
16 0 33
189 231 206
222 189 49
189 231 148
16 140 239
189 214 140
0 0 8
0 0 0
82 8 198
16 156 16
115 140 156
0 0 0
8 231 132
16 156 16
115 140 156
0 0 0
8 239 231
16 156 16
115 140 156
0 0 0
0 0 0
0 0 0
0 0 0
0 0 0
0 0 24
0 0 0
0 0 0
0 0 0
206 140 132
16 156 8
115 140 156
0 0 0
198 255 231
0 41 0
0 0 0
0 0 0
198 231 99
0 41 0
0 0 0
0 0 0
140 41 0
0 8 57
0 0 0
0 0 0
0 16 0
0 0 0
0 148 82
0 0 0
0 0 0
57 247 0
0 0 0
57 247 0
0 0 0
57 247 0
0 0 0
0 0 0
214 247 123
57 181 173
66 107 239
57 239 8
82 198 231
57 231 148
0 0 8
0 0 0
8 255 66
16 156 16
115 140 156
0 0 0
90 165 165
16 156 16
115 140 156
0 0 0
247 24 132
16 156 8
115 140 156
0 0 0
0 0 0
0 0 0
0 0 0
0 0 0
0 0 24
0 0 0
0 0 0
0 0 0
206 140 132
16 156 8
115 140 156
0 0 0
206 8 165
0 41 0
0 0 0
0 0 0
198 247 33
0 41 0
0 0 0
0 0 0
140 41 0
0 8 57
0 0 0
0 0 0
0 16 0
0 0 0
0 148 90
0 0 0
0 0 0
57 247 0
0 0 0
57 247 0
0 0 0
57 247 0
0 0 0
0 0 0
0 0 0
0 0 0
165 16 231
57 239 24
66 115 247
57 231 132
0 0 8
0 0 0
74 57 165
16 156 16
115 140 156
0 0 0
90 165 165
16 156 16
115 140 156
0 0 0
8 255 66
16 156 16
115 140 156
0 0 0
0 0 0
0 0 0
0 0 0
0 0 0
0 0 24
0 0 0
0 0 0
0 0 0
206 140 132
16 156 8
115 140 156
0 0 0
206 24 99
0 41 0
0 0 0
0 0 0
198 255 231
0 41 0
0 0 0
0 0 0
140 41 0
0 8 57
0 0 0
0 0 0
0 16 0
0 0 0
0 148 90
0 0 0
0 0 0
57 247 0
0 0 0
57 247 0
0 0 0
57 247 0
0 0 0
0 0 0
99 165 41
57 231 99
231 90 8
57 231 198
148 115 231
57 222 57
0 0 8
0 0 0
74 49 66
16 156 16
115 140 156
0 0 0
90 189 99
16 156 16
115 140 156
0 0 0
74 57 165
16 156 16
115 140 156
0 0 0
0 0 0
0 0 0
0 0 0
0 0 0
0 0 24
0 0 0
0 0 0
0 0 0
206 140 132
16 156 8
115 140 156
0 0 0
206 41 33
0 41 0
0 0 0
0 0 0
206 8 165
0 41 0
0 0 0
0 0 0
140 41 0
0 8 57
0 0 0
0 0 0
0 16 0
0 0 0
0 148 99
0 0 0
0 0 0
57 247 0
0 0 0
57 247 0
0 0 0
57 247 0
0 0 0
0 0 0
189 148 8
57 239 206
99 214 8
57 214 24
57 165 247
57 198 115
0 0 8
0 0 0
74 49 66
16 156 16
115 140 156
0 0 0
74 33 231
16 156 16
115 140 156
0 0 0
90 189 99
16 156 16
115 140 156
0 0 0
0 0 0
0 0 0
0 0 0
0 0 0
0 0 24
0 0 0
0 0 0
0 0 0
206 140 132
16 156 8
115 140 156
0 0 0
206 49 231
0 41 0
0 0 0
0 0 0
206 24 99
0 41 0
0 0 0
0 0 0
140 41 0
0 8 57
0 0 0
0 0 0
0 16 0
0 0 0
0 148 99
0 0 0
0 0 0
57 247 0
0 0 0
57 247 0
0 0 0
57 247 0
0 0 0
0 0 0
156 82 115
189 222 41
140 181 255
189 231 189
8 198 165
189 231 115
0 0 8
0 0 0
74 33 231
16 156 16
115 140 156
0 0 0
82 8 198
16 156 16
115 140 156
0 0 0
8 239 231
16 156 16
115 140 156
0 0 0
0 0 0
0 0 0
0 0 0
0 0 0
0 0 24
0 0 0
0 0 0
0 0 0
206 140 132
16 156 8
115 140 156
0 0 0
206 66 165
0 41 0
0 0 0
0 0 0
206 41 33
0 41 0
0 0 0
0 0 0
140 41 0
0 8 57
0 0 0
0 0 0
0 16 0
0 0 0
0 148 107
0 0 0
0 0 0
57 247 0
0 0 0
57 247 0
0 0 0
57 247 0
0 0 0
0 0 0
0 0 0
0 0 0
239 198 74
189 239 90
16 82 16
189 231 41
0 0 8
0 0 0
8 239 231
16 156 16
115 140 156
0 0 0
8 231 132
16 156 16
115 140 156
0 0 0
247 57 165
16 156 8
115 140 156
0 0 0
0 0 0
0 0 0
0 0 0
0 0 0
0 0 24
0 0 0
0 0 0
0 0 0
206 140 132
16 156 8
115 140 156
0 0 0
206 82 99
0 41 0
0 0 0
0 0 0
206 49 231
0 41 0
0 0 0
0 0 0
140 41 0
0 8 57
0 0 0
0 0 0
0 16 0
0 0 0
0 148 107
0 0 0
0 0 0
57 247 0
0 0 0
57 247 0
0 0 0
57 247 0
0 0 0
0 0 0
115 239 231
189 239 206
247 0 66
57 214 16
132 247 173
57 198 165
0 0 8
0 0 0
0 181 0
16 156 16
115 140 156
0 0 0
239 140 165
16 156 8
115 140 156
0 0 0
247 173 99
16 156 8
115 140 156
0 0 0
0 0 0
0 0 0
0 0 0
0 0 0
0 0 24
0 0 0
0 0 0
0 0 0
206 140 132
16 156 8
115 140 156
0 0 0
206 99 33
0 41 0
0 0 0
0 0 0
206 66 165
0 41 0
0 0 0
0 0 0
140 41 0
0 8 57
0 0 0
0 0 0
0 16 0
0 0 0
0 148 115
0 0 0
0 0 0
57 247 0
0 0 0
57 247 0
0 0 0
57 247 0
0 0 0
0 0 0
8 33 206
189 231 90
107 132 156
57 231 206
181 156 33
57 222 66
0 0 8
0 0 0
0 181 0
16 156 16
115 140 156
0 0 0
247 82 99
16 156 8
115 140 156
0 0 0
239 140 165
16 156 8
115 140 156
0 0 0
0 0 0
0 0 0
0 0 0
0 0 0
0 0 24
0 0 0
0 0 0
0 0 0
206 140 132
16 156 8
115 140 156
0 0 0
206 107 231
0 41 0
0 0 0
0 0 0
206 82 99
0 41 0
0 0 0
0 0 0
140 41 0
0 8 57
0 0 0
0 0 0
0 16 0
0 0 0
0 148 115
0 0 0
0 0 0
57 247 0
0 0 0
57 247 0
0 0 0
57 247 0
0 0 0
0 0 0
0 0 0
0 0 0
0 16 123
57 239 33
140 49 0
57 231 123
0 0 8
0 0 0
247 82 99
16 156 8
115 140 156
0 0 0
247 16 33
16 156 8
115 140 156
0 0 0
247 33 231
16 156 8
115 140 156
0 0 0
0 0 0
0 0 0
0 0 0
0 0 0
0 0 24
0 0 0
0 0 0
0 0 0
206 140 132
16 156 8
115 140 156
0 0 0
206 123 165
0 41 0
0 0 0
0 0 0
206 99 33
0 41 0
0 0 0
0 0 0
140 41 0
0 8 57
0 0 0
0 0 0
0 16 0
0 0 0
0 148 123
0 0 0
0 0 0
57 247 0
0 0 0
57 247 0
0 0 0
57 247 0
0 0 0
0 0 0
173 132 90
57 222 132
82 181 173
57 231 74
41 132 239
189 231 198
0 0 8
0 0 0
206 222 99
16 156 8
115 140 156
0 0 0
206 231 198
16 156 8
115 140 156
0 0 0
206 247 33
16 156 8
115 140 156
0 0 0
0 0 0
0 0 0
0 0 0
0 0 0
0 0 24
0 0 0
0 0 0
0 0 0
206 156 99
16 156 8
115 140 156
0 0 0
206 140 99
0 41 0
0 0 0
0 0 0
206 107 231
0 41 0
0 0 0
0 0 0
140 41 0
0 8 57
0 0 0
0 0 0
0 16 0
0 0 0
0 148 123
0 0 0
0 0 0
57 247 0
0 0 0
57 247 0
0 0 0
57 247 0
0 0 0
0 0 0
206 173 49
57 222 132
239 231 123
57 231 49
115 165 214
189 231 214
0 0 8
0 0 0
206 255 132
16 156 8
115 140 156
0 0 0
206 231 198
16 156 8
115 140 156
0 0 0
206 222 99
16 156 8
115 140 156
0 0 0
0 0 0
0 0 0
0 0 0
0 0 0
0 0 24
0 0 0
0 0 0
0 0 0
206 156 99
16 156 8
115 140 156
0 0 0
206 156 33
0 41 0
0 0 0
0 0 0
206 123 165
0 41 0
0 0 0
0 0 0
140 41 0
0 8 57
0 0 0
0 0 0
0 16 0
0 0 0
0 148 132
0 0 0
0 0 0
57 247 0
0 0 0
57 247 0
0 0 0
57 247 0
0 0 0
0 0 0
231 99 214
57 231 214
255 140 33
189 231 198
148 148 41
57 189 123
0 0 8
0 0 0
231 16 231
16 156 8
115 140 156
0 0 0
231 33 66
16 156 8
115 140 156
0 0 0
214 115 165
16 156 8
115 140 156
0 0 0
0 0 0
0 0 0
0 0 0
0 0 0
0 0 24
0 0 0
0 0 0
0 0 0
206 156 99
16 156 8
115 140 156
0 0 0
206 165 231
0 41 0
0 0 0
0 0 0
206 140 99
0 41 0
0 0 0
0 0 0
140 41 0
0 8 57
0 0 0
0 0 0
0 16 0
0 0 0
0 148 132
0 0 0
0 0 0
57 247 0
0 0 0
57 247 0
0 0 0
57 247 0
0 0 0
0 0 0
206 189 123
57 231 90
156 165 173
57 239 49
231 231 132
189 181 214
0 0 8
0 0 0
231 41 165
16 156 8
115 140 156
0 0 0
231 57 0
16 156 8
115 140 156
0 0 0
231 66 99
16 156 8
115 140 156
0 0 0
0 0 0
0 0 0
0 0 0
0 0 0
0 0 24
0 0 0
0 0 0
0 0 0
206 156 99
16 156 8
115 140 156
0 0 0
206 181 165
0 41 0
0 0 0
0 0 0
206 156 33
0 41 0
0 0 0
0 0 0
140 41 0
0 8 57
0 0 0
0 0 0
0 16 0
0 0 0
0 148 140
0 0 0
0 0 0
57 247 0
0 0 0
57 247 0
0 0 0
57 247 0
0 0 0
0 0 0
173 255 49
189 222 74
0 222 222
189 239 148
173 206 189
57 206 16
0 0 8
0 0 0
231 57 0
16 156 8
115 140 156
0 0 0
214 57 198
16 156 8
115 140 156
0 0 0
231 74 198
16 156 8
115 140 156
0 0 0
0 0 0
0 0 0
0 0 0
0 0 0
0 0 24
0 0 0
0 0 0
0 0 0
206 156 99
16 156 8
115 140 156
0 0 0
206 198 99
0 41 0
0 0 0
0 0 0
206 165 231
0 41 0
0 0 0
0 0 0
140 41 0
0 8 57
0 0 0
0 0 0
0 16 0
0 0 0
0 148 140
0 0 0
0 0 0
57 247 0
0 0 0
57 247 0
0 0 0
57 247 0
0 0 0
0 0 0
189 173 140
57 231 255
74 140 16
189 231 90
90 239 156
57 214 99
0 0 8
0 0 0
231 33 66
16 156 8
115 140 156
0 0 0
231 16 231
16 156 8
115 140 156
0 0 0
231 90 33
16 156 8
115 140 156
0 0 0
0 0 0
0 0 0
0 0 0
0 0 0
0 0 24
0 0 0
0 0 0
0 0 0
206 156 99
16 156 8
115 140 156
0 0 0
206 214 33
0 41 0
0 0 0
0 0 0
206 181 165
0 41 0
0 0 0
0 0 0
140 41 0
0 8 57
0 0 0
0 0 0
0 16 0
0 0 0
0 148 148
0 0 0
0 0 0
57 247 0
0 0 0
57 247 0
0 0 0
57 247 0
0 0 0
0 0 0
181 165 49
57 231 82
206 82 33
57 231 231
123 115 206
189 214 247
0 0 8
0 0 0
231 189 132
16 156 8
115 140 156
0 0 0
206 247 33
16 156 8
115 140 156
0 0 0
231 198 231
16 156 8
115 140 156
0 0 0
0 0 0
0 0 0
0 0 0
0 0 0
0 0 24
0 0 0
0 0 0
0 0 0
206 156 99
16 156 8
115 140 156
0 0 0
206 222 231
0 41 0
0 0 0
0 0 0
206 198 99
0 41 0
0 0 0
0 0 0
140 41 0
0 8 57
0 0 0
0 0 0
0 16 0
0 0 0
0 148 148
0 0 0
0 0 0
57 247 0
0 0 0
57 247 0
0 0 0
57 247 0
0 0 0
0 0 0
156 90 231
57 222 82
148 33 148
57 239 165
222 82 99
57 156 57
0 0 8
0 0 0
231 214 66
16 156 8
115 140 156
0 0 0
231 222 165
16 156 8
115 140 156
0 0 0
231 239 0
16 156 8
115 140 156
0 0 0
0 0 0
0 0 0
0 0 0
0 0 0
0 0 24
0 0 0
0 0 0
0 0 0
206 156 99
16 156 8
115 140 156
0 0 0
206 239 165
0 41 0
0 0 0
0 0 0
206 214 33
0 41 0
0 0 0
0 0 0
140 41 0
0 8 57
0 0 0
0 0 0
0 16 0
0 0 0
0 148 156
0 0 0
0 0 0
57 247 0
0 0 0
57 247 0
0 0 0
57 247 0
0 0 0
0 0 0
173 82 181
57 231 99
33 90 239
57 214 49
99 99 231
189 239 0
0 0 8
0 0 0
231 247 99
16 156 8
115 140 156
0 0 0
206 255 132
16 156 8
115 140 156
0 0 0
231 255 198
16 156 8
115 140 156
0 0 0
0 0 0
0 0 0
0 0 0
0 0 0
0 0 24
0 0 0
0 0 0
0 0 0
206 156 99
16 156 8
115 140 156
0 0 0
206 255 99
0 41 0
0 0 0
0 0 0
206 222 231
0 41 0
0 0 0
0 0 0
140 41 0
0 8 57
0 0 0
0 0 0
0 16 0
0 0 0
0 148 156
0 0 0
0 0 0
57 247 0
0 0 0
57 247 0
0 0 0
57 247 0
0 0 0
0 0 0
33 123 33
57 214 239
107 57 41
57 239 156
140 107 66
57 206 156
0 0 8
0 0 0
231 41 165
16 156 8
115 140 156
0 0 0
231 66 99
16 156 8
115 140 156
0 0 0
239 16 132
16 156 8
115 140 156
0 0 0
0 0 0
0 0 0
0 0 0
0 0 0
0 0 24
0 0 0
0 0 0
0 0 0
206 156 99
16 156 8
115 140 156
0 0 0
214 8 33
0 41 0
0 0 0
0 0 0
206 239 165
0 41 0
0 0 0
0 0 0
140 41 0
0 8 57
0 0 0
0 0 0
0 16 0
0 0 0
0 148 165
0 0 0
0 0 0
57 247 0
0 0 0
57 247 0
0 0 0
57 247 0
0 0 0
0 0 0
140 148 189
57 231 214
49 115 247
57 189 82
132 173 8
57 231 206
0 0 8
0 0 0
239 24 231
16 156 8
115 140 156
0 0 0
239 41 66
16 156 8
115 140 156
0 0 0
239 49 165
16 156 8
115 140 156
0 0 0
0 0 0
0 0 0
0 0 0
0 0 0
0 0 24
0 0 0
0 0 0
0 0 0
206 156 99
16 156 8
115 140 156
0 0 0
214 16 231
0 41 0
0 0 0
0 0 0
206 255 99
0 41 0
0 0 0
0 0 0
140 41 0
0 8 57
0 0 0
0 0 0
0 16 0
0 0 0
0 148 165
0 0 0
0 0 0
57 247 0
0 0 0
57 247 0
0 0 0
57 247 0
0 0 0
0 0 0
181 189 90
57 198 214
173 173 189
57 231 189
148 156 181
189 231 214
0 0 8
0 0 0
206 247 33
16 156 8
115 140 156
0 0 0
206 231 198
16 156 8
115 140 156
0 0 0
239 66 0
16 156 8
115 140 156
0 0 0
0 0 0
0 0 0
0 0 0
0 0 0
0 0 24
0 0 0
0 0 0
0 0 0
206 156 99
16 156 8
115 140 156
0 0 0
214 33 165
0 41 0
0 0 0
0 0 0
214 8 33
0 41 0
0 0 0
0 0 0
140 41 0
0 8 57
0 0 0
0 0 0
0 16 0
0 0 0
0 148 173
0 0 0
0 0 0
57 247 0
0 0 0
57 247 0
0 0 0
57 247 0
0 0 0
0 0 0
181 181 247
57 165 115
41 173 132
57 239 198
140 206 173
189 214 173
0 0 8
0 0 0
239 74 99
16 156 8
115 140 156
0 0 0
206 231 198
16 156 8
115 140 156
0 0 0
239 82 198
16 156 8
115 140 156
0 0 0
0 0 0
0 0 0
0 0 0
0 0 0
0 0 24
0 0 0
0 0 0
0 0 0
206 156 99
16 156 8
115 140 156
0 0 0
214 49 99
0 41 0
0 0 0
0 0 0
214 16 231
0 41 0
0 0 0
0 0 0
140 41 0
0 8 57
0 0 0
0 0 0
0 16 0
0 0 0
0 148 173
0 0 0
0 0 0
57 247 0
0 0 0
57 247 0
0 0 0
57 247 0
0 0 0
0 0 0
57 123 198
189 206 0
0 8 247
189 239 231
247 247 247
57 198 41
0 0 8
0 0 0
239 16 132
16 156 8
115 140 156
0 0 0
231 0 33
16 156 8
115 140 156
0 0 0
231 41 165
16 156 8
115 140 156
0 0 0
0 0 0
0 0 0
0 0 0
0 0 0
0 0 24
0 0 0
0 0 0
0 0 0
206 156 99
16 156 8
115 140 156
0 0 0
214 66 33
0 41 0
0 0 0
0 0 0
214 33 165
0 41 0
0 0 0
0 0 0
140 41 0
0 8 57
0 0 0
0 0 0
0 16 0
0 0 0
0 148 181
0 0 0
0 0 0
57 247 0
0 0 0
57 247 0
0 0 0
57 247 0
0 0 0
0 0 0
123 231 57
57 231 41
107 8 107
57 239 66
165 140 222
189 206 49
0 0 8
0 0 0
231 74 198
16 156 8
115 140 156
0 0 0
255 8 198
16 156 8
115 140 156
0 0 0
231 57 0
16 156 8
115 140 156
0 0 0
0 0 0
0 0 0
0 0 0
0 0 0
0 0 24
0 0 0
0 0 0
0 0 0
206 156 99
16 156 8
115 140 156
0 0 0
214 74 231
0 41 0
0 0 0
0 0 0
214 49 99
0 41 0
0 0 0
0 0 0
140 41 0
0 8 57
0 0 0
0 0 0
0 16 0
0 0 0
0 148 181
0 0 0
0 0 0
57 247 0
0 0 0
57 247 0
0 0 0
57 247 0
0 0 0
0 0 0
16 247 181
189 214 148
0 189 82
189 239 173
247 140 222
57 206 189
0 0 8
0 0 0
231 41 165
16 156 8
115 140 156
0 0 0
231 0 33
16 156 8
115 140 156
0 0 0
231 57 0
16 156 8
115 140 156
0 0 0
0 0 0
0 0 0
0 0 0
0 0 0
0 0 24
0 0 0
0 0 0
0 0 0
206 156 99
16 156 8
115 140 156
0 0 0
214 90 165
0 41 0
0 0 0
0 0 0
214 66 33
0 41 0
0 0 0
0 0 0
140 41 0
0 8 57
0 0 0
0 0 0
0 16 0
0 0 0
0 148 189
0 0 0
0 0 0
57 247 0
0 0 0
57 247 0
0 0 0
57 247 0
0 0 0
0 0 0
247 82 99
57 239 41
198 181 99
189 198 74
66 41 33
57 231 90
0 0 8
0 0 0
0 16 198
16 156 16
115 140 156
0 0 0
239 49 165
16 156 8
115 140 156
0 0 0
0 33 33
16 156 16
115 140 156
0 0 0
0 0 0
0 0 0
0 0 0
0 0 0
0 0 24
0 0 0
0 0 0
0 0 0
206 156 99
16 156 8
115 140 156
0 0 0
214 107 99
0 41 0
0 0 0
0 0 0
214 74 231
0 41 0
0 0 0
0 0 0
140 41 0
0 8 57
0 0 0
0 0 0
0 16 0
0 0 0
0 148 189
0 0 0
0 0 0
57 247 0
0 0 0
57 247 0
0 0 0
57 247 0
0 0 0
0 0 0
0 239 90
57 198 206
115 99 189
57 231 156
115 148 222
189 231 247
0 0 8
0 0 0
206 247 33
16 156 8
115 140 156
0 0 0
239 66 0
16 156 8
115 140 156
0 0 0
0 41 132
16 156 16
115 140 156
0 0 0
0 0 0
0 0 0
0 0 0
0 0 0
0 0 24
0 0 0
0 0 0
0 0 0
206 156 99
16 156 8
115 140 156
0 0 0
214 123 33
0 41 0
0 0 0
0 0 0
214 90 165
0 41 0
0 0 0
0 0 0
140 41 0
0 8 57
0 0 0
0 0 0
0 16 0
0 0 0
0 148 198
0 0 0
0 0 0
57 247 0
0 0 0
57 247 0
0 0 0
57 247 0
0 0 0
0 0 0
107 156 189
57 231 99
181 156 99
57 239 41
74 57 8
189 198 41
0 0 8
0 0 0
231 239 0
16 156 8
115 140 156
0 0 0
231 222 165
16 156 8
115 140 156
0 0 0
0 41 132
16 156 16
115 140 156
0 0 0
0 0 0
0 0 0
0 0 0
0 0 0
0 0 24
0 0 0
0 0 0
0 0 0
206 156 99
16 156 8
115 140 156
0 0 0
214 132 231
0 41 0
0 0 0
0 0 0
214 107 99
0 41 0
0 0 0
0 0 0
140 41 0
0 8 57
0 0 0
0 0 0
0 16 0
0 0 0
0 148 198
0 0 0
0 0 0
57 247 0
0 0 0
57 247 0
0 0 0
57 247 0
0 0 0
0 0 0
255 165 156
57 198 123
239 8 16
57 231 239
66 33 99
189 231 165
0 0 8
0 0 0
0 41 132
16 156 16
115 140 156
0 0 0
0 49 231
16 156 16
115 140 156
0 0 0
231 239 0
16 156 8
115 140 156
0 0 0
0 0 0
0 0 0
0 0 0
0 0 0
0 0 24
0 0 0
0 0 0
0 0 0
206 156 99
16 156 8
115 140 156
0 0 0
214 148 165
0 41 0
0 0 0
0 0 0
214 123 33
0 41 0
0 0 0
0 0 0
140 41 0
0 8 57
0 0 0
0 0 0
0 16 0
0 0 0
0 148 206
0 0 0
0 0 0
57 247 0
0 0 0
57 247 0
0 0 0
57 247 0
0 0 0
0 0 0
140 198 8
57 148 8
198 214 206
57 239 239
33 206 123
189 206 49
0 0 8
0 0 0
231 239 0
16 156 8
115 140 156
0 0 0
0 66 66
16 156 16
115 140 156
0 0 0
231 214 66
16 156 8
115 140 156
0 0 0
0 0 0
0 0 0
0 0 0
0 0 0
0 0 24
0 0 0
0 0 0
0 0 0
206 156 99
16 156 8
115 140 156
0 0 0
214 165 99
0 41 0
0 0 0
0 0 0
214 132 231
0 41 0
0 0 0
0 0 0
140 41 0
0 8 57
0 0 0
0 0 0
0 16 0
0 0 0
0 148 206
0 0 0
0 0 0
57 247 0
0 0 0
57 247 0
0 0 0
57 247 0
0 0 0
0 0 0
255 0 41
189 99 189
82 173 156
57 239 8
123 8 82
57 231 148
0 0 8
0 0 0
0 74 165
16 156 16
115 140 156
0 0 0
0 90 0
16 156 16
115 140 156
0 0 0
231 214 66
16 156 8
115 140 156
0 0 0
0 0 0
0 0 0
0 0 0
0 0 0
0 0 24
0 0 0
0 0 0
0 0 0
206 156 99
16 156 8
115 140 156
0 0 0
214 181 33
0 41 0
0 0 0
0 0 0
214 148 165
0 41 0
0 0 0
0 0 0
140 41 0
0 8 57
0 0 0
0 0 0
0 16 0
0 0 0
0 148 214
0 0 0
0 0 0
57 247 0
0 0 0
57 247 0
0 0 0
57 247 0
0 0 0
0 0 0
57 148 206
57 239 123
0 8 41
57 222 8
107 66 123
189 214 115
0 0 8
0 0 0
231 16 231
16 156 8
115 140 156
0 0 0
206 222 99
16 156 8
115 140 156
0 0 0
0 16 198
16 156 16
115 140 156
0 0 0
0 0 0
0 0 0
0 0 0
0 0 0
0 0 24
0 0 0
0 0 0
0 0 0
206 156 99
16 156 8
115 140 156
0 0 0
214 189 231
0 41 0
0 0 0
0 0 0
214 165 99
0 41 0
0 0 0
0 0 0
140 41 0
0 8 57
0 0 0
0 0 0
0 16 0
0 0 0
0 148 214
0 0 0
0 0 0
57 247 0
0 0 0
57 247 0
0 0 0
57 247 0
0 0 0
0 0 0
231 8 222
57 239 132
49 132 140
57 222 132
148 165 231
57 198 198
0 0 8
0 0 0
0 99 99
16 156 16
115 140 156
0 0 0
0 16 198
16 156 16
115 140 156
0 0 0
231 198 231
16 156 8
115 140 156
0 0 0
0 0 0
0 0 0
0 0 0
0 0 0
0 0 24
0 0 0
0 0 0
0 0 0
206 156 99
16 156 8
115 140 156
0 0 0
214 206 165
0 41 0
0 0 0
0 0 0
214 181 33
0 41 0
0 0 0
0 0 0
140 41 0
0 8 57
0 0 0
0 0 0
0 16 0
0 0 0
0 148 222
0 0 0
0 0 0
57 247 0
0 0 0
57 247 0
0 0 0
57 247 0
0 0 0
0 0 0
82 132 49
57 239 8
165 107 57
57 231 49
99 206 107
57 214 189
0 0 8
0 0 0
239 24 231
16 156 8
115 140 156
0 0 0
231 198 231
16 156 8
115 140 156
0 0 0
231 222 165
16 156 8
115 140 156
0 0 0
0 0 0
0 0 0
0 0 0
0 0 0
0 0 24
0 0 0
0 0 0
0 0 0
206 156 99
16 156 8
115 140 156
0 0 0
214 222 99
0 41 0
0 0 0
0 0 0
214 189 231
0 41 0
0 0 0
0 0 0
140 41 0
0 8 57
0 0 0
0 0 0
0 16 0
0 0 0
0 148 222
0 0 0
0 0 0
57 247 0
0 0 0
57 247 0
0 0 0
57 247 0
0 0 0
0 0 0
255 107 140
57 222 189
247 165 107
57 231 239
107 173 181
57 222 247
0 0 8
0 0 0
0 90 0
16 156 16
115 140 156
0 0 0
231 222 165
16 156 8
115 140 156
0 0 0
231 214 66
16 156 8
115 140 156
0 0 0
0 0 0
0 0 0
0 0 0
0 0 0
0 0 24
0 0 0
0 0 0
0 0 0
206 156 99
16 156 8
115 140 156
0 0 0
214 239 33
0 41 0
0 0 0
0 0 0
214 206 165
0 41 0
0 0 0
0 0 0
140 41 0
0 8 57
0 0 0
0 0 0
0 16 0
0 0 0
0 148 231
0 0 0
0 0 0
57 247 0
0 0 0
57 247 0
0 0 0
57 247 0
0 0 0
0 0 0
255 231 214
57 239 16
255 165 115
57 206 231
16 66 82
189 231 90
0 0 8
0 0 0
231 16 231
16 156 8
115 140 156
0 0 0
206 255 132
16 156 8
115 140 156
0 0 0
206 222 99
16 156 8
115 140 156
0 0 0
0 0 0
0 0 0
0 0 0
0 0 0
0 0 24
0 0 0
0 0 0
0 0 0
206 156 99
16 156 8
115 140 156
0 0 0
214 247 231
0 41 0
0 0 0
0 0 0
214 222 99
0 41 0
0 0 0
0 0 0
140 41 0
0 8 57
0 0 0
0 0 0
0 16 0
0 0 0
0 148 231
0 0 0
0 0 0
57 247 0
0 0 0
57 247 0
0 0 0
57 247 0
0 0 0
0 0 0
181 24 148
189 181 132
231 115 132
57 231 57
198 255 82
189 239 74
0 0 8
0 0 0
239 74 99
16 156 8
115 140 156
0 0 0
239 66 0
16 156 8
115 140 156
0 0 0
206 231 198
16 156 8
115 140 156
0 0 0
0 0 0
0 0 0
0 0 0
0 0 0
0 0 24
0 0 0
0 0 0
0 0 0
206 156 99
16 156 8
115 140 156
0 0 0
222 0 165
0 41 0
0 0 0
0 0 0
214 239 33
0 41 0
0 0 0
0 0 0
140 41 0
0 8 57
0 0 0
0 0 0
0 16 0
0 0 0
0 148 239
0 0 0
0 0 0
57 247 0
0 0 0
57 247 0
0 0 0
57 247 0
0 0 0
0 0 0
231 24 140
57 214 57
206 57 66
57 156 132
189 90 57
57 239 214
0 0 8
0 0 0
239 41 66
16 156 8
115 140 156
0 0 0
0 123 33
16 156 16
115 140 156
0 0 0
0 132 132
16 156 16
115 140 156
0 0 0
0 0 0
0 0 0
0 0 0
0 0 0
0 0 24
0 0 0
0 0 0
0 0 0
206 156 99
16 156 8
115 140 156
0 0 0
222 16 99
0 41 0
0 0 0
0 0 0
214 247 231
0 41 0
0 0 0
0 0 0
140 41 0
0 8 57
0 0 0
0 0 0
0 16 0
0 0 0
0 148 239
0 0 0
0 0 0
57 247 0
0 0 0
57 247 0
0 0 0
57 247 0
0 0 0
0 0 0
255 74 99
57 206 66
74 57 0
57 206 16
181 189 255
57 239 214
0 0 8
0 0 0
0 90 0
16 156 16
115 140 156
0 0 0
0 140 231
16 156 16
115 140 156
0 0 0
0 156 66
16 156 16
115 140 156
0 0 0
0 0 0
0 0 0
0 0 0
0 0 0
0 0 24
0 0 0
0 0 0
0 0 0
206 156 99
16 156 8
115 140 156
0 0 0
222 33 33
0 41 0
0 0 0
0 0 0
222 0 165
0 41 0
0 0 0
0 0 0
140 41 0
0 8 57
0 0 0
0 0 0
0 16 0
0 0 0
0 148 247
0 0 0
0 0 0
57 247 0
0 0 0
57 247 0
0 0 0
57 247 0
0 0 0
0 0 0
239 99 214
57 222 90
16 181 57
57 206 16
24 255 57
57 239 140
0 0 8
0 0 0
0 90 0
16 156 16
115 140 156
0 0 0
0 156 66
16 156 16
115 140 156
0 0 0
239 24 231
16 156 8
115 140 156
0 0 0
0 0 0
0 0 0
0 0 0
0 0 0
0 0 24
0 0 0
0 0 0
0 0 0
206 156 99
16 156 8
115 140 156
0 0 0
222 41 231
0 41 0
0 0 0
0 0 0
222 16 99
0 41 0
0 0 0
0 0 0
140 41 0
0 8 57
0 0 0
0 0 0
0 16 0
0 0 0
0 148 247
0 0 0
0 0 0
57 247 0
0 0 0
57 247 0
0 0 0
57 247 0
0 0 0
0 0 0
165 82 115
57 231 33
123 181 173
189 214 82
123 247 132
57 239 41
0 0 8
0 0 0
0 132 132
16 156 16
115 140 156
0 0 0
0 165 165
16 156 16
115 140 156
0 0 0
239 41 66
16 156 8
115 140 156
0 0 0
0 0 0
0 0 0
0 0 0
0 0 0
0 0 24
0 0 0
0 0 0
0 0 0
206 156 99
16 156 8
115 140 156
0 0 0
222 57 165
0 41 0
0 0 0
0 0 0
222 33 33
0 41 0
0 0 0
0 0 0
140 41 0
0 8 57
0 0 0
0 0 0
0 16 0
0 0 0
0 148 255
0 0 0
0 0 0
57 247 0
0 0 0
57 247 0
0 0 0
57 247 0
0 0 0
0 0 0
16 41 247
57 222 198
247 214 0
189 222 41
132 99 222
57 239 33
0 0 8
0 0 0
0 165 165
16 156 16
115 140 156
0 0 0
231 74 198
16 156 8
115 140 156
0 0 0
239 49 165
16 156 8
115 140 156
0 0 0
0 0 0
0 0 0
0 0 0
0 0 0
0 0 24
0 0 0
0 0 0
0 0 0
206 156 99
16 156 8
115 140 156
0 0 0
222 74 99
0 41 0
0 0 0
0 0 0
222 41 231
0 41 0
0 0 0
0 0 0
140 41 0
0 8 57
0 0 0
0 0 0
0 16 0
0 0 0
0 148 255
0 0 0
0 0 0
57 247 0
0 0 0
57 247 0
0 0 0
57 247 0
0 0 0
0 0 0
222 107 115
57 239 49
222 148 41
189 189 99
189 41 148
57 231 82
0 0 8
0 0 0
0 99 99
16 156 16
115 140 156
0 0 0
239 49 165
16 156 8
115 140 156
0 0 0
0 16 198
16 156 16
115 140 156
0 0 0
0 0 0
0 0 0
0 0 0
0 0 0
0 0 24
0 0 0
0 0 0
0 0 0
206 156 99
16 156 8
115 140 156
0 0 0
222 90 33
0 41 0
0 0 0
0 0 0
222 57 165
0 41 0
0 0 0
0 0 0
140 41 0
0 8 57
0 0 0
0 0 0
0 16 0
0 0 0
0 156 0
0 0 0
0 0 0
57 247 0
0 0 0
57 247 0
0 0 0
57 247 0
0 0 0
0 0 0
24 239 8
57 231 41
115 189 49
57 222 255
41 247 239
189 231 181
0 0 8
0 0 0
231 247 99
16 156 8
115 140 156
0 0 0
0 214 33
16 156 16
115 140 156
0 0 0
206 255 132
16 156 8
115 140 156
0 0 0
0 0 0
0 0 0
0 0 0
0 0 0
0 0 24
0 0 0
0 0 0
0 0 0
206 156 99
16 156 8
115 140 156
0 0 0
222 99 231
0 41 0
0 0 0
0 0 0
222 74 99
0 41 0
0 0 0
0 0 0
140 41 0
0 8 57
0 0 0
0 0 0
0 16 0
0 0 0
0 156 0
0 0 0
0 0 0
57 247 0
0 0 0
57 247 0
0 0 0
57 247 0
0 0 0
0 0 0
189 41 181
57 115 24
74 148 0
57 239 189
16 33 255
189 214 239
0 0 8
0 0 0
239 74 99
16 156 8
115 140 156
0 0 0
239 82 198
16 156 8
115 140 156
0 0 0
0 222 132
16 156 16
115 140 156
0 0 0
0 0 0
0 0 0
0 0 0
0 0 0
0 0 24
0 0 0
0 0 0
0 0 0
206 156 99
16 156 8
115 140 156
0 0 0
222 115 165
0 41 0
0 0 0
0 0 0
222 90 33
0 41 0
0 0 0
0 0 0
140 41 0
0 8 57
0 0 0
0 0 0
0 16 0
0 0 0
0 156 8
0 0 0
0 0 0
57 247 0
0 0 0
57 247 0
0 0 0
57 247 0
0 0 0
0 0 0
214 148 239
57 231 214
255 198 107
189 231 198
41 16 82
57 189 132
0 0 8
0 0 0
231 16 231
16 156 8
115 140 156
0 0 0
214 115 165
16 156 8
115 140 156
0 0 0
0 231 231
16 156 16
115 140 156
0 0 0
0 0 0
0 0 0
0 0 0
0 0 0
0 0 24
0 0 0
0 0 0
0 0 0
206 156 99
16 156 8
115 140 156
0 0 0
222 132 99
0 41 0
0 0 0
0 0 0
222 99 231
0 41 0
0 0 0
0 0 0
140 41 0
0 8 57
0 0 0
0 0 0
0 16 0
0 0 0
0 156 8
0 0 0
0 0 0
57 247 0
0 0 0
57 247 0
0 0 0
57 247 0
0 0 0
0 0 0
123 107 255
57 239 49
66 123 0
57 189 90
74 123 74
189 231 90
0 0 8
0 0 0
231 16 231
16 156 8
115 140 156
0 0 0
0 231 231
16 156 16
115 140 156
0 0 0
206 255 132
16 156 8
115 140 156
0 0 0
0 0 0
0 0 0
0 0 0
0 0 0
0 0 24
0 0 0
0 0 0
0 0 0
206 156 99
16 156 8
115 140 156
0 0 0
222 148 33
0 41 0
0 0 0
0 0 0
222 115 165
0 41 0
0 0 0
0 0 0
140 41 0
0 8 57
0 0 0
0 0 0
0 16 0
0 0 0
0 156 16
0 0 0
0 0 0
57 247 0
0 0 0
57 247 0
0 0 0
57 247 0
0 0 0
0 0 0
181 148 255
57 206 123
189 132 57
57 231 222
66 99 239
189 231 165
0 0 8
0 0 0
231 247 99
16 156 8
115 140 156
0 0 0
8 74 66
16 156 16
115 140 156
0 0 0
0 214 33
16 156 16
115 140 156
0 0 0
0 0 0
0 0 0
0 0 0
0 0 0
0 0 24
0 0 0
0 0 0
0 0 0
206 156 99
16 156 8
115 140 156
0 0 0
222 156 231
0 41 0
0 0 0
0 0 0
222 132 99
0 41 0
0 0 0
0 0 0
140 41 0
0 8 57
0 0 0
0 0 0
0 16 0
0 0 0
0 156 16
0 0 0
0 0 0
57 247 0
0 0 0
57 247 0
0 0 0
57 247 0
0 0 0
0 0 0
0 0 0
0 0 0
66 222 165
57 239 156
132 140 148
189 222 107
0 0 8
0 0 0
8 74 66
16 156 16
115 140 156
0 0 0
8 82 165
16 156 16
115 140 156
0 0 0
0 222 132
16 156 16
115 140 156
0 0 0
0 0 0
0 0 0
0 0 0
0 0 0
0 0 24
0 0 0
0 0 0
0 0 0
206 156 99
16 156 8
115 140 156
0 0 0
222 173 165
0 41 0
0 0 0
0 0 0
222 148 33
0 41 0
0 0 0
0 0 0
140 41 0
0 8 57
0 0 0
0 0 0
0 16 0
0 0 0
0 156 24
0 0 0
0 0 0
57 247 0
0 0 0
57 247 0
0 0 0
57 247 0
0 0 0
0 0 0
0 0 0
0 0 0
82 57 107
57 231 206
181 132 0
189 231 222
0 0 8
0 0 0
8 99 0
16 156 16
115 140 156
0 0 0
231 247 99
16 156 8
115 140 156
0 0 0
8 107 99
16 156 16
115 140 156
0 0 0
0 0 0
0 0 0
0 0 0
0 0 0
0 0 24
0 0 0
0 0 0
0 0 0
206 156 99
16 156 8
115 140 156
0 0 0
222 189 99
0 41 0
0 0 0
0 0 0
222 156 231
0 41 0
0 0 0
0 0 0
140 41 0
0 8 57
0 0 0
0 0 0
0 16 0
0 0 0
0 156 24
0 0 0
0 0 0
57 247 0
0 0 0
57 247 0
0 0 0
57 247 0
0 0 0
0 0 0
165 189 66
57 198 49
255 49 41
189 148 41
140 33 231
189 239 247
0 0 8
0 0 0
231 247 99
16 156 8
115 140 156
0 0 0
231 255 198
16 156 8
115 140 156
0 0 0
16 0 165
16 156 16
115 140 156
0 0 0
0 0 0
0 0 0
0 0 0
0 0 0
0 0 24
0 0 0
0 0 0
0 0 0
206 156 99
16 156 8
115 140 156
0 0 0
222 206 33
0 41 0
0 0 0
0 0 0
222 173 165
0 41 0
0 0 0
0 0 0
140 41 0
0 8 57
0 0 0
0 0 0
0 16 0
0 0 0
0 156 33
0 0 0
0 0 0
57 247 0
0 0 0
57 247 0
0 0 0
57 247 0
0 0 0
0 0 0
0 0 0
0 0 0
0 156 0
57 239 8
214 247 206
57 231 148
0 0 8
0 0 0
0 74 165
16 156 16
115 140 156
0 0 0
231 214 66
16 156 8
115 140 156
0 0 0
16 24 99
16 156 16
115 140 156
0 0 0
0 0 0
0 0 0
0 0 0
0 0 0
0 0 24
0 0 0
0 0 0
0 0 0
206 156 99
16 156 8
115 140 156
0 0 0
222 214 231
0 41 0
0 0 0
0 0 0
222 189 99
0 41 0
0 0 0
0 0 0
140 41 0
0 8 57
0 0 0
0 0 0
0 16 0
0 0 0
0 156 33
0 0 0
0 0 0
57 247 0
0 0 0
57 247 0
0 0 0
57 247 0
0 0 0
0 0 0
0 0 0
0 0 0
41 247 57
57 239 239
165 247 16
189 206 16
0 0 8
0 0 0
231 214 66
16 156 8
115 140 156
0 0 0
0 66 66
16 156 16
115 140 156
0 0 0
16 24 99
16 156 16
115 140 156
0 0 0
0 0 0
0 0 0
0 0 0
0 0 0
0 0 24
0 0 0
0 0 0
0 0 0
206 156 99
16 156 8
115 140 156
0 0 0
222 231 165
0 41 0
0 0 0
0 0 0
222 206 33
0 41 0
0 0 0
0 0 0
140 41 0
0 8 57
0 0 0
0 0 0
0 16 0
0 0 0
0 156 41
0 0 0
0 0 0
57 247 0
0 0 0
57 247 0
0 0 0
57 247 0
0 0 0
0 0 0
0 0 0
0 0 0
173 140 165
57 231 189
33 206 198
189 231 239
0 0 8
0 0 0
16 33 198
16 156 16
115 140 156
0 0 0
239 66 0
16 156 8
115 140 156
0 0 0
16 49 33
16 156 16
115 140 156
0 0 0
0 0 0
0 0 0
0 0 0
0 0 0
0 0 24
0 0 0
0 0 0
0 0 0
206 156 99
16 156 8
115 140 156
0 0 0
222 247 99
0 41 0
0 0 0
0 0 0
222 214 231
0 41 0
0 0 0
0 0 0
140 41 0
0 8 57
0 0 0
0 0 0
0 16 0
0 0 0
0 156 41
0 0 0
0 0 0
57 247 0
0 0 0
57 247 0
0 0 0
57 247 0
0 0 0
0 0 0
0 0 0
0 0 0
165 222 8
57 239 57
24 49 90
189 231 90
0 0 8
0 0 0
16 57 132
16 156 16
115 140 156
0 0 0
0 49 231
16 156 16
115 140 156
0 0 0
16 33 198
16 156 16
115 140 156
0 0 0
0 0 0
0 0 0
0 0 0
0 0 0
0 0 24
0 0 0
0 0 0
0 0 0
206 156 99
16 156 8
115 140 156
0 0 0
231 0 33
0 41 0
0 0 0
0 0 0
222 231 165
0 41 0
0 0 0
0 0 0
140 41 0
0 8 57
0 0 0
0 0 0
0 16 0
0 0 0
0 156 49
0 0 0
0 0 0
57 247 0
0 0 0
57 247 0
0 0 0
57 247 0
0 0 0
0 0 0
0 0 0
0 0 0
57 16 239
57 231 41
214 173 74
189 239 90
0 0 8
0 0 0
239 66 0
16 156 8
115 140 156
0 0 0
239 74 99
16 156 8
115 140 156
0 0 0
16 49 33
16 156 16
115 140 156
0 0 0
0 0 0
0 0 0
0 0 0
0 0 0
0 0 24
0 0 0
0 0 0
0 0 0
206 156 99
16 156 8
115 140 156
0 0 0
231 8 231
0 41 0
0 0 0
0 0 0
222 247 99
0 41 0
0 0 0
0 0 0
140 41 0
0 8 57
0 0 0
0 0 0
0 16 0
0 0 0
0 156 49
0 0 0
0 0 0
57 247 0
0 0 0
57 247 0
0 0 0
57 247 0
0 0 0
0 0 0
8 222 41
57 165 49
156 0 82
189 239 247
140 132 222
57 198 24
0 0 8
0 0 0
231 0 33
16 156 8
115 140 156
0 0 0
239 16 132
16 156 8
115 140 156
0 0 0
255 99 198
16 156 8
115 140 156
0 0 0
0 0 0
0 0 0
0 0 0
0 0 0
0 0 24
0 0 0
0 0 0
0 0 0
206 156 99
16 156 8
115 140 156
0 0 0
231 24 165
0 41 0
0 0 0
0 0 0
231 0 33
0 41 0
0 0 0
0 0 0
140 41 0
0 8 57
0 0 0
0 0 0
0 16 0
0 0 0
0 156 57
0 0 0
0 0 0
57 247 0
0 0 0
57 247 0
0 0 0
57 247 0
0 0 0
0 0 0
0 0 0
0 0 0
222 189 255
57 239 198
107 148 140
57 214 181
0 0 8
0 0 0
239 16 132
16 156 8
115 140 156
0 0 0
16 123 198
16 156 16
115 140 156
0 0 0
16 140 33
16 156 16
115 140 156
0 0 0
0 0 0
0 0 0
0 0 0
0 0 0
0 0 24
0 0 0
0 0 0
0 0 0
206 156 99
16 156 8
115 140 156
0 0 0
231 41 99
0 41 0
0 0 0
0 0 0
231 8 231
0 41 0
0 0 0
0 0 0
140 41 0
0 8 57
0 0 0
0 0 0
0 16 0
0 0 0
0 156 57
0 0 0
0 0 0
57 247 0
0 0 0
57 247 0
0 0 0
57 247 0
0 0 0
0 0 0
181 239 198
189 123 82
231 123 156
57 239 255
214 156 0
57 156 165
0 0 8
0 0 0
0 132 132
16 156 16
115 140 156
0 0 0
24 189 165
16 156 16
115 140 156
0 0 0
16 123 198
16 156 16
115 140 156
0 0 0
0 0 0
0 0 0
0 0 0
0 0 0
0 0 24
0 0 0
0 0 0
0 0 0
206 156 99
16 156 8
115 140 156
0 0 0
231 57 33
0 41 0
0 0 0
0 0 0
231 24 165
0 41 0
0 0 0
0 0 0
140 41 0
0 8 57
0 0 0
0 0 0
0 16 0
0 0 0
0 156 66
0 0 0
0 0 0
57 247 0
0 0 0
57 247 0
0 0 0
57 247 0
0 0 0
0 0 0
41 123 107
57 214 123
16 107 99
57 239 206
222 0 140
57 173 123
0 0 8
0 0 0
0 132 132
16 156 16
115 140 156
0 0 0
16 123 198
16 156 16
115 140 156
0 0 0
231 66 99
16 156 8
115 140 156
0 0 0
0 0 0
0 0 0
0 0 0
0 0 0
0 0 24
0 0 0
0 0 0
0 0 0
206 156 99
16 156 8
115 140 156
0 0 0
231 66 231
0 41 0
0 0 0
0 0 0
231 41 99
0 41 0
0 0 0
0 0 0
140 41 0
0 8 57
0 0 0
0 0 0
0 16 0
0 0 0
0 156 66
0 0 0
0 0 0
57 247 0
0 0 0
57 247 0
0 0 0
57 247 0
0 0 0
0 0 0
49 214 90
57 231 41
173 189 247
57 239 74
214 132 148
189 198 74
0 0 8
0 0 0
0 132 132
16 156 16
115 140 156
0 0 0
231 66 99
16 156 8
115 140 156
0 0 0
255 8 198
16 156 8
115 140 156
0 0 0
0 0 0
0 0 0
0 0 0
0 0 0
0 0 24
0 0 0
0 0 0
0 0 0
206 156 99
16 156 8
115 140 156
0 0 0
231 82 165
0 41 0
0 0 0
0 0 0
231 57 33
0 41 0
0 0 0
0 0 0
140 41 0
0 8 57
0 0 0
0 0 0
0 16 0
0 0 0
0 156 74
0 0 0
0 0 0
57 247 0
0 0 0
57 247 0
0 0 0
57 247 0
0 0 0
0 0 0
214 90 156
57 231 115
198 255 173
57 239 16
115 90 140
189 198 247
0 0 8
0 0 0
0 165 165
16 156 16
115 140 156
0 0 0
255 8 198
16 156 8
115 140 156
0 0 0
231 74 198
16 156 8
115 140 156
0 0 0
0 0 0
0 0 0
0 0 0
0 0 0
0 0 24
0 0 0
0 0 0
0 0 0
206 156 99
16 156 8
115 140 156
0 0 0
231 99 99
0 41 0
0 0 0
0 0 0
231 66 231
0 41 0
0 0 0
0 0 0
140 41 0
0 8 57
0 0 0
0 0 0
0 16 0
0 0 0
0 156 74
0 0 0
0 0 0
57 247 0
0 0 0
57 247 0
0 0 0
57 247 0
0 0 0
0 0 0
165 24 173
57 231 255
239 239 24
57 148 74
173 247 181
189 231 165
0 0 8
0 0 0
206 255 132
16 156 8
115 140 156
0 0 0
0 231 231
16 156 16
115 140 156
0 0 0
231 255 198
16 156 8
115 140 156
0 0 0
0 0 0
0 0 0
0 0 0
0 0 0
0 0 24
0 0 0
0 0 0
0 0 0
206 156 99
16 156 8
115 140 156
0 0 0
231 115 33
0 41 0
0 0 0
0 0 0
231 82 165
0 41 0
0 0 0
0 0 0
140 41 0
0 8 57
0 0 0
0 0 0
0 16 0
0 0 0
0 156 82
0 0 0
0 0 0
57 247 0
0 0 0
57 247 0
0 0 0
57 247 0
0 0 0
0 0 0
0 0 0
0 0 0
66 222 173
57 239 156
132 140 148
189 222 107
0 0 8
0 0 0
8 99 0
16 156 16
115 140 156
0 0 0
8 82 165
16 156 16
115 140 156
0 0 0
8 74 66
16 156 16
115 140 156
0 0 0
0 0 0
0 0 0
0 0 0
0 0 0
0 0 24
0 0 0
0 0 0
0 0 0
206 156 99
16 156 8
115 140 156
0 0 0
231 123 231
0 41 0
0 0 0
0 0 0
231 99 99
0 41 0
0 0 0
0 0 0
140 41 0
0 8 57
0 0 0
0 0 0
0 16 0
0 0 0
0 156 82
0 0 0
0 0 0
57 247 0
0 0 0
57 247 0
0 0 0
57 247 0
0 0 0
0 0 0
107 173 74
57 181 231
82 99 8
57 239 148
222 0 214
189 222 123
0 0 8
0 0 0
0 214 33
16 156 16
115 140 156
0 0 0
8 74 66
16 156 16
115 140 156
0 0 0
239 82 198
16 156 8
115 140 156
0 0 0
0 0 0
0 0 0
0 0 0
0 0 0
0 0 24
0 0 0
0 0 0
0 0 0
206 156 99
16 156 8
115 140 156
0 0 0
231 140 165
0 41 0
0 0 0
0 0 0
231 115 33
0 41 0
0 0 0
0 0 0
140 41 0
0 8 57
0 0 0
0 0 0
0 16 0
0 0 0
0 156 90
0 0 0
0 0 0
57 247 0
0 0 0
57 247 0
0 0 0
57 247 0
0 0 0
0 0 0
239 41 33
57 181 33
165 41 140
57 239 140
181 247 123
189 222 156
0 0 8
0 0 0
0 214 33
16 156 16
115 140 156
0 0 0
239 82 198
16 156 8
115 140 156
0 0 0
206 231 198
16 156 8
115 140 156
0 0 0
0 0 0
0 0 0
0 0 0
0 0 0
0 0 24
0 0 0
0 0 0
0 0 0
206 156 99
16 156 8
115 140 156
0 0 0
231 156 99
0 41 0
0 0 0
0 0 0
231 123 231
0 41 0
0 0 0
0 0 0
140 41 0
0 8 57
0 0 0
0 0 0
0 16 0
0 0 0
0 156 90
0 0 0
0 0 0
57 247 0
0 0 0
57 247 0
0 0 0
57 247 0
0 0 0
0 0 0
247 247 206
57 231 189
66 16 66
189 214 148
214 0 255
57 231 156
0 0 8
0 0 0
231 74 198
16 156 8
115 140 156
0 0 0
0 33 33
16 156 16
115 140 156
0 0 0
239 49 165
16 156 8
115 140 156
0 0 0
0 0 0
0 0 0
0 0 0
0 0 0
0 0 24
0 0 0
0 0 0
0 0 0
206 156 99
16 156 8
115 140 156
0 0 0
231 173 33
0 41 0
0 0 0
0 0 0
231 140 165
0 41 0
0 0 0
0 0 0
140 41 0
0 8 57
0 0 0
0 0 0
0 16 0
0 0 0
0 156 99
0 0 0
0 0 0
57 247 0
0 0 0
57 247 0
0 0 0
57 247 0
0 0 0
0 0 0
82 49 16
57 239 8
173 8 255
189 231 16
24 189 49
57 222 24
0 0 8
0 0 0
33 33 0
16 156 16
115 140 156
0 0 0
231 90 33
16 156 8
115 140 156
0 0 0
255 247 165
16 156 8
115 140 156
0 0 0
0 0 0
0 0 0
0 0 0
0 0 0
0 0 24
0 0 0
0 0 0
0 0 0
206 156 99
16 156 8
115 140 156
0 0 0
231 181 231
0 41 0
0 0 0
0 0 0
231 156 99
0 41 0
0 0 0
0 0 0
140 41 0
0 8 57
0 0 0
0 0 0
0 16 0
0 0 0
0 156 99
0 0 0
0 0 0
57 247 0
0 0 0
57 247 0
0 0 0
57 247 0
0 0 0
0 0 0
99 148 231
57 231 198
181 24 173
189 214 206
57 99 74
57 231 132
0 0 8
0 0 0
231 74 198
16 156 8
115 140 156
0 0 0
255 247 165
16 156 8
115 140 156
0 0 0
0 33 33
16 156 16
115 140 156
0 0 0
0 0 0
0 0 0
0 0 0
0 0 0
0 0 24
0 0 0
0 0 0
0 0 0
206 156 99
16 156 8
115 140 156
0 0 0
231 198 165
0 41 0
0 0 0
0 0 0
231 173 33
0 41 0
0 0 0
0 0 0
140 41 0
0 8 57
0 0 0
0 0 0
0 16 0
0 0 0
0 156 107
0 0 0
0 0 0
57 247 0
0 0 0
57 247 0
0 0 0
57 247 0
0 0 0
0 0 0
189 132 24
57 239 99
140 231 49
189 231 16
41 173 222
57 181 33
0 0 8
0 0 0
255 214 132
16 156 8
115 140 156
0 0 0
231 90 33
16 156 8
115 140 156
0 0 0
33 33 0
16 156 16
115 140 156
0 0 0
0 0 0
0 0 0
0 0 0
0 0 0
0 0 24
0 0 0
0 0 0
0 0 0
206 156 99
16 156 8
115 140 156
0 0 0
231 214 99
0 41 0
0 0 0
0 0 0
231 181 231
0 41 0
0 0 0
0 0 0
140 41 0
0 8 57
0 0 0
0 0 0
0 16 0
0 0 0
0 156 107
0 0 0
0 0 0
57 247 0
0 0 0
57 247 0
0 0 0
57 247 0
0 0 0
0 0 0
165 165 255
57 231 255
16 140 189
189 231 99
181 255 82
57 214 107
0 0 8
0 0 0
231 33 66
16 156 8
115 140 156
0 0 0
231 90 33
16 156 8
115 140 156
0 0 0
255 214 132
16 156 8
115 140 156
0 0 0
0 0 0
0 0 0
0 0 0
0 0 0
0 0 24
0 0 0
0 0 0
0 0 0
206 156 99
16 156 8
115 140 156
0 0 0
231 231 33
0 41 0
0 0 0
0 0 0
231 198 165
0 41 0
0 0 0
0 0 0
140 41 0
0 8 57
0 0 0
0 0 0
0 16 0
0 0 0
0 156 115
0 0 0
0 0 0
57 247 0
0 0 0
57 247 0
0 0 0
57 247 0
0 0 0
0 0 0
165 189 0
57 239 189
90 107 0
189 206 33
231 16 206
57 214 107
0 0 8
0 0 0
0 16 198
16 156 16
115 140 156
0 0 0
231 90 33
16 156 8
115 140 156
0 0 0
231 16 231
16 156 8
115 140 156
0 0 0
0 0 0
0 0 0
0 0 0
0 0 0
0 0 24
0 0 0
0 0 0
0 0 0
206 156 99
16 156 8
115 140 156
0 0 0
231 239 231
0 41 0
0 0 0
0 0 0
231 214 99
0 41 0
0 0 0
0 0 0
140 41 0
0 8 57
0 0 0
0 0 0
0 16 0
0 0 0
0 156 115
0 0 0
0 0 0
57 247 0
0 0 0
57 247 0
0 0 0
57 247 0
0 0 0
0 0 0
165 189 0
189 239 189
90 107 0
189 206 33
231 16 206
57 214 107
0 0 8
0 0 0
33 41 99
16 156 16
115 140 156
0 0 0
33 49 198
16 156 16
115 140 156
0 0 0
33 66 33
16 156 16
115 140 156
0 0 0
0 0 0
0 0 0
0 0 0
0 0 0
0 0 24
0 0 0
0 0 0
0 0 0
206 156 99
16 156 8
115 140 156
0 0 0
231 255 165
0 41 0
0 0 0
0 0 0
231 231 33
0 41 0
0 0 0
0 0 0
140 41 0
0 8 57
0 0 0
0 0 0
0 16 0
0 0 0
0 156 123
0 0 0
0 0 0
57 247 0
0 0 0
57 247 0
0 0 0
57 247 0
0 0 0
0 0 0
165 165 255
189 231 255
16 140 189
189 231 99
181 255 82
57 214 107
0 0 8
0 0 0
33 74 132
16 156 16
115 140 156
0 0 0
33 82 231
16 156 16
115 140 156
0 0 0
33 66 33
16 156 16
115 140 156
0 0 0
0 0 0
0 0 0
0 0 0
0 0 0
0 0 24
0 0 0
0 0 0
0 0 0
206 156 99
16 156 8
115 140 156
0 0 0
239 8 99
0 41 0
0 0 0
0 0 0
231 239 231
0 41 0
0 0 0
0 0 0
140 41 0
0 8 57
0 0 0
0 0 0
0 16 0
0 0 0
0 156 123
0 0 0
0 0 0
57 247 0
0 0 0
57 247 0
0 0 0
57 247 0
0 0 0
0 0 0
189 132 24
189 239 99
140 231 49
189 231 16
41 173 222
57 181 33
0 0 8
0 0 0
33 82 231
16 156 16
115 140 156
0 0 0
33 99 66
16 156 16
115 140 156
0 0 0
33 66 33
16 156 16
115 140 156
0 0 0
0 0 0
0 0 0
0 0 0
0 0 0
0 0 24
0 0 0
0 0 0
0 0 0
206 156 99
16 156 8
115 140 156
0 0 0
239 24 33
0 41 0
0 0 0
0 0 0
231 255 165
0 41 0
0 0 0
0 0 0
140 41 0
0 8 57
0 0 0
0 0 0
0 16 0
0 0 0
0 156 132
0 0 0
0 0 0
57 247 0
0 0 0
57 247 0
0 0 0
57 247 0
0 0 0
0 0 0
99 148 231
189 231 198
181 24 173
189 214 206
57 99 74
57 231 132
0 0 8
0 0 0
33 107 165
16 156 16
115 140 156
0 0 0
33 123 0
16 156 16
115 140 156
0 0 0
33 132 99
16 156 16
115 140 156
0 0 0
0 0 0
0 0 0
0 0 0
0 0 0
0 0 24
0 0 0
0 0 0
0 0 0
206 156 99
16 156 8
115 140 156
0 0 0
239 33 231
0 41 0
0 0 0
0 0 0
239 8 99
0 41 0
0 0 0
0 0 0
140 41 0
0 8 57
0 0 0
0 0 0
0 16 0
0 0 0
0 156 132
0 0 0
0 0 0
57 247 0
0 0 0
57 247 0
0 0 0
57 247 0
0 0 0
0 0 0
82 49 16
189 239 8
173 8 255
189 231 16
24 189 49
57 222 24
0 0 8
0 0 0
33 99 66
16 156 16
115 140 156
0 0 0
33 132 99
16 156 16
115 140 156
0 0 0
33 66 33
16 156 16
115 140 156
0 0 0
0 0 0
0 0 0
0 0 0
0 0 0
0 0 24
0 0 0
0 0 0
0 0 0
206 156 99
16 156 8
115 140 156
0 0 0
239 49 165
0 41 0
0 0 0
0 0 0
239 24 33
0 41 0
0 0 0
0 0 0
140 41 0
0 8 57
0 0 0
0 0 0
0 16 0
0 0 0
0 156 140
0 0 0
0 0 0
57 247 0
0 0 0
57 247 0
0 0 0
57 247 0
0 0 0
0 0 0
247 247 206
189 231 189
66 16 66
189 214 148
214 0 255
57 231 156
0 0 8
0 0 0
33 107 165
16 156 16
115 140 156
0 0 0
33 140 198
16 156 16
115 140 156
0 0 0
33 123 0
16 156 16
115 140 156
0 0 0
0 0 0
0 0 0
0 0 0
0 0 0
0 0 24
0 0 0
0 0 0
0 0 0
206 156 99
16 156 8
115 140 156
0 0 0
239 66 99
0 41 0
0 0 0
0 0 0
239 33 231
0 41 0
0 0 0
0 0 0
140 41 0
0 8 57
0 0 0
0 0 0
0 16 0
0 0 0
0 156 140
0 0 0
0 0 0
57 247 0
0 0 0
57 247 0
0 0 0
57 247 0
0 0 0
0 0 0
239 41 33
189 181 33
165 41 140
57 239 140
181 247 123
189 222 156
0 0 8
0 0 0
33 156 33
16 156 16
115 140 156
0 0 0
33 165 132
16 156 16
115 140 156
0 0 0
33 173 231
16 156 16
115 140 156
0 0 0
0 0 0
0 0 0
0 0 0
0 0 0
0 0 24
0 0 0
0 0 0
0 0 0
206 156 99
16 156 8
115 140 156
0 0 0
239 82 33
0 41 0
0 0 0
0 0 0
239 49 165
0 41 0
0 0 0
0 0 0
140 41 0
0 8 57
0 0 0
0 0 0
0 16 0
0 0 0
0 156 148
0 0 0
0 0 0
57 247 0
0 0 0
57 247 0
0 0 0
57 247 0
0 0 0
0 0 0
107 173 74
189 181 231
82 99 8
57 239 148
222 0 214
189 222 123
0 0 8
0 0 0
33 156 33
16 156 16
115 140 156
0 0 0
33 173 231
16 156 16
115 140 156
0 0 0
8 99 0
16 156 16
115 140 156
0 0 0
0 0 0
0 0 0
0 0 0
0 0 0
0 0 24
0 0 0
0 0 0
0 0 0
206 156 99
16 156 8
115 140 156
0 0 0
239 90 231
0 41 0
0 0 0
0 0 0
239 66 99
0 41 0
0 0 0
0 0 0
140 41 0
0 8 57
0 0 0
0 0 0
0 16 0
0 0 0
0 156 148
0 0 0
0 0 0
57 247 0
0 0 0
57 247 0
0 0 0
57 247 0
0 0 0
0 0 0
165 24 173
189 231 255
239 239 24
57 148 74
173 247 181
189 231 165
0 0 8
0 0 0
41 181 231
16 156 16
115 140 156
0 0 0
41 198 66
16 156 16
115 140 156
0 0 0
41 206 165
16 156 16
115 140 156
0 0 0
0 0 0
0 0 0
0 0 0
0 0 0
0 0 24
0 0 0
0 0 0
0 0 0
206 156 99
16 156 8
115 140 156
0 0 0
239 107 165
0 41 0
0 0 0
0 0 0
239 82 33
0 41 0
0 0 0
0 0 0
140 41 0
0 8 57
0 0 0
0 0 0
0 16 0
0 0 0
0 156 156
0 0 0
0 0 0
57 247 0
0 0 0
57 247 0
0 0 0
57 247 0
0 0 0
0 0 0
214 90 156
189 231 115
198 255 173
57 239 16
115 90 140
189 198 247
0 0 8
0 0 0
49 231 0
16 156 16
115 140 156
0 0 0
33 107 165
16 156 16
115 140 156
0 0 0
49 239 99
16 156 16
115 140 156
0 0 0
0 0 0
0 0 0
0 0 0
0 0 0
0 0 24
0 0 0
0 0 0
0 0 0
206 156 99
16 156 8
115 140 156
0 0 0
239 123 99
0 41 0
0 0 0
0 0 0
239 90 231
0 41 0
0 0 0
0 0 0
140 41 0
0 8 57
0 0 0
0 0 0
0 16 0
0 0 0
0 156 156
0 0 0
0 0 0
57 247 0
0 0 0
57 247 0
0 0 0
57 247 0
0 0 0
0 0 0
49 214 90
189 231 41
173 189 247
57 239 74
214 132 148
189 198 74
0 0 8
0 0 0
8 222 33
16 156 16
115 140 156
0 0 0
49 239 99
16 156 16
115 140 156
0 0 0
49 247 198
16 156 16
115 140 156
0 0 0
0 0 0
0 0 0
0 0 0
0 0 0
0 0 24
0 0 0
0 0 0
0 0 0
206 156 99
16 156 8
115 140 156
0 0 0
239 140 33
0 41 0
0 0 0
0 0 0
239 107 165
0 41 0
0 0 0
0 0 0
140 41 0
0 8 57
0 0 0
0 0 0
0 16 0
0 0 0
0 156 165
0 0 0
0 0 0
57 247 0
0 0 0
57 247 0
0 0 0
57 247 0
0 0 0
0 0 0
41 123 107
189 214 123
16 107 99
57 239 206
222 0 140
57 173 123
0 0 8
0 0 0
8 222 33
16 156 16
115 140 156
0 0 0
49 247 198
16 156 16
115 140 156
0 0 0
57 0 33
16 156 16
115 140 156
0 0 0
0 0 0
0 0 0
0 0 0
0 0 0
0 0 24
0 0 0
0 0 0
0 0 0
206 156 99
16 156 8
115 140 156
0 0 0
239 148 231
0 41 0
0 0 0
0 0 0
239 123 99
0 41 0
0 0 0
0 0 0
140 41 0
0 8 57
0 0 0
0 0 0
0 16 0
0 0 0
0 156 165
0 0 0
0 0 0
57 247 0
0 0 0
57 247 0
0 0 0
57 247 0
0 0 0
0 0 0
181 239 198
57 123 82
231 123 156
57 239 255
214 156 0
57 156 165
0 0 8
0 0 0
8 222 33
16 156 16
115 140 156
0 0 0
57 0 33
16 156 16
115 140 156
0 0 0
24 189 165
16 156 16
115 140 156
0 0 0
0 0 0
0 0 0
0 0 0
0 0 0
0 0 24
0 0 0
0 0 0
0 0 0
206 156 99
16 156 8
115 140 156
0 0 0
239 165 165
0 41 0
0 0 0
0 0 0
239 140 33
0 41 0
0 0 0
0 0 0
140 41 0
0 8 57
0 0 0
0 0 0
0 16 0
0 0 0
0 156 173
0 0 0
0 0 0
57 247 0
0 0 0
57 247 0
0 0 0
57 247 0
0 0 0
0 0 0
0 0 0
132 0 0
222 189 255
57 239 198
107 148 140
57 214 181
0 0 8
0 0 0
66 66 0
16 156 16
115 140 156
0 0 0
16 140 33
16 156 16
115 140 156
0 0 0
57 0 33
16 156 16
115 140 156
0 0 0
0 0 0
0 0 0
0 0 0
0 0 0
0 0 24
0 0 0
0 0 0
0 0 0
206 156 99
16 156 8
115 140 156
0 0 0
239 181 99
0 41 0
0 0 0
0 0 0
239 148 231
0 41 0
0 0 0
0 0 0
140 41 0
0 8 57
0 0 0
0 0 0
0 16 0
0 0 0
0 156 173
0 0 0
0 0 0
57 247 0
0 0 0
57 247 0
0 0 0
57 247 0
0 0 0
0 0 0
8 222 41
189 165 49
156 0 82
189 239 247
140 132 222
57 198 24
0 0 8
0 0 0
66 99 33
16 156 16
115 140 156
0 0 0
255 99 198
16 156 8
115 140 156
0 0 0
66 66 0
16 156 16
115 140 156
0 0 0
0 0 0
0 0 0
0 0 0
0 0 0
0 0 24
0 0 0
0 0 0
0 0 0
206 156 99
16 156 8
115 140 156
0 0 0
239 198 33
0 41 0
0 0 0
0 0 0
239 165 165
0 41 0
0 0 0
0 0 0
140 41 0
0 8 57
0 0 0
0 0 0
0 16 0
0 0 0
0 156 181
0 0 0
0 0 0
57 247 0
0 0 0
57 247 0
0 0 0
57 247 0
0 0 0
0 0 0
247 247 115
189 198 222
239 206 156
189 239 173
173 115 0
189 214 214
0 0 8
0 0 0
66 107 132
16 156 16
115 140 156
0 0 0
41 198 66
16 156 16
115 140 156
0 0 0
16 16 0
16 156 16
115 140 156
0 0 0
0 0 0
0 0 0
0 0 0
0 0 0
0 0 24
0 0 0
0 0 0
0 0 0
206 156 99
16 156 8
115 140 156
0 0 0
239 206 231
0 41 0
0 0 0
0 0 0
239 181 99
0 41 0
0 0 0
0 0 0
140 41 0
0 8 57
0 0 0
0 0 0
0 16 0
0 0 0
0 156 181
0 0 0
0 0 0
57 247 0
0 0 0
57 247 0
0 0 0
57 247 0
0 0 0
0 0 0
132 0 107
189 206 140
115 165 74
57 231 222
107 8 239
189 231 173
0 0 8
0 0 0
8 107 99
16 156 16
115 140 156
0 0 0
33 156 33
16 156 16
115 140 156
0 0 0
8 99 0
16 156 16
115 140 156
0 0 0
0 0 0
0 0 0
0 0 0
0 0 0
0 0 24
0 0 0
0 0 0
0 0 0
206 156 99
16 156 8
115 140 156
0 0 0
239 222 165
0 41 0
0 0 0
0 0 0
239 198 33
0 41 0
0 0 0
0 0 0
140 41 0
0 8 57
0 0 0
0 0 0
0 16 0
0 0 0
0 156 189
0 0 0
0 0 0
57 247 0
0 0 0
57 247 0
0 0 0
57 247 0
0 0 0
0 0 0
123 107 255
189 239 49
66 123 0
57 189 90
74 123 74
189 231 90
0 0 8
0 0 0
33 49 198
16 156 16
115 140 156
0 0 0
41 181 231
16 156 16
115 140 156
0 0 0
41 206 165
16 156 16
115 140 156
0 0 0
0 0 0
0 0 0
0 0 0
0 0 0
0 0 24
0 0 0
0 0 0
0 0 0
206 156 99
16 156 8
115 140 156
0 0 0
239 239 99
0 41 0
0 0 0
0 0 0
239 206 231
0 41 0
0 0 0
0 0 0
140 41 0
0 8 57
0 0 0
0 0 0
0 16 0
0 0 0
0 156 189
0 0 0
0 0 0
57 247 0
0 0 0
57 247 0
0 0 0
57 247 0
0 0 0
0 0 0
214 148 239
189 231 214
255 198 107
189 231 198
41 16 82
57 189 132
0 0 8
0 0 0
33 49 198
16 156 16
115 140 156
0 0 0
41 206 165
16 156 16
115 140 156
0 0 0
57 66 99
16 156 16
115 140 156
0 0 0
0 0 0
0 0 0
0 0 0
0 0 0
0 0 24
0 0 0
0 0 0
0 0 0
206 156 99
16 156 8
115 140 156
0 0 0
239 255 33
0 41 0
0 0 0
0 0 0
239 222 165
0 41 0
0 0 0
0 0 0
140 41 0
0 8 57
0 0 0
0 0 0
0 16 0
0 0 0
0 156 198
0 0 0
0 0 0
57 247 0
0 0 0
57 247 0
0 0 0
57 247 0
0 0 0
0 0 0
189 41 181
189 115 24
74 148 0
57 239 189
16 33 255
189 214 239
0 0 8
0 0 0
66 173 198
16 156 16
115 140 156
0 0 0
8 82 165
16 156 16
115 140 156
0 0 0
33 173 231
16 156 16
115 140 156
0 0 0
0 0 0
0 0 0
0 0 0
0 0 0
0 0 24
0 0 0
0 0 0
0 0 0
206 156 99
16 156 8
115 140 156
0 0 0
247 0 231
0 41 0
0 0 0
0 0 0
239 239 99
0 41 0
0 0 0
0 0 0
140 41 0
0 8 57
0 0 0
0 0 0
0 16 0
0 0 0
0 156 198
0 0 0
0 0 0
57 247 0
0 0 0
57 247 0
0 0 0
57 247 0
0 0 0
0 0 0
0 57 0
189 231 41
214 214 115
57 222 239
99 82 247
189 231 189
0 0 8
0 0 0
8 107 99
16 156 16
115 140 156
0 0 0
41 181 231
16 156 16
115 140 156
0 0 0
33 156 33
16 156 16
115 140 156
0 0 0
0 0 0
0 0 0
0 0 0
0 0 0
0 0 24
0 0 0
0 0 0
0 0 0
206 156 99
16 156 8
115 140 156
0 0 0
247 16 165
0 41 0
0 0 0
0 0 0
239 255 33
0 41 0
0 0 0
0 0 0
140 41 0
0 8 57
0 0 0
0 0 0
0 16 0
0 0 0
0 156 206
0 0 0
0 0 0
57 247 0
0 0 0
57 247 0
0 0 0
57 247 0
0 0 0
0 0 0
222 107 115
189 239 49
222 148 41
189 189 99
189 41 148
57 231 82
0 0 8
0 0 0
74 74 0
16 156 16
115 140 156
0 0 0
33 41 99
16 156 16
115 140 156
0 0 0
33 140 198
16 156 16
115 140 156
0 0 0
0 0 0
0 0 0
0 0 0
0 0 0
0 0 24
0 0 0
0 0 0
0 0 0
206 156 99
16 156 8
115 140 156
0 0 0
247 33 99
0 41 0
0 0 0
0 0 0
247 0 231
0 41 0
0 0 0
0 0 0
140 41 0
0 8 57
0 0 0
0 0 0
0 16 0
0 0 0
0 156 206
0 0 0
0 0 0
57 247 0
0 0 0
57 247 0
0 0 0
57 247 0
0 0 0
0 0 0
16 41 247
189 222 198
247 214 0
189 222 41
132 99 222
57 239 33
0 0 8
0 0 0
49 231 0
16 156 16
115 140 156
0 0 0
33 140 198
16 156 16
115 140 156
0 0 0
33 107 165
16 156 16
115 140 156
0 0 0
0 0 0
0 0 0
0 0 0
0 0 0
0 0 24
0 0 0
0 0 0
0 0 0
206 156 99
16 156 8
115 140 156
0 0 0
247 49 33
0 41 0
0 0 0
0 0 0
247 16 165
0 41 0
0 0 0
0 0 0
140 41 0
0 8 57
0 0 0
0 0 0
0 16 0
0 0 0
0 156 214
0 0 0
0 0 0
57 247 0
0 0 0
57 247 0
0 0 0
57 247 0
0 0 0
0 0 0
165 82 115
189 231 33
123 181 173
189 214 82
123 247 132
57 239 41
0 0 8
0 0 0
8 222 33
16 156 16
115 140 156
0 0 0
74 82 99
16 156 16
115 140 156
0 0 0
49 231 0
16 156 16
115 140 156
0 0 0
0 0 0
0 0 0
0 0 0
0 0 0
0 0 24
0 0 0
0 0 0
0 0 0
206 156 99
16 156 8
115 140 156
0 0 0
247 57 231
0 41 0
0 0 0
0 0 0
247 33 99
0 41 0
0 0 0
0 0 0
140 41 0
0 8 57
0 0 0
0 0 0
0 16 0
0 0 0
0 156 214
0 0 0
0 0 0
57 247 0
0 0 0
57 247 0
0 0 0
57 247 0
0 0 0
0 0 0
173 82 222
189 222 107
90 198 247
57 198 82
115 74 41
57 239 148
0 0 8
0 0 0
74 90 198
16 156 16
115 140 156
0 0 0
8 206 198
16 156 16
115 140 156
0 0 0
74 107 33
16 156 16
115 140 156
0 0 0
0 0 0
0 0 0
0 0 0
0 0 0
0 0 24
0 0 0
0 0 0
0 0 0
206 156 99
16 156 8
115 140 156
0 0 0
247 74 165
0 41 0
0 0 0
0 0 0
247 49 33
0 41 0
0 0 0
0 0 0
140 41 0
0 8 57
0 0 0
0 0 0
0 16 0
0 0 0
0 156 222
0 0 0
0 0 0
57 247 0
0 0 0
57 247 0
0 0 0
57 247 0
0 0 0
0 0 0
99 49 255
189 206 24
115 156 255
57 206 99
49 66 41
57 239 214
0 0 8
0 0 0
74 115 132
16 156 16
115 140 156
0 0 0
74 123 231
16 156 16
115 140 156
0 0 0
0 74 165
16 156 16
115 140 156
0 0 0
0 0 0
0 0 0
0 0 0
0 0 0
0 0 24
0 0 0
0 0 0
0 0 0
206 156 99
16 156 8
115 140 156
0 0 0
247 90 99
0 41 0
0 0 0
0 0 0
247 57 231
0 41 0
0 0 0
0 0 0
140 41 0
0 8 57
0 0 0
0 0 0
0 16 0
0 0 0
0 156 222
0 0 0
0 0 0
57 247 0
0 0 0
57 247 0
0 0 0
57 247 0
0 0 0
0 0 0
231 24 140
189 214 57
206 57 66
57 156 132
189 90 57
57 239 214
0 0 8
0 0 0
74 82 99
16 156 16
115 140 156
0 0 0
8 222 33
16 156 16
115 140 156
0 0 0
8 206 198
16 156 16
115 140 156
0 0 0
0 0 0
0 0 0
0 0 0
0 0 0
0 0 24
0 0 0
0 0 0
0 0 0
206 156 99
16 156 8
115 140 156
0 0 0
247 107 33
0 41 0
0 0 0
0 0 0
247 74 165
0 41 0
0 0 0
0 0 0
140 41 0
0 8 57
0 0 0
0 0 0
0 16 0
0 0 0
0 156 231
0 0 0
0 0 0
57 247 0
0 0 0
57 247 0
0 0 0
57 247 0
0 0 0
0 0 0
181 24 148
57 181 132
231 115 132
57 231 57
198 255 82
189 239 74
0 0 8
0 0 0
66 173 198
16 156 16
115 140 156
0 0 0
33 165 132
16 156 16
115 140 156
0 0 0
16 49 33
16 156 16
115 140 156
0 0 0
0 0 0
0 0 0
0 0 0
0 0 0
0 0 24
0 0 0
0 0 0
0 0 0
206 156 99
16 156 8
115 140 156
0 0 0
247 115 231
0 41 0
0 0 0
0 0 0
247 90 99
0 41 0
0 0 0
0 0 0
140 41 0
0 8 57
0 0 0
0 0 0
0 16 0
0 0 0
0 156 231
0 0 0
0 0 0
57 247 0
0 0 0
57 247 0
0 0 0
57 247 0
0 0 0
0 0 0
255 231 214
189 239 16
255 165 115
57 206 231
16 66 82
189 231 90
0 0 8
0 0 0
33 49 198
16 156 16
115 140 156
0 0 0
74 140 66
16 156 16
115 140 156
0 0 0
41 181 231
16 156 16
115 140 156
0 0 0
0 0 0
0 0 0
0 0 0
0 0 0
0 0 24
0 0 0
0 0 0
0 0 0
206 156 99
16 156 8
115 140 156
0 0 0
247 132 165
0 41 0
0 0 0
0 0 0
247 107 33
0 41 0
0 0 0
0 0 0
140 41 0
0 8 57
0 0 0
0 0 0
0 16 0
0 0 0
0 156 239
0 0 0
0 0 0
57 247 0
0 0 0
57 247 0
0 0 0
57 247 0
0 0 0
0 0 0
33 148 57
189 231 198
82 198 255
189 231 115
173 231 41
189 222 33
0 0 8
0 0 0
66 107 132
16 156 16
115 140 156
0 0 0
41 206 165
16 156 16
115 140 156
0 0 0
41 198 66
16 156 16
115 140 156
0 0 0
0 0 0
0 0 0
0 0 0
0 0 0
0 0 24
0 0 0
0 0 0
0 0 0
206 156 99
16 156 8
115 140 156
0 0 0
247 148 99
0 41 0
0 0 0
0 0 0
247 115 231
0 41 0
0 0 0
0 0 0
140 41 0
0 8 57
0 0 0
0 0 0
0 16 0
0 0 0
0 156 239
0 0 0
0 0 0
57 247 0
0 0 0
57 247 0
0 0 0
57 247 0
0 0 0
0 0 0
255 107 140
189 222 189
247 165 107
57 231 239
107 173 181
57 222 247
0 0 8
0 0 0
74 115 132
16 156 16
115 140 156
0 0 0
16 24 99
16 156 16
115 140 156
0 0 0
74 148 165
16 156 16
115 140 156
0 0 0
0 0 0
0 0 0
0 0 0
0 0 0
0 0 24
0 0 0
0 0 0
0 0 0
206 156 99
16 156 8
115 140 156
0 0 0
247 165 33
0 41 0
0 0 0
0 0 0
247 132 165
0 41 0
0 0 0
0 0 0
140 41 0
0 8 57
0 0 0
0 0 0
0 16 0
0 0 0
0 156 247
0 0 0
0 0 0
57 247 0
0 0 0
57 247 0
0 0 0
57 247 0
0 0 0
0 0 0
82 132 49
189 239 8
165 107 57
57 231 49
99 206 107
57 214 189
0 0 8
0 0 0
74 90 198
16 156 16
115 140 156
0 0 0
74 148 165
16 156 16
115 140 156
0 0 0
74 165 0
16 156 16
115 140 156
0 0 0
0 0 0
0 0 0
0 0 0
0 0 0
0 0 24
0 0 0
0 0 0
0 0 0
206 156 99
16 156 8
115 140 156
0 0 0
247 173 231
0 41 0
0 0 0
0 0 0
247 148 99
0 41 0
0 0 0
0 0 0
140 41 0
0 8 57
0 0 0
0 0 0
0 16 0
0 0 0
0 156 247
0 0 0
0 0 0
57 247 0
0 0 0
57 247 0
0 0 0
57 247 0
0 0 0
0 0 0
231 8 222
189 239 132
49 132 140
57 222 132
148 165 231
57 198 198
0 0 8
0 0 0
74 74 0
16 156 16
115 140 156
0 0 0
74 165 0
16 156 16
115 140 156
0 0 0
33 41 99
16 156 16
115 140 156
0 0 0
0 0 0
0 0 0
0 0 0
0 0 0
0 0 24
0 0 0
0 0 0
0 0 0
206 156 99
16 156 8
115 140 156
0 0 0
247 189 165
0 41 0
0 0 0
0 0 0
247 165 33
0 41 0
0 0 0
0 0 0
140 41 0
0 8 57
0 0 0
0 0 0
0 16 0
0 0 0
0 156 255
0 0 0
0 0 0
57 247 0
0 0 0
57 247 0
0 0 0
57 247 0
0 0 0
0 0 0
57 148 206
189 239 123
0 8 41
57 222 8
107 66 123
189 214 115
0 0 8
0 0 0
33 49 198
16 156 16
115 140 156
0 0 0
33 41 99
16 156 16
115 140 156
0 0 0
74 140 66
16 156 16
115 140 156
0 0 0
0 0 0
0 0 0
0 0 0
0 0 0
0 0 24
0 0 0
0 0 0
0 0 0
206 156 99
16 156 8
115 140 156
0 0 0
247 206 99
0 41 0
0 0 0
0 0 0
247 173 231
0 41 0
0 0 0
0 0 0
140 41 0
0 8 57
0 0 0
0 0 0
0 16 0
0 0 0
0 156 255
0 0 0
0 0 0
57 247 0
0 0 0
57 247 0
0 0 0
57 247 0
0 0 0
0 0 0
255 0 41
57 99 189
82 173 156
57 239 8
123 8 82
57 231 148
0 0 8
0 0 0
0 74 165
16 156 16
115 140 156
0 0 0
16 24 99
16 156 16
115 140 156
0 0 0
74 115 132
16 156 16
115 140 156
0 0 0
0 0 0
0 0 0
0 0 0
0 0 0
0 0 24
0 0 0
0 0 0
0 0 0
206 156 99
16 156 8
115 140 156
0 0 0
247 222 33
0 41 0
0 0 0
0 0 0
247 189 165
0 41 0
0 0 0
0 0 0
140 41 0
0 8 57
0 0 0
0 0 0
0 16 0
0 0 0
0 165 0
0 0 0
0 0 0
57 247 0
0 0 0
57 247 0
0 0 0
57 247 0
0 0 0
0 0 0
140 198 8
189 148 8
198 214 206
57 239 239
33 206 123
189 206 49
0 0 8
0 0 0
74 173 99
16 156 16
115 140 156
0 0 0
16 24 99
16 156 16
115 140 156
0 0 0
16 57 132
16 156 16
115 140 156
0 0 0
0 0 0
0 0 0
0 0 0
0 0 0
0 0 24
0 0 0
0 0 0
0 0 0
206 156 99
16 156 8
115 140 156
0 0 0
247 231 231
0 41 0
0 0 0
0 0 0
247 206 99
0 41 0
0 0 0
0 0 0
140 41 0
0 8 57
0 0 0
0 0 0
0 16 0
0 0 0
0 165 0
0 0 0
0 0 0
57 247 0
0 0 0
57 247 0
0 0 0
57 247 0
0 0 0
0 0 0
255 165 156
189 198 123
239 8 16
57 231 239
66 33 99
189 231 165
0 0 8
0 0 0
74 181 198
16 156 16
115 140 156
0 0 0
74 173 99
16 156 16
115 140 156
0 0 0
16 33 198
16 156 16
115 140 156
0 0 0
0 0 0
0 0 0
0 0 0
0 0 0
0 0 24
0 0 0
0 0 0
0 0 0
206 156 99
16 156 8
115 140 156
0 0 0
247 247 165
0 41 0
0 0 0
0 0 0
247 222 33
0 41 0
0 0 0
0 0 0
140 41 0
0 8 57
0 0 0
0 0 0
0 16 0
0 0 0
0 165 8
0 0 0
0 0 0
57 247 0
0 0 0
57 247 0
0 0 0
57 247 0
0 0 0
0 0 0
107 156 189
189 231 99
181 156 99
57 239 41
74 57 8
189 198 41
0 0 8
0 0 0
74 173 99
16 156 16
115 140 156
0 0 0
74 181 198
16 156 16
115 140 156
0 0 0
74 148 165
16 156 16
115 140 156
0 0 0
0 0 0
0 0 0
0 0 0
0 0 0
0 0 24
0 0 0
0 0 0
0 0 0
206 156 99
16 156 8
115 140 156
0 0 0
255 0 99
0 41 0
0 0 0
0 0 0
247 231 231
0 41 0
0 0 0
0 0 0
140 41 0
0 8 57
0 0 0
0 0 0
0 16 0
0 0 0
0 165 8
0 0 0
0 0 0
57 247 0
0 0 0
57 247 0
0 0 0
57 247 0
0 0 0
0 0 0
0 239 90
189 198 206
115 99 189
57 231 156
115 148 222
189 231 247
0 0 8
0 0 0
74 198 33
16 156 16
115 140 156
0 0 0
74 181 198
16 156 16
115 140 156
0 0 0
16 49 33
16 156 16
115 140 156
0 0 0
0 0 0
0 0 0
0 0 0
0 0 0
0 0 24
0 0 0
0 0 0
0 0 0
206 156 99
16 156 8
115 140 156
0 0 0
255 16 33
0 41 0
0 0 0
0 0 0
247 247 165
0 41 0
0 0 0
0 0 0
140 41 0
0 8 57
0 0 0
0 0 0
0 16 0
0 0 0
0 165 16
0 0 0
0 0 0
57 247 0
0 0 0
57 247 0
0 0 0
57 247 0
0 0 0
0 0 0
247 82 99
189 239 41
198 181 99
189 198 74
66 41 33
57 231 90
0 0 8
0 0 0
33 41 99
16 156 16
115 140 156
0 0 0
33 123 0
16 156 16
115 140 156
0 0 0
33 140 198
16 156 16
115 140 156
0 0 0
0 0 0
0 0 0
0 0 0
0 0 0
0 0 24
0 0 0
0 0 0
0 0 0
206 156 99
16 156 8
115 140 156
0 0 0
255 24 231
0 41 0
0 0 0
0 0 0
255 0 99
0 41 0
0 0 0
0 0 0
140 41 0
0 8 57
0 0 0
0 0 0
0 16 0
0 0 0
0 165 16
0 0 0
0 0 0
57 247 0
0 0 0
57 247 0
0 0 0
57 247 0
0 0 0
0 0 0
16 247 181
57 214 148
0 189 82
189 239 173
247 140 222
57 206 189
0 0 8
0 0 0
90 33 33
16 156 16
115 140 156
0 0 0
90 41 132
16 156 16
115 140 156
0 0 0
66 99 33
16 156 16
115 140 156
0 0 0
0 0 0
0 0 0
0 0 0
0 0 0
0 0 24
0 0 0
0 0 0
0 0 0
206 156 99
16 156 8
115 140 156
0 0 0
255 41 165
0 41 0
0 0 0
0 0 0
255 16 33
0 41 0
0 0 0
0 0 0
140 41 0
0 8 57
0 0 0
0 0 0
0 16 0
0 0 0
0 165 24
0 0 0
0 0 0
57 247 0
0 0 0
57 247 0
0 0 0
57 247 0
0 0 0
0 0 0
123 231 57
189 231 41
107 8 107
57 239 66
165 140 222
189 206 49
0 0 8
0 0 0
33 107 165
16 156 16
115 140 156
0 0 0
90 41 132
16 156 16
115 140 156
0 0 0
49 239 99
16 156 16
115 140 156
0 0 0
0 0 0
0 0 0
0 0 0
0 0 0
0 0 24
0 0 0
0 0 0
0 0 0
206 156 99
16 156 8
115 140 156
0 0 0
255 57 99
0 41 0
0 0 0
0 0 0
255 24 231
0 41 0
0 0 0
0 0 0
140 41 0
0 8 57
0 0 0
0 0 0
0 16 0
0 0 0
0 165 24
0 0 0
0 0 0
57 247 0
0 0 0
57 247 0
0 0 0
57 247 0
0 0 0
0 0 0
57 123 198
57 206 0
0 8 247
189 239 231
247 247 247
57 198 41
0 0 8
0 0 0
66 66 0
16 156 16
115 140 156
0 0 0
90 33 33
16 156 16
115 140 156
0 0 0
66 99 33
16 156 16
115 140 156
0 0 0
0 0 0
0 0 0
0 0 0
0 0 0
0 0 24
0 0 0
0 0 0
0 0 0
206 156 99
16 156 8
115 140 156
0 0 0
255 74 33
0 41 0
0 0 0
0 0 0
255 41 165
0 41 0
0 0 0
0 0 0
140 41 0
0 8 57
0 0 0
0 0 0
0 16 0
0 0 0
0 165 33
0 0 0
0 0 0
57 247 0
0 0 0
57 247 0
0 0 0
57 247 0
0 0 0
0 0 0
181 181 247
189 165 115
41 173 132
57 239 198
140 206 173
189 214 173
0 0 8
0 0 0
66 173 198
16 156 16
115 140 156
0 0 0
33 173 231
16 156 16
115 140 156
0 0 0
33 165 132
16 156 16
115 140 156
0 0 0
0 0 0
0 0 0
0 0 0
0 0 0
0 0 24
0 0 0
0 0 0
0 0 0
206 156 99
16 156 8
115 140 156
0 0 0
255 82 231
0 41 0
0 0 0
0 0 0
255 57 99
0 41 0
0 0 0
0 0 0
140 41 0
0 8 57
0 0 0
0 0 0
0 16 0
0 0 0
0 165 33
0 0 0
0 0 0
57 247 0
0 0 0
57 247 0
0 0 0
57 247 0
0 0 0
0 0 0
181 189 90
189 198 214
173 173 189
57 231 189
148 156 181
189 231 214
0 0 8
0 0 0
74 198 33
16 156 16
115 140 156
0 0 0
16 49 33
16 156 16
115 140 156
0 0 0
33 165 132
16 156 16
115 140 156
0 0 0
0 0 0
0 0 0
0 0 0
0 0 0
0 0 24
0 0 0
0 0 0
0 0 0
206 156 99
16 156 8
115 140 156
0 0 0
255 99 165
0 41 0
0 0 0
0 0 0
255 74 33
0 41 0
0 0 0
0 0 0
140 41 0
0 8 57
0 0 0
0 0 0
0 16 0
0 0 0
0 165 41
0 0 0
0 0 0
57 247 0
0 0 0
57 247 0
0 0 0
57 247 0
0 0 0
0 0 0
140 148 189
189 231 214
49 115 247
57 189 82
132 173 8
57 231 206
0 0 8
0 0 0
74 90 198
16 156 16
115 140 156
0 0 0
33 140 198
16 156 16
115 140 156
0 0 0
74 82 99
16 156 16
115 140 156
0 0 0
0 0 0
0 0 0
0 0 0
0 0 0
0 0 24
0 0 0
0 0 0
0 0 0
206 156 99
16 156 8
115 140 156
0 0 0
255 115 99
0 41 0
0 0 0
0 0 0
255 82 231
0 41 0
0 0 0
0 0 0
140 41 0
0 8 57
0 0 0
0 0 0
0 16 0
0 0 0
0 165 41
0 0 0
0 0 0
57 247 0
0 0 0
57 247 0
0 0 0
57 247 0
0 0 0
0 0 0
33 123 33
189 214 239
107 57 41
57 239 156
140 107 66
57 206 156
0 0 8
0 0 0
90 33 33
16 156 16
115 140 156
0 0 0
66 66 0
16 156 16
115 140 156
0 0 0
49 247 198
16 156 16
115 140 156
0 0 0
0 0 0
0 0 0
0 0 0
0 0 0
0 0 24
0 0 0
0 0 0
0 0 0
206 156 99
16 156 8
115 140 156
0 0 0
255 132 33
0 41 0
0 0 0
0 0 0
255 99 165
0 41 0
0 0 0
0 0 0
140 41 0
0 8 57
0 0 0
0 0 0
0 16 0
0 0 0
0 165 49
0 0 0
0 0 0
57 247 0
0 0 0
57 247 0
0 0 0
57 247 0
0 0 0
0 0 0
41 74 156
189 231 90
239 132 189
57 214 74
24 66 123
189 239 0
0 0 8
0 0 0
8 107 99
16 156 16
115 140 156
0 0 0
41 198 66
16 156 16
115 140 156
0 0 0
41 181 231
16 156 16
115 140 156
0 0 0
0 0 0
0 0 0
0 0 0
0 0 0
0 0 24
0 0 0
0 0 0
0 0 0
206 156 99
16 156 8
115 140 156
0 0 0
255 140 231
0 41 0
0 0 0
0 0 0
255 115 99
0 41 0
0 0 0
0 0 0
140 41 0
0 8 57
0 0 0
0 0 0
0 16 0
0 0 0
0 165 49
0 0 0
0 0 0
57 247 0
0 0 0
57 247 0
0 0 0
57 247 0
0 0 0
0 0 0
156 90 231
189 222 82
148 33 148
57 239 165
222 82 99
57 156 57
0 0 8
0 0 0
16 24 99
16 156 16
115 140 156
0 0 0
74 173 99
16 156 16
115 140 156
0 0 0
74 148 165
16 156 16
115 140 156
0 0 0
0 0 0
0 0 0
0 0 0
0 0 0
0 0 24
0 0 0
0 0 0
0 0 0
206 156 99
16 156 8
115 140 156
0 0 0
255 156 165
0 41 0
0 0 0
0 0 0
255 132 33
0 41 0
0 0 0
0 0 0
140 41 0
0 8 57
0 0 0
0 0 0
0 16 0
0 0 0
0 165 57
0 0 0
0 0 0
57 247 0
0 0 0
57 247 0
0 0 0
57 247 0
0 0 0
0 0 0
181 165 49
189 231 82
206 82 33
57 231 231
123 115 206
189 214 247
0 0 8
0 0 0
90 198 198
16 156 16
115 140 156
0 0 0
74 165 0
16 156 16
115 140 156
0 0 0
74 198 33
16 156 16
115 140 156
0 0 0
0 0 0
0 0 0
0 0 0
0 0 0
0 0 24
0 0 0
0 0 0
0 0 0
206 156 99
16 156 8
115 140 156
0 0 0
255 173 99
0 41 0
0 0 0
0 0 0
255 140 231
0 41 0
0 0 0
0 0 0
140 41 0
0 8 57
0 0 0
0 0 0
0 16 0
0 0 0
0 165 57
0 0 0
0 0 0
57 247 0
0 0 0
57 247 0
0 0 0
57 247 0
0 0 0
0 0 0
189 173 140
189 231 255
74 140 16
189 231 90
90 239 156
57 214 99
0 0 8
0 0 0
33 74 132
16 156 16
115 140 156
0 0 0
33 66 33
16 156 16
115 140 156
0 0 0
33 49 198
16 156 16
115 140 156
0 0 0
0 0 0
0 0 0
0 0 0
0 0 0
0 0 24
0 0 0
0 0 0
0 0 0
206 156 99
16 156 8
115 140 156
0 0 0
255 189 33
0 41 0
0 0 0
0 0 0
255 156 165
0 41 0
0 0 0
0 0 0
140 41 0
0 8 57
0 0 0
0 0 0
0 16 0
0 0 0
0 165 66
0 0 0
0 0 0
57 247 0
0 0 0
57 247 0
0 0 0
57 247 0
0 0 0
0 0 0
214 82 198
57 222 99
74 57 222
189 239 140
181 99 206
57 206 24
0 0 8
0 0 0
90 41 132
16 156 16
115 140 156
0 0 0
33 107 165
16 156 16
115 140 156
0 0 0
90 16 198
16 156 16
115 140 156
0 0 0
0 0 0
0 0 0
0 0 0
0 0 0
0 0 24
0 0 0
0 0 0
0 0 0
206 156 99
16 156 8
115 140 156
0 0 0
255 198 231
0 41 0
0 0 0
0 0 0
255 173 99
0 41 0
0 0 0
0 0 0
140 41 0
0 8 57
0 0 0
0 0 0
0 16 0
0 0 0
0 165 66
0 0 0
0 0 0
57 247 0
0 0 0
57 247 0
0 0 0
57 247 0
0 0 0
0 0 0
206 189 123
189 231 90
156 165 173
57 239 49
231 231 132
189 181 214
0 0 8
0 0 0
90 33 33
16 156 16
115 140 156
0 0 0
49 247 198
16 156 16
115 140 156
0 0 0
90 41 132
16 156 16
115 140 156
0 0 0
0 0 0
0 0 0
0 0 0
0 0 0
0 0 24
0 0 0
0 0 0
0 0 0
206 156 99
16 156 8
115 140 156
0 0 0
255 214 165
0 41 0
0 0 0
0 0 0
255 189 33
0 41 0
0 0 0
0 0 0
140 41 0
0 8 57
0 0 0
0 0 0
0 16 0
0 0 0
0 165 74
0 0 0
0 0 0
57 247 0
0 0 0
57 247 0
0 0 0
57 247 0
0 0 0
0 0 0
231 99 214
189 231 214
255 140 33
189 231 198
148 148 41
57 189 123
0 0 8
0 0 0
33 49 198
16 156 16
115 140 156
0 0 0
57 66 99
16 156 16
115 140 156
0 0 0
33 74 132
16 156 16
115 140 156
0 0 0
0 0 0
0 0 0
0 0 0
0 0 0
0 0 24
0 0 0
0 0 0
0 0 0
206 156 99
16 156 8
115 140 156
0 0 0
255 231 99
0 41 0
0 0 0
0 0 0
255 198 231
0 41 0
0 0 0
0 0 0
140 41 0
0 8 57
0 0 0
0 0 0
0 16 0
0 0 0
0 165 74
0 0 0
0 0 0
57 247 0
0 0 0
57 247 0
0 0 0
57 247 0
0 0 0
0 0 0
206 173 49
189 222 132
239 231 123
57 231 49
115 165 214
189 231 214
0 0 8
0 0 0
41 181 231
16 156 16
115 140 156
0 0 0
74 140 66
16 156 16
115 140 156
0 0 0
33 165 132
16 156 16
115 140 156
0 0 0
0 0 0
0 0 0
0 0 0
0 0 0
0 0 24
0 0 0
0 0 0
0 0 0
206 156 99
16 156 8
115 140 156
0 0 0
255 247 33
0 41 0
0 0 0
0 0 0
255 214 165
0 41 0
0 0 0
0 0 0
140 41 0
0 8 57
0 0 0
0 0 0
0 16 0
0 0 0
0 165 82
0 0 0
0 0 0
57 247 0
0 0 0
57 247 0
0 0 0
57 247 0
0 0 0
0 0 0
173 132 90
189 222 132
82 181 173
57 231 74
41 132 239
189 231 198
0 0 8
0 0 0
74 140 66
16 156 16
115 140 156
0 0 0
74 198 33
16 156 16
115 140 156
0 0 0
33 165 132
16 156 16
115 140 156
0 0 0
0 0 0
0 0 0
0 0 0
0 0 0
0 0 24
0 0 0
0 0 0
0 0 0
206 156 99
16 156 8
115 140 156
0 0 0
255 255 231
0 41 0
0 0 0
0 0 0
255 231 99
0 41 0
0 0 0
0 0 0
140 41 0
0 8 57
0 0 0
0 0 0
0 16 0
0 0 0
0 165 82
0 0 0
0 0 0
57 247 0
0 0 0
57 247 0
0 0 0
57 247 0
0 0 0
0 0 0
255 231 57
189 231 82
57 189 57
57 231 74
33 132 173
189 231 74
0 0 8
0 0 0
90 198 198
16 156 16
115 140 156
0 0 0
74 198 33
16 156 16
115 140 156
0 0 0
74 140 66
16 156 16
115 140 156
0 0 0
0 0 0
0 0 0
0 0 0
0 0 0
0 0 24
0 0 0
0 0 0
0 0 0
206 156 99
16 156 8
115 140 156
0 0 0
0 8 165
0 41 8
0 0 0
0 0 0
255 247 33
0 41 0
0 0 0
0 0 0
140 41 0
0 8 57
0 0 0
0 0 0
0 16 0
0 0 0
0 165 90
0 0 0
0 0 0
57 247 0
0 0 0
57 247 0
0 0 0
57 247 0
0 0 0
0 0 0
132 16 99
189 231 74
90 206 8
57 231 49
66 24 107
189 231 107
0 0 8
0 0 0
33 156 33
16 156 16
115 140 156
0 0 0
41 181 231
16 156 16
115 140 156
0 0 0
33 165 132
16 156 16
115 140 156
0 0 0
0 0 0
0 0 0
0 0 0
0 0 0
0 0 24
0 0 0
0 0 0
0 0 0
206 156 99
16 156 8
115 140 156
0 0 0
0 24 99
0 41 8
0 0 0
0 0 0
255 255 231
0 41 0
0 0 0
0 0 0
140 41 0
0 8 57
0 0 0
0 0 0
0 16 0
0 0 0
0 165 90
0 0 0
0 0 0
57 247 0
0 0 0
57 247 0
0 0 0
57 247 0
0 0 0
0 0 0
231 132 140
189 231 24
247 140 82
57 239 82
41 231 49
189 198 123
0 0 8
0 0 0
49 239 99
16 156 16
115 140 156
0 0 0
90 41 132
16 156 16
115 140 156
0 0 0
49 247 198
16 156 16
115 140 156
0 0 0
0 0 0
0 0 0
0 0 0
0 0 0
0 0 24
0 0 0
0 0 0
0 0 0
206 156 99
16 156 8
115 140 156
0 0 0
0 41 33
0 41 8
0 0 0
0 0 0
0 8 165
0 41 8
0 0 0
0 0 0
140 41 0
0 8 57
0 0 0
0 0 0
0 16 0
0 0 0
0 165 99
0 0 0
0 0 0
57 247 0
0 0 0
57 247 0
0 0 0
57 247 0
0 0 0
0 0 0
148 239 140
189 239 16
123 140 156
57 231 57
90 231 0
189 214 115
0 0 8
0 0 0
74 181 198
16 156 16
115 140 156
0 0 0
74 198 33
16 156 16
115 140 156
0 0 0
74 165 0
16 156 16
115 140 156
0 0 0
0 0 0
0 0 0
0 0 0
0 0 0
0 0 24
0 0 0
0 0 0
0 0 0
206 156 99
16 156 8
115 140 156
0 0 0
0 49 231
0 41 8
0 0 0
0 0 0
0 24 99
0 41 8
0 0 0
0 0 0
140 41 0
0 8 57
0 0 0
0 0 0
0 16 0
0 0 0
0 165 99
0 0 0
0 0 0
57 247 0
0 0 0
57 247 0
0 0 0
57 247 0
0 0 0
0 0 0
0 16 90
189 222 66
0 173 66
57 239 123
173 148 239
57 214 41
0 0 8
0 0 0
57 0 33
16 156 16
115 140 156
0 0 0
49 247 198
16 156 16
115 140 156
0 0 0
66 66 0
16 156 16
115 140 156
0 0 0
0 0 0
0 0 0
0 0 0
0 0 0
0 0 24
0 0 0
0 0 0
0 0 0
206 156 99
16 156 8
115 140 156
0 0 0
0 66 165
0 41 8
0 0 0
0 0 0
0 41 33
0 41 8
0 0 0
0 0 0
140 41 0
0 8 57
0 0 0
0 0 0
0 16 0
0 0 0
0 165 107
0 0 0
0 0 0
57 247 0
0 0 0
57 247 0
0 0 0
57 247 0
0 0 0
0 0 0
16 90 198
189 231 132
247 0 255
57 181 57
41 33 0
57 239 24
0 0 8
0 0 0
74 74 0
16 156 16
115 140 156
0 0 0
33 140 198
16 156 16
115 140 156
0 0 0
74 90 198
16 156 16
115 140 156
0 0 0
0 0 0
0 0 0
0 0 0
0 0 0
0 0 24
0 0 0
0 0 0
0 0 0
206 156 99
16 156 8
115 140 156
0 0 0
0 82 99
0 41 8
0 0 0
0 0 0
0 49 231
0 41 8
0 0 0
0 0 0
140 41 0
0 8 57
0 0 0
0 0 0
0 16 0
0 0 0
0 165 107
0 0 0
0 0 0
57 247 0
0 0 0
57 247 0
0 0 0
57 247 0
0 0 0
0 0 0
198 0 214
57 214 99
8 99 90
189 239 214
247 24 181
57 165 16
0 0 8
0 0 0
90 16 198
16 156 16
115 140 156
0 0 0
66 99 33
16 156 16
115 140 156
0 0 0
90 41 132
16 156 16
115 140 156
0 0 0
0 0 0
0 0 0
0 0 0
0 0 0
0 0 24
0 0 0
0 0 0
0 0 0
206 156 99
16 156 8
115 140 156
0 0 0
0 99 33
0 41 8
0 0 0
0 0 0
0 66 165
0 41 8
0 0 0
0 0 0
140 41 0
0 8 57
0 0 0
0 0 0
0 16 0
0 0 0
0 165 115
0 0 0
0 0 0
57 247 0
0 0 0
57 247 0
0 0 0
57 247 0
0 0 0
0 0 0
255 41 107
189 198 90
156 206 115
57 231 189
90 24 206
189 231 222
0 0 8
0 0 0
16 33 198
16 156 16
115 140 156
0 0 0
16 49 33
16 156 16
115 140 156
0 0 0
74 181 198
16 156 16
115 140 156
0 0 0
0 0 0
0 0 0
0 0 0
0 0 0
0 0 24
0 0 0
0 0 0
0 0 0
206 156 99
16 156 8
115 140 156
0 0 0
0 107 231
0 41 8
0 0 0
0 0 0
0 82 99
0 41 8
0 0 0
0 0 0
140 41 0
0 8 57
0 0 0
0 0 0
0 16 0
0 0 0
0 165 115
0 0 0
0 0 0
57 247 0
0 0 0
57 247 0
0 0 0
57 247 0
0 0 0
0 0 0
57 156 8
189 231 115
123 90 198
57 239 24
132 57 132
189 189 255
0 0 8
0 0 0
74 165 0
16 156 16
115 140 156
0 0 0
74 148 165
16 156 16
115 140 156
0 0 0
74 181 198
16 156 16
115 140 156
0 0 0
0 0 0
0 0 0
0 0 0
0 0 0
0 0 24
0 0 0
0 0 0
0 0 0
206 156 99
16 156 8
115 140 156
0 0 0
0 123 165
0 41 8
0 0 0
0 0 0
0 99 33
0 41 8
0 0 0
0 0 0
140 41 0
0 8 57
0 0 0
0 0 0
0 16 0
0 0 0
0 165 123
0 0 0
0 0 0
57 247 0
0 0 0
57 247 0
0 0 0
57 247 0
0 0 0
0 0 0
123 156 57
189 140 99
74 90 214
57 239 57
41 198 189
189 231 90
0 0 8
0 0 0
16 57 132
16 156 16
115 140 156
0 0 0
16 33 198
16 156 16
115 140 156
0 0 0
74 173 99
16 156 16
115 140 156
0 0 0
0 0 0
0 0 0
0 0 0
0 0 0
0 0 24
0 0 0
0 0 0
0 0 0
206 156 99
16 156 8
115 140 156
0 0 0
0 140 99
0 41 8
0 0 0
0 0 0
0 107 231
0 41 8
0 0 0
0 0 0
140 41 0
0 8 57
0 0 0
0 0 0
0 16 0
0 0 0
0 165 123
0 0 0
0 0 0
57 247 0
0 0 0
57 247 0
0 0 0
57 247 0
0 0 0
0 0 0
132 16 107
189 239 173
239 57 222
57 214 74
123 74 181
189 214 57
0 0 8
0 0 0
90 198 198
16 156 16
115 140 156
0 0 0
74 140 66
16 156 16
115 140 156
0 0 0
33 41 99
16 156 16
115 140 156
0 0 0
0 0 0
0 0 0
0 0 0
0 0 0
0 0 24
0 0 0
0 0 0
0 0 0
206 156 99
16 156 8
115 140 156
0 0 0
0 156 33
0 41 8
0 0 0
0 0 0
0 123 165
0 41 8
0 0 0
0 0 0
140 41 0
0 8 57
0 0 0
0 0 0
0 16 0
0 0 0
0 165 132
0 0 0
0 0 0
57 247 0
0 0 0
57 247 0
0 0 0
57 247 0
0 0 0
0 0 0
57 33 255
189 239 123
41 247 156
57 222 255
99 132 239
57 66 8
0 0 8
0 0 0
90 198 198
16 156 16
115 140 156
0 0 0
33 41 99
16 156 16
115 140 156
0 0 0
74 165 0
16 156 16
115 140 156
0 0 0
0 0 0
0 0 0
0 0 0
0 0 0
0 0 24
0 0 0
0 0 0
0 0 0
206 156 99
16 156 8
115 140 156
0 0 0
0 165 231
0 41 8
0 0 0
0 0 0
0 140 99
0 41 8
0 0 0
0 0 0
140 41 0
0 8 57
0 0 0
0 0 0
0 16 0
0 0 0
0 165 132
0 0 0
0 0 0
57 247 0
0 0 0
57 247 0
0 0 0
57 247 0
0 0 0
0 0 0
231 24 132
189 231 231
156 99 49
57 231 123
123 115 90
57 214 115
0 0 8
0 0 0
74 74 0
16 156 16
115 140 156
0 0 0
74 90 198
16 156 16
115 140 156
0 0 0
74 165 0
16 156 16
115 140 156
0 0 0
0 0 0
0 0 0
0 0 0
0 0 0
0 0 24
0 0 0
0 0 0
0 0 0
206 156 99
16 156 8
115 140 156
0 0 0
0 181 165
0 41 8
0 0 0
0 0 0
0 156 33
0 41 8
0 0 0
0 0 0
140 41 0
0 8 57
0 0 0
0 0 0
0 16 0
0 0 0
0 165 140
0 0 0
0 0 0
57 247 0
0 0 0
57 247 0
0 0 0
57 247 0
0 0 0
0 0 0
140 0 16
189 231 16
49 115 16
57 231 181
16 0 24
57 231 24
0 0 8
0 0 0
74 90 198
16 156 16
115 140 156
0 0 0
74 115 132
16 156 16
115 140 156
0 0 0
74 148 165
16 156 16
115 140 156
0 0 0
0 0 0
0 0 0
0 0 0
0 0 0
0 0 24
0 0 0
0 0 0
0 0 0
206 156 99
16 156 8
115 140 156
0 0 0
0 198 99
0 41 8
0 0 0
0 0 0
0 165 231
0 41 8
0 0 0
0 0 0
140 41 0
0 8 57
0 0 0
0 0 0
0 16 0
0 0 0
0 165 140
0 0 0
0 0 0
57 247 0
0 0 0
57 247 0
0 0 0
57 247 0
0 0 0
0 0 0
247 74 239
189 198 255
165 255 57
57 214 181
57 90 189
57 239 181
0 0 8
0 0 0
74 82 99
16 156 16
115 140 156
0 0 0
8 206 198
16 156 16
115 140 156
0 0 0
74 90 198
16 156 16
115 140 156
0 0 0
0 0 0
0 0 0
0 0 0
0 0 0
0 0 24
0 0 0
0 0 0
0 0 0
206 156 99
16 156 8
115 140 156
0 0 0
0 214 33
0 41 8
0 0 0
0 0 0
0 181 165
0 41 8
0 0 0
0 0 0
140 41 0
0 8 57
0 0 0
0 0 0
0 16 0
0 0 0
0 165 148
0 0 0
0 0 0
57 247 0
0 0 0
57 247 0
0 0 0
57 247 0
0 0 0
0 0 0
8 33 33
189 222 66
132 16 8
189 214 140
90 49 222
57 239 107
0 0 8
0 0 0
33 140 198
16 156 16
115 140 156
0 0 0
49 231 0
16 156 16
115 140 156
0 0 0
74 82 99
16 156 16
115 140 156
0 0 0
0 0 0
0 0 0
0 0 0
0 0 0
0 0 24
0 0 0
0 0 0
0 0 0
206 156 99
16 156 8
115 140 156
0 0 0
0 222 231
0 41 8
0 0 0
0 0 0
0 198 99
0 41 8
0 0 0
0 0 0
140 41 0
0 8 57
0 0 0
0 0 0
0 16 0
0 0 0
0 165 148
0 0 0
0 0 0
57 247 0
0 0 0
57 247 0
0 0 0
57 247 0
0 0 0
0 0 0
0 0 0
0 0 0
82 140 8
57 239 189
239 156 0
189 214 239
0 0 8
0 0 0
0 222 132
16 156 16
115 140 156
0 0 0
8 82 165
16 156 16
115 140 156
0 0 0
239 74 99
16 156 8
115 140 156
0 0 0
0 0 0
0 0 0
0 0 0
0 0 0
0 0 24
0 0 0
0 0 0
0 0 0
206 156 99
16 156 8
115 140 156
0 0 0
0 239 165
0 41 8
0 0 0
0 0 0
0 214 33
0 41 8
0 0 0
0 0 0
140 41 0
0 8 57
0 0 0
0 0 0
0 16 0
0 0 0
0 165 156
0 0 0
0 0 0
57 247 0
0 0 0
57 247 0
0 0 0
57 247 0
0 0 0
0 0 0
132 123 82
189 206 16
140 231 8
189 239 181
255 8 189
189 214 165
0 0 8
0 0 0
16 0 165
16 156 16
115 140 156
0 0 0
16 16 0
16 156 16
115 140 156
0 0 0
41 198 66
16 156 16
115 140 156
0 0 0
0 0 0
0 0 0
0 0 0
0 0 0
0 0 24
0 0 0
0 0 0
0 0 0
206 156 99
16 156 8
115 140 156
0 0 0
0 255 99
0 41 8
0 0 0
0 0 0
0 222 231
0 41 8
0 0 0
0 0 0
140 41 0
0 8 57
0 0 0
0 0 0
0 16 0
0 0 0
0 165 156
0 0 0
0 0 0
57 247 0
0 0 0
57 247 0
0 0 0
57 247 0
0 0 0
0 0 0
0 0 0
0 0 0
33 57 198
189 239 247
214 181 206
57 198 99
0 0 8
0 0 0
16 140 33
16 156 16
115 140 156
0 0 0
66 66 0
16 156 16
115 140 156
0 0 0
255 99 198
16 156 8
115 140 156
0 0 0
0 0 0
0 0 0
0 0 0
0 0 0
0 0 24
0 0 0
0 0 0
0 0 0
206 156 99
16 156 8
115 140 156
0 0 0
8 8 33
0 41 8
0 0 0
0 0 0
0 239 165
0 41 8
0 0 0
0 0 0
140 41 0
0 8 57
0 0 0
0 0 0
0 16 0
0 0 0
0 165 165
0 0 0
0 0 0
57 247 0
0 0 0
57 247 0
0 0 0
57 247 0
0 0 0
0 0 0
156 222 57
189 132 123
206 24 255
57 239 189
132 132 41
57 214 231
0 0 8
0 0 0
24 189 165
16 156 16
115 140 156
0 0 0
57 0 33
16 156 16
115 140 156
0 0 0
16 140 33
16 156 16
115 140 156
0 0 0
0 0 0
0 0 0
0 0 0
0 0 0
0 0 24
0 0 0
0 0 0
0 0 0
206 156 99
16 156 8
115 140 156
0 0 0
8 16 231
0 41 8
0 0 0
0 0 0
0 255 99
0 41 8
0 0 0
0 0 0
140 41 0
0 8 57
0 0 0
0 0 0
0 16 0
0 0 0
0 165 165
0 0 0
0 0 0
57 247 0
0 0 0
57 247 0
0 0 0
57 247 0
0 0 0
0 0 0
57 0 247
189 198 0
41 173 123
57 239 247
0 57 222
57 189 206
0 0 8
0 0 0
90 247 66
16 156 16
115 140 156
0 0 0
8 222 33
16 156 16
115 140 156
0 0 0
24 189 165
16 156 16
115 140 156
0 0 0
0 0 0
0 0 0
0 0 0
0 0 0
0 0 24
0 0 0
0 0 0
0 0 0
206 156 99
16 156 8
115 140 156
0 0 0
8 33 165
0 41 8
0 0 0
0 0 0
8 8 33
0 41 8
0 0 0
0 0 0
140 41 0
0 8 57
0 0 0
0 0 0
0 16 0
0 0 0
0 165 173
0 0 0
0 0 0
57 247 0
0 0 0
57 247 0
0 0 0
57 247 0
0 0 0
0 0 0
140 148 74
189 189 173
156 107 57
57 239 247
115 214 198
57 189 173
0 0 8
0 0 0
90 247 66
16 156 16
115 140 156
0 0 0
24 189 165
16 156 16
115 140 156
0 0 0
90 231 231
16 156 16
115 140 156
0 0 0
0 0 0
0 0 0
0 0 0
0 0 0
0 0 24
0 0 0
0 0 0
0 0 0
206 156 99
16 156 8
115 140 156
0 0 0
8 49 99
0 41 8
0 0 0
0 0 0
8 16 231
0 41 8
0 0 0
0 0 0
140 41 0
0 8 57
0 0 0
0 0 0
0 16 0
0 0 0
0 165 173
0 0 0
0 0 0
57 247 0
0 0 0
57 247 0
0 0 0
57 247 0
0 0 0
0 0 0
165 0 90
189 231 57
231 247 41
57 239 74
90 66 206
189 181 33
0 0 8
0 0 0
49 231 0
16 156 16
115 140 156
0 0 0
49 239 99
16 156 16
115 140 156
0 0 0
8 222 33
16 156 16
115 140 156
0 0 0
0 0 0
0 0 0
0 0 0
0 0 0
0 0 24
0 0 0
0 0 0
0 0 0
206 156 99
16 156 8
115 140 156
0 0 0
8 66 33
0 41 8
0 0 0
0 0 0
8 33 165
0 41 8
0 0 0
0 0 0
140 41 0
0 8 57
0 0 0
0 0 0
0 16 0
0 0 0
0 165 181
0 0 0
0 0 0
57 247 0
0 0 0
57 247 0
0 0 0
57 247 0
0 0 0
0 0 0
8 24 231
189 156 82
24 123 33
57 239 165
148 33 231
189 222 90
0 0 8
0 0 0
8 82 165
16 156 16
115 140 156
0 0 0
8 99 0
16 156 16
115 140 156
0 0 0
33 173 231
16 156 16
115 140 156
0 0 0
0 0 0
0 0 0
0 0 0
0 0 0
0 0 24
0 0 0
0 0 0
0 0 0
206 156 99
16 156 8
115 140 156
0 0 0
8 74 231
0 41 8
0 0 0
0 0 0
8 49 99
0 41 8
0 0 0
0 0 0
140 41 0
0 8 57
0 0 0
0 0 0
0 16 0
0 0 0
0 165 181
0 0 0
0 0 0
57 247 0
0 0 0
57 247 0
0 0 0
57 247 0
0 0 0
0 0 0
173 206 0
189 231 206
173 0 90
189 214 206
16 247 239
57 231 132
0 0 8
0 0 0
33 66 33
16 156 16
115 140 156
0 0 0
33 132 99
16 156 16
115 140 156
0 0 0
33 123 0
16 156 16
115 140 156
0 0 0
0 0 0
0 0 0
0 0 0
0 0 0
0 0 24
0 0 0
0 0 0
0 0 0
206 156 99
16 156 8
115 140 156
0 0 0
8 90 165
0 41 8
0 0 0
0 0 0
8 66 33
0 41 8
0 0 0
0 0 0
140 41 0
0 8 57
0 0 0
0 0 0
0 16 0
0 0 0
0 165 189
0 0 0
0 0 0
57 247 0
0 0 0
57 247 0
0 0 0
57 247 0
0 0 0
0 0 0
181 231 123
189 239 66
189 148 8
189 206 123
99 33 231
57 231 33
0 0 8
0 0 0
33 123 0
16 156 16
115 140 156
0 0 0
33 41 99
16 156 16
115 140 156
0 0 0
33 66 33
16 156 16
115 140 156
0 0 0
0 0 0
0 0 0
0 0 0
0 0 0
0 0 24
0 0 0
0 0 0
0 0 0
206 156 99
16 156 8
115 140 156
0 0 0
8 107 99
0 41 8
0 0 0
0 0 0
8 74 231
0 41 8
0 0 0
0 0 0
140 41 0
0 8 57
0 0 0
0 0 0
0 16 0
0 0 0
0 165 189
0 0 0
0 0 0
57 247 0
0 0 0
57 247 0
0 0 0
57 247 0
0 0 0
0 0 0
181 231 123
57 239 66
189 148 8
189 206 123
99 33 231
57 231 33
0 0 8
0 0 0
0 33 33
16 156 16
115 140 156
0 0 0
231 90 33
16 156 8
115 140 156
0 0 0
0 16 198
16 156 16
115 140 156
0 0 0
0 0 0
0 0 0
0 0 0
0 0 0
0 0 24
0 0 0
0 0 0
0 0 0
206 156 99
16 156 8
115 140 156
0 0 0
8 123 33
0 41 8
0 0 0
0 0 0
8 90 165
0 41 8
0 0 0
0 0 0
140 41 0
0 8 57
0 0 0
0 0 0
0 16 0
0 0 0
0 165 198
0 0 0
0 0 0
57 247 0
0 0 0
57 247 0
0 0 0
57 247 0
0 0 0
0 0 0
173 206 0
57 231 206
173 0 90
189 214 206
16 247 239
57 231 132
0 0 8
0 0 0
231 90 33
16 156 8
115 140 156
0 0 0
0 33 33
16 156 16
115 140 156
0 0 0
255 247 165
16 156 8
115 140 156
0 0 0
0 0 0
0 0 0
0 0 0
0 0 0
0 0 24
0 0 0
0 0 0
0 0 0
206 156 99
16 156 8
115 140 156
0 0 0
8 132 231
0 41 8
0 0 0
0 0 0
8 107 99
0 41 8
0 0 0
0 0 0
140 41 0
0 8 57
0 0 0
0 0 0
0 16 0
0 0 0
0 165 198
0 0 0
0 0 0
57 247 0
0 0 0
57 247 0
0 0 0
57 247 0
0 0 0
0 0 0
8 24 231
57 156 82
24 123 33
57 239 165
148 33 231
189 222 90
0 0 8
0 0 0
0 222 132
16 156 16
115 140 156
0 0 0
239 82 198
16 156 8
115 140 156
0 0 0
8 74 66
16 156 16
115 140 156
0 0 0
0 0 0
0 0 0
0 0 0
0 0 0
0 0 24
0 0 0
0 0 0
0 0 0
206 156 99
16 156 8
115 140 156
0 0 0
8 148 165
0 41 8
0 0 0
0 0 0
8 123 33
0 41 8
0 0 0
0 0 0
140 41 0
0 8 57
0 0 0
0 0 0
0 16 0
0 0 0
0 165 206
0 0 0
0 0 0
57 247 0
0 0 0
57 247 0
0 0 0
57 247 0
0 0 0
0 0 0
165 0 90
57 231 57
231 247 41
57 239 74
90 66 206
189 181 33
0 0 8
0 0 0
0 165 165
16 156 16
115 140 156
0 0 0
0 132 132
16 156 16
115 140 156
0 0 0
255 8 198
16 156 8
115 140 156
0 0 0
0 0 0
0 0 0
0 0 0
0 0 0
0 0 24
0 0 0
0 0 0
0 0 0
206 156 99
16 156 8
115 140 156
0 0 0
8 165 99
0 41 8
0 0 0
0 0 0
8 132 231
0 41 8
0 0 0
0 0 0
140 41 0
0 8 57
0 0 0
0 0 0
0 16 0
0 0 0
0 165 206
0 0 0
0 0 0
57 247 0
0 0 0
57 247 0
0 0 0
57 247 0
0 0 0
0 0 0
57 0 247
57 198 0
41 173 123
57 239 247
0 57 222
57 189 206
0 0 8
0 0 0
24 189 165
16 156 16
115 140 156
0 0 0
0 132 132
16 156 16
115 140 156
0 0 0
90 255 165
16 156 16
115 140 156
0 0 0
0 0 0
0 0 0
0 0 0
0 0 0
0 0 24
0 0 0
0 0 0
0 0 0
206 156 99
16 156 8
115 140 156
0 0 0
8 181 33
0 41 8
0 0 0
0 0 0
8 148 165
0 41 8
0 0 0
0 0 0
140 41 0
0 8 57
0 0 0
0 0 0
0 16 0
0 0 0
0 165 214
0 0 0
0 0 0
57 247 0
0 0 0
57 247 0
0 0 0
57 247 0
0 0 0
0 0 0
140 148 74
57 189 173
156 107 57
57 239 247
115 214 198
57 189 173
0 0 8
0 0 0
24 189 165
16 156 16
115 140 156
0 0 0
90 255 165
16 156 16
115 140 156
0 0 0
90 231 231
16 156 16
115 140 156
0 0 0
0 0 0
0 0 0
0 0 0
0 0 0
0 0 24
0 0 0
0 0 0
0 0 0
206 156 99
16 156 8
115 140 156
0 0 0
8 189 231
0 41 8
0 0 0
0 0 0
8 165 99
0 41 8
0 0 0
0 0 0
140 41 0
0 8 57
0 0 0
0 0 0
0 16 0
0 0 0
0 165 214
0 0 0
0 0 0
57 247 0
0 0 0
57 247 0
0 0 0
57 247 0
0 0 0
0 0 0
156 222 57
57 132 123
206 24 255
57 239 189
132 132 41
57 214 231
0 0 8
0 0 0
24 189 165
16 156 16
115 140 156
0 0 0
16 140 33
16 156 16
115 140 156
0 0 0
16 123 198
16 156 16
115 140 156
0 0 0
0 0 0
0 0 0
0 0 0
0 0 0
0 0 24
0 0 0
0 0 0
0 0 0
206 156 99
16 156 8
115 140 156
0 0 0
8 206 165
0 41 8
0 0 0
0 0 0
8 181 33
0 41 8
0 0 0
0 0 0
140 41 0
0 8 57
0 0 0
0 0 0
0 16 0
0 0 0
0 165 222
0 0 0
0 0 0
57 247 0
0 0 0
57 247 0
0 0 0
57 247 0
0 0 0
0 0 0
0 0 0
0 0 0
33 57 198
189 239 247
214 181 206
57 198 99
0 0 8
0 0 0
16 140 33
16 156 16
115 140 156
0 0 0
255 99 198
16 156 8
115 140 156
0 0 0
239 16 132
16 156 8
115 140 156
0 0 0
0 0 0
0 0 0
0 0 0
0 0 0
0 0 24
0 0 0
0 0 0
0 0 0
206 156 99
16 156 8
115 140 156
0 0 0
8 222 99
0 41 8
0 0 0
0 0 0
8 189 231
0 41 8
0 0 0
0 0 0
140 41 0
0 8 57
0 0 0
0 0 0
0 16 0
0 0 0
0 165 222
0 0 0
0 0 0
57 247 0
0 0 0
57 247 0
0 0 0
57 247 0
0 0 0
0 0 0
0 0 0
0 0 0
57 16 231
57 231 41
214 173 74
189 239 90
0 0 8
0 0 0
66 173 198
16 156 16
115 140 156
0 0 0
16 49 33
16 156 16
115 140 156
0 0 0
239 74 99
16 156 8
115 140 156
0 0 0
0 0 0
0 0 0
0 0 0
0 0 0
0 0 24
0 0 0
0 0 0
0 0 0
206 156 99
16 156 8
115 140 156
0 0 0
8 239 33
0 41 8
0 0 0
0 0 0
8 206 165
0 41 8
0 0 0
0 0 0
140 41 0
0 8 57
0 0 0
0 0 0
0 16 0
0 0 0
0 165 231
0 0 0
0 0 0
57 247 0
0 0 0
57 247 0
0 0 0
57 247 0
0 0 0
0 0 0
0 0 0
0 0 0
165 222 8
57 239 57
24 49 90
189 231 90
0 0 8
0 0 0
0 66 66
16 156 16
115 140 156
0 0 0
0 49 231
16 156 16
115 140 156
0 0 0
16 57 132
16 156 16
115 140 156
0 0 0
0 0 0
0 0 0
0 0 0
0 0 0
0 0 24
0 0 0
0 0 0
0 0 0
206 156 99
16 156 8
115 140 156
0 0 0
8 247 231
0 41 8
0 0 0
0 0 0
8 222 99
0 41 8
0 0 0
0 0 0
140 41 0
0 8 57
0 0 0
0 0 0
0 16 0
0 0 0
0 165 231
0 0 0
0 0 0
57 247 0
0 0 0
57 247 0
0 0 0
57 247 0
0 0 0
0 0 0
0 0 0
0 0 0
173 140 165
57 231 189
33 206 198
189 231 239
0 0 8
0 0 0
0 49 231
16 156 16
115 140 156
0 0 0
239 66 0
16 156 8
115 140 156
0 0 0
16 33 198
16 156 16
115 140 156
0 0 0
0 0 0
0 0 0
0 0 0
0 0 0
0 0 24
0 0 0
0 0 0
0 0 0
206 156 99
16 156 8
115 140 156
0 0 0
16 0 165
0 41 8
0 0 0
0 0 0
8 239 33
0 41 8
0 0 0
0 0 0
140 41 0
0 8 57
0 0 0
0 0 0
0 16 0
0 0 0
0 165 239
0 0 0
0 0 0
57 247 0
0 0 0
57 247 0
0 0 0
57 247 0
0 0 0
0 0 0
0 0 0
0 0 0
41 247 57
57 239 239
165 247 16
189 206 16
0 0 8
0 0 0
16 57 132
16 156 16
115 140 156
0 0 0
16 24 99
16 156 16
115 140 156
0 0 0
0 66 66
16 156 16
115 140 156
0 0 0
0 0 0
0 0 0
0 0 0
0 0 0
0 0 24
0 0 0
0 0 0
0 0 0
206 156 99
16 156 8
115 140 156
0 0 0
16 16 99
0 41 8
0 0 0
0 0 0
8 247 231
0 41 8
0 0 0
0 0 0
140 41 0
0 8 57
0 0 0
0 0 0
0 16 0
0 0 0
0 165 239
0 0 0
0 0 0
57 247 0
0 0 0
57 247 0
0 0 0
57 247 0
0 0 0
0 0 0
132 123 82
57 206 16
140 231 8
189 239 181
255 8 189
189 214 165
0 0 8
0 0 0
16 0 165
16 156 16
115 140 156
0 0 0
231 255 198
16 156 8
115 140 156
0 0 0
16 16 0
16 156 16
115 140 156
0 0 0
0 0 0
0 0 0
0 0 0
0 0 0
0 0 24
0 0 0
0 0 0
0 0 0
206 156 99
16 156 8
115 140 156
0 0 0
16 33 33
0 41 8
0 0 0
0 0 0
16 0 165
0 41 8
0 0 0
0 0 0
140 41 0
0 8 57
0 0 0
0 0 0
0 16 0
0 0 0
0 165 247
0 0 0
0 0 0
57 247 0
0 0 0
57 247 0
0 0 0
57 247 0
0 0 0
0 0 0
0 0 0
0 0 0
8 0 74
57 181 57
99 66 222
189 239 255
0 0 8
0 0 0
8 107 99
16 156 16
115 140 156
0 0 0
231 247 99
16 156 8
115 140 156
0 0 0
16 0 165
16 156 16
115 140 156
0 0 0
0 0 0
0 0 0
0 0 0
0 0 0
0 0 24
0 0 0
0 0 0
0 0 0
206 156 99
16 156 8
115 140 156
0 0 0
16 41 231
0 41 8
0 0 0
0 0 0
16 16 99
0 41 8
0 0 0
0 0 0
140 41 0
0 8 57
0 0 0
0 0 0
0 16 0
0 0 0
0 165 247
0 0 0
0 0 0
57 247 0
0 0 0
57 247 0
0 0 0
57 247 0
0 0 0
0 0 0
0 16 115
189 198 49
107 156 247
189 140 82
148 90 231
189 239 247
0 0 8
0 0 0
41 198 66
16 156 16
115 140 156
0 0 0
8 107 99
16 156 16
115 140 156
0 0 0
16 0 165
16 156 16
115 140 156
0 0 0
0 0 0
0 0 0
0 0 0
0 0 0
0 0 24
0 0 0
0 0 0
0 0 0
206 156 99
16 156 8
115 140 156
0 0 0
16 57 165
0 41 8
0 0 0
0 0 0
16 33 33
0 41 8
0 0 0
0 0 0
140 41 0
0 8 57
0 0 0
0 0 0
0 16 0
0 0 0
0 165 255
0 0 0
0 0 0
57 247 0
0 0 0
57 247 0
0 0 0
57 247 0
0 0 0
0 0 0
0 0 0
0 0 0
82 57 107
57 231 206
181 132 0
189 231 222
0 0 8
0 0 0
8 74 66
16 156 16
115 140 156
0 0 0
231 247 99
16 156 8
115 140 156
0 0 0
8 99 0
16 156 16
115 140 156
0 0 0
0 0 0
0 0 0
0 0 0
0 0 0
0 0 24
0 0 0
0 0 0
0 0 0
206 156 99
16 156 8
115 140 156
0 0 0
16 74 99
0 41 8
0 0 0
0 0 0
16 41 231
0 41 8
0 0 0
0 0 0
140 41 0
0 8 57
0 0 0
0 0 0
0 16 0
0 0 0
0 165 255
0 0 0
0 0 0
57 247 0
0 0 0
57 247 0
0 0 0
57 247 0
0 0 0
0 0 0
8 33 33
57 222 66
132 16 8
189 214 140
90 49 222
57 239 107
0 0 8
0 0 0
239 49 165
16 156 8
115 140 156
0 0 0
239 41 66
16 156 8
115 140 156
0 0 0
0 165 165
16 156 16
115 140 156
0 0 0
0 0 0
0 0 0
0 0 0
0 0 0
0 0 24
0 0 0
0 0 0
0 0 0
206 156 99
16 156 8
115 140 156
0 0 0
16 90 33
0 41 8
0 0 0
0 0 0
16 57 165
0 41 8
0 0 0
0 0 0
140 41 0
0 8 57
0 0 0
0 0 0
0 16 0
0 0 0
0 173 0
0 0 0
0 0 0
57 247 0
0 0 0
57 247 0
0 0 0
57 247 0
0 0 0
0 0 0
247 74 239
57 198 255
165 255 57
57 214 181
57 90 189
57 239 181
0 0 8
0 0 0
239 41 66
16 156 8
115 140 156
0 0 0
239 24 231
16 156 8
115 140 156
0 0 0
0 123 33
16 156 16
115 140 156
0 0 0
0 0 0
0 0 0
0 0 0
0 0 0
0 0 24
0 0 0
0 0 0
0 0 0
206 156 99
16 156 8
115 140 156
0 0 0
16 99 231
0 41 8
0 0 0
0 0 0
16 74 99
0 41 8
0 0 0
0 0 0
140 41 0
0 8 57
0 0 0
0 0 0
0 16 0
0 0 0
0 173 0
0 0 0
0 0 0
57 247 0
0 0 0
57 247 0
0 0 0
57 247 0
0 0 0
0 0 0
140 0 16
57 231 16
49 115 16
57 231 181
16 0 24
57 231 24
0 0 8
0 0 0
239 24 231
16 156 8
115 140 156
0 0 0
231 222 165
16 156 8
115 140 156
0 0 0
0 90 0
16 156 16
115 140 156
0 0 0
0 0 0
0 0 0
0 0 0
0 0 0
0 0 24
0 0 0
0 0 0
0 0 0
206 156 99
16 156 8
115 140 156
0 0 0
16 115 165
0 41 8
0 0 0
0 0 0
16 90 33
0 41 8
0 0 0
0 0 0
140 41 0
0 8 57
0 0 0
0 0 0
0 16 0
0 0 0
0 173 8
0 0 0
0 0 0
57 247 0
0 0 0
57 247 0
0 0 0
57 247 0
0 0 0
0 0 0
231 24 132
57 231 231
156 99 49
57 231 123
123 115 90
57 214 115
0 0 8
0 0 0
0 99 99
16 156 16
115 140 156
0 0 0
231 198 231
16 156 8
115 140 156
0 0 0
239 24 231
16 156 8
115 140 156
0 0 0
0 0 0
0 0 0
0 0 0
0 0 0
0 0 24
0 0 0
0 0 0
0 0 0
206 156 99
16 156 8
115 140 156
0 0 0
16 132 99
0 41 8
0 0 0
0 0 0
16 99 231
0 41 8
0 0 0
0 0 0
140 41 0
0 8 57
0 0 0
0 0 0
0 16 0
0 0 0
0 173 8
0 0 0
0 0 0
57 247 0
0 0 0
57 247 0
0 0 0
57 247 0
0 0 0
0 0 0
57 33 255
57 239 123
41 247 156
57 222 255
99 132 239
57 66 8
0 0 8
0 0 0
231 189 132
16 156 8
115 140 156
0 0 0
231 198 231
16 156 8
115 140 156
0 0 0
0 16 198
16 156 16
115 140 156
0 0 0
0 0 0
0 0 0
0 0 0
0 0 0
0 0 24
0 0 0
0 0 0
0 0 0
206 156 99
16 156 8
115 140 156
0 0 0
16 148 33
0 41 8
0 0 0
0 0 0
16 115 165
0 41 8
0 0 0
0 0 0
140 41 0
0 8 57
0 0 0
0 0 0
0 16 0
0 0 0
0 173 16
0 0 0
0 0 0
57 247 0
0 0 0
57 247 0
0 0 0
57 247 0
0 0 0
0 0 0
132 16 107
57 239 173
239 57 222
57 214 74
123 74 181
189 214 57
0 0 8
0 0 0
231 189 132
16 156 8
115 140 156
0 0 0
0 16 198
16 156 16
115 140 156
0 0 0
206 222 99
16 156 8
115 140 156
0 0 0
0 0 0
0 0 0
0 0 0
0 0 0
0 0 24
0 0 0
0 0 0
0 0 0
206 156 99
16 156 8
115 140 156
0 0 0
16 156 231
0 41 8
0 0 0
0 0 0
16 132 99
0 41 8
0 0 0
0 0 0
140 41 0
0 8 57
0 0 0
0 0 0
0 16 0
0 0 0
0 173 16
0 0 0
0 0 0
57 247 0
0 0 0
57 247 0
0 0 0
57 247 0
0 0 0
0 0 0
123 156 57
57 140 99
74 90 214
57 239 57
41 198 189
189 231 90
0 0 8
0 0 0
0 66 66
16 156 16
115 140 156
0 0 0
231 239 0
16 156 8
115 140 156
0 0 0
0 49 231
16 156 16
115 140 156
0 0 0
0 0 0
0 0 0
0 0 0
0 0 0
0 0 24
0 0 0
0 0 0
0 0 0
206 156 99
16 156 8
115 140 156
0 0 0
16 173 165
0 41 8
0 0 0
0 0 0
16 148 33
0 41 8
0 0 0
0 0 0
140 41 0
0 8 57
0 0 0
0 0 0
0 16 0
0 0 0
0 173 24
0 0 0
0 0 0
57 247 0
0 0 0
57 247 0
0 0 0
57 247 0
0 0 0
0 0 0
57 156 8
57 231 115
123 90 198
57 239 24
132 57 132
189 189 255
0 0 8
0 0 0
231 198 231
16 156 8
115 140 156
0 0 0
0 41 132
16 156 16
115 140 156
0 0 0
231 222 165
16 156 8
115 140 156
0 0 0
0 0 0
0 0 0
0 0 0
0 0 0
0 0 24
0 0 0
0 0 0
0 0 0
206 156 99
16 156 8
115 140 156
0 0 0
16 189 99
0 41 8
0 0 0
0 0 0
16 156 231
0 41 8
0 0 0
0 0 0
140 41 0
0 8 57
0 0 0
0 0 0
0 16 0
0 0 0
0 173 24
0 0 0
0 0 0
57 247 0
0 0 0
57 247 0
0 0 0
57 247 0
0 0 0
0 0 0
255 41 107
57 198 90
156 206 115
57 231 189
90 24 206
189 231 222
0 0 8
0 0 0
0 49 231
16 156 16
115 140 156
0 0 0
0 41 132
16 156 16
115 140 156
0 0 0
239 66 0
16 156 8
115 140 156
0 0 0
0 0 0
0 0 0
0 0 0
0 0 0
0 0 24
0 0 0
0 0 0
0 0 0
206 156 99
16 156 8
115 140 156
0 0 0
16 206 33
0 41 8
0 0 0
0 0 0
16 173 165
0 41 8
0 0 0
0 0 0
140 41 0
0 8 57
0 0 0
0 0 0
0 16 0
0 0 0
0 173 33
0 0 0
0 0 0
57 247 0
0 0 0
57 247 0
0 0 0
57 247 0
0 0 0
0 0 0
0 33 82
189 214 107
247 255 189
189 239 206
107 173 66
57 165 82
0 0 8
0 0 0
214 57 198
16 156 8
115 140 156
0 0 0
231 57 0
16 156 8
115 140 156
0 0 0
231 0 33
16 156 8
115 140 156
0 0 0
0 0 0
0 0 0
0 0 0
0 0 0
0 0 24
0 0 0
0 0 0
0 0 0
206 156 99
16 156 8
115 140 156
0 0 0
16 214 231
0 41 8
0 0 0
0 0 0
16 189 99
0 41 8
0 0 0
0 0 0
140 41 0
0 8 57
0 0 0
0 0 0
0 16 0
0 0 0
0 173 33
0 0 0
0 0 0
57 247 0
0 0 0
57 247 0
0 0 0
57 247 0
0 0 0
0 0 0
16 90 198
57 231 132
247 0 255
57 181 57
41 33 0
57 239 24
0 0 8
0 0 0
0 99 99
16 156 16
115 140 156
0 0 0
239 24 231
16 156 8
115 140 156
0 0 0
239 49 165
16 156 8
115 140 156
0 0 0
0 0 0
0 0 0
0 0 0
0 0 0
0 0 24
0 0 0
0 0 0
0 0 0
206 156 99
16 156 8
115 140 156
0 0 0
16 231 165
0 41 8
0 0 0
0 0 0
16 206 33
0 41 8
0 0 0
0 0 0
140 41 0
0 8 57
0 0 0
0 0 0
0 16 0
0 0 0
0 173 41
0 0 0
0 0 0
57 247 0
0 0 0
57 247 0
0 0 0
57 247 0
0 0 0
0 0 0
0 16 90
57 222 66
0 173 66
57 239 123
173 148 239
57 214 41
0 0 8
0 0 0
16 123 198
16 156 16
115 140 156
0 0 0
239 16 132
16 156 8
115 140 156
0 0 0
231 66 99
16 156 8
115 140 156
0 0 0
0 0 0
0 0 0
0 0 0
0 0 0
0 0 24
0 0 0
0 0 0
0 0 0
206 156 99
16 156 8
115 140 156
0 0 0
16 247 99
0 41 8
0 0 0
0 0 0
16 214 231
0 41 8
0 0 0
0 0 0
140 41 0
0 8 57
0 0 0
0 0 0
0 16 0
0 0 0
0 173 41
0 0 0
0 0 0
57 247 0
0 0 0
57 247 0
0 0 0
57 247 0
0 0 0
0 0 0
148 239 140
57 239 16
123 140 156
57 231 57
90 231 0
189 214 115
0 0 8
0 0 0
0 41 132
16 156 16
115 140 156
0 0 0
231 198 231
16 156 8
115 140 156
0 0 0
206 247 33
16 156 8
115 140 156
0 0 0
0 0 0
0 0 0
0 0 0
0 0 0
0 0 24
0 0 0
0 0 0
0 0 0
206 156 99
16 156 8
115 140 156
0 0 0
24 0 33
0 41 8
0 0 0
0 0 0
16 231 165
0 41 8
0 0 0
0 0 0
140 41 0
0 8 57
0 0 0
0 0 0
0 16 0
0 0 0
0 173 49
0 0 0
0 0 0
57 247 0
0 0 0
57 247 0
0 0 0
57 247 0
0 0 0
0 0 0
231 132 140
57 231 24
247 140 82
57 239 82
41 231 49
189 198 123
0 0 8
0 0 0
255 8 198
16 156 8
115 140 156
0 0 0
231 66 99
16 156 8
115 140 156
0 0 0
231 57 0
16 156 8
115 140 156
0 0 0
0 0 0
0 0 0
0 0 0
0 0 0
0 0 24
0 0 0
0 0 0
0 0 0
206 156 99
16 156 8
115 140 156
0 0 0
24 8 231
0 41 8
0 0 0
0 0 0
16 247 99
0 41 8
0 0 0
0 0 0
140 41 0
0 8 57
0 0 0
0 0 0
0 16 0
0 0 0
0 173 49
0 0 0
0 0 0
57 247 0
0 0 0
57 247 0
0 0 0
57 247 0
0 0 0
0 0 0
239 90 214
57 231 189
206 148 132
189 231 231
115 148 222
57 181 156
0 0 8
0 0 0
0 231 231
16 156 16
115 140 156
0 0 0
214 115 165
16 156 8
115 140 156
0 0 0
214 107 66
16 156 8
115 140 156
0 0 0
0 0 0
0 0 0
0 0 0
0 0 0
0 0 24
0 0 0
0 0 0
0 0 0
206 156 99
16 156 8
115 140 156
0 0 0
24 24 165
0 41 8
0 0 0
0 0 0
24 0 33
0 41 8
0 0 0
0 0 0
140 41 0
0 8 57
0 0 0
0 0 0
0 16 0
0 0 0
0 173 57
0 0 0
0 0 0
57 247 0
0 0 0
57 247 0
0 0 0
57 247 0
0 0 0
0 0 0
132 16 99
57 231 74
90 206 8
57 231 49
66 24 107
189 231 107
0 0 8
0 0 0
0 214 33
16 156 16
115 140 156
0 0 0
206 231 198
16 156 8
115 140 156
0 0 0
206 255 132
16 156 8
115 140 156
0 0 0
0 0 0
0 0 0
0 0 0
0 0 0
0 0 24
0 0 0
0 0 0
0 0 0
206 156 99
16 156 8
115 140 156
0 0 0
24 41 99
0 41 8
0 0 0
0 0 0
24 8 231
0 41 8
0 0 0
0 0 0
140 41 0
0 8 57
0 0 0
0 0 0
0 16 0
0 0 0
0 173 57
0 0 0
0 0 0
57 247 0
0 0 0
57 247 0
0 0 0
57 247 0
0 0 0
0 0 0
255 231 57
57 231 82
57 189 57
57 231 74
33 132 173
189 231 74
0 0 8
0 0 0
231 189 132
16 156 8
115 140 156
0 0 0
206 222 99
16 156 8
115 140 156
0 0 0
206 247 33
16 156 8
115 140 156
0 0 0
0 0 0
0 0 0
0 0 0
0 0 0
0 0 24
0 0 0
0 0 0
0 0 0
206 156 99
16 156 8
115 140 156
0 0 0
24 57 33
0 41 8
0 0 0
0 0 0
24 24 165
0 41 8
0 0 0
0 0 0
140 41 0
0 8 57
0 0 0
0 0 0
0 16 0
0 0 0
0 173 66
0 0 0
0 0 0
57 247 0
0 0 0
57 247 0
0 0 0
57 247 0
0 0 0
0 0 0
0 0 0
0 0 0
82 140 8
57 239 189
239 156 0
189 214 239
0 0 8
0 0 0
66 173 198
16 156 16
115 140 156
0 0 0
239 74 99
16 156 8
115 140 156
0 0 0
8 82 165
16 156 16
115 140 156
0 0 0
0 0 0
0 0 0
0 0 0
0 0 0
0 0 24
0 0 0
0 0 0
0 0 0
206 156 99
16 156 8
115 140 156
0 0 0
24 66 231
0 41 8
0 0 0
0 0 0
24 41 99
0 41 8
0 0 0
0 0 0
140 41 0
0 8 57
0 0 0
0 0 0
0 16 0
0 0 0
0 173 66
0 0 0
0 0 0
57 247 0
0 0 0
57 247 0
0 0 0
57 247 0
0 0 0
0 0 0
74 8 49
57 189 8
206 206 255
189 239 115
255 115 24
189 222 239
0 0 8
0 0 0
231 255 198
16 156 8
115 140 156
0 0 0
214 107 66
16 156 8
115 140 156
0 0 0
16 16 0
16 156 16
115 140 156
0 0 0
0 0 0
0 0 0
0 0 0
0 0 0
0 0 24
0 0 0
0 0 0
0 0 0
206 156 99
16 156 8
115 140 156
0 0 0
24 82 165
0 41 8
0 0 0
0 0 0
24 57 33
0 41 8
0 0 0
0 0 0
140 41 0
0 8 57
0 0 0
0 0 0
0 16 0
0 0 0
0 173 74
0 0 0
0 0 0
57 247 0
0 0 0
57 247 0
0 0 0
57 247 0
0 0 0
0 0 0
222 24 82
57 231 247
0 57 198
189 222 198
206 181 206
189 222 222
0 0 8
0 0 0
231 255 198
16 156 8
115 140 156
0 0 0
0 231 231
16 156 16
115 140 156
0 0 0
214 107 66
16 156 8
115 140 156
0 0 0
0 0 0
0 0 0
0 0 0
0 0 0
0 0 24
0 0 0
0 0 0
0 0 0
206 156 99
16 156 8
115 140 156
0 0 0
24 99 99
0 41 8
0 0 0
0 0 0
24 66 231
0 41 8
0 0 0
0 0 0
140 41 0
0 8 57
0 0 0
0 0 0
0 16 0
0 0 0
0 173 74
0 0 0
0 0 0
57 247 0
0 0 0
57 247 0
0 0 0
57 247 0
0 0 0
0 0 0
99 181 231
189 231 156
74 33 57
189 239 8
231 115 239
57 165 132
0 0 8
0 0 0
57 66 99
16 156 16
115 140 156
0 0 0
41 206 165
16 156 16
115 140 156
0 0 0
66 107 132
16 156 16
115 140 156
0 0 0
0 0 0
0 0 0
0 0 0
0 0 0
0 0 24
0 0 0
0 0 0
0 0 0
206 156 99
16 156 8
115 140 156
0 0 0
24 115 33
0 41 8
0 0 0
0 0 0
24 82 165
0 41 8
0 0 0
0 0 0
140 41 0
0 8 57
0 0 0
0 0 0
0 16 0
0 0 0
0 173 82
0 0 0
0 0 0
57 247 0
0 0 0
57 247 0
0 0 0
57 247 0
0 0 0
0 0 0
148 148 198
189 214 0
222 123 247
189 132 24
206 41 181
57 239 222
0 0 8
0 0 0
8 222 33
16 156 16
115 140 156
0 0 0
90 247 66
16 156 16
115 140 156
0 0 0
8 198 99
16 156 16
115 140 156
0 0 0
0 0 0
0 0 0
0 0 0
0 0 0
0 0 24
0 0 0
0 0 0
0 0 0
206 156 99
16 156 8
115 140 156
0 0 0
24 123 231
0 41 8
0 0 0
0 0 0
24 99 99
0 41 8
0 0 0
0 0 0
140 41 0
0 8 57
0 0 0
0 0 0
0 16 0
0 0 0
0 173 82
0 0 0
0 0 0
57 247 0
0 0 0
57 247 0
0 0 0
57 247 0
0 0 0
0 0 0
123 239 173
189 206 57
206 24 239
57 165 198
115 66 57
57 239 239
0 0 8
0 0 0
90 231 231
16 156 16
115 140 156
0 0 0
99 16 99
16 156 16
115 140 156
0 0 0
99 41 33
16 156 16
115 140 156
0 0 0
0 0 0
0 0 0
0 0 0
0 0 0
0 0 24
0 0 0
0 0 0
0 0 0
206 156 99
16 156 8
115 140 156
0 0 0
24 140 165
0 41 8
0 0 0
0 0 0
24 115 33
0 41 8
0 0 0
0 0 0
140 41 0
0 8 57
0 0 0
0 0 0
0 16 0
0 0 0
0 173 90
0 0 0
0 0 0
57 247 0
0 0 0
57 247 0
0 0 0
57 247 0
0 0 0
0 0 0
140 247 239
57 189 239
115 156 231
57 181 16
132 239 74
57 239 247
0 0 8
0 0 0
90 255 165
16 156 16
115 140 156
0 0 0
99 24 198
16 156 16
115 140 156
0 0 0
99 49 132
16 156 16
115 140 156
0 0 0
0 0 0
0 0 0
0 0 0
0 0 0
0 0 24
0 0 0
0 0 0
0 0 0
206 156 99
16 156 8
115 140 156
0 0 0
24 156 99
0 41 8
0 0 0
0 0 0
24 123 231
0 41 8
0 0 0
0 0 0
140 41 0
0 8 57
0 0 0
0 0 0
0 16 0
0 0 0
0 173 90
0 0 0
0 0 0
57 247 0
0 0 0
57 247 0
0 0 0
57 247 0
0 0 0
0 0 0
16 16 189
189 206 82
0 74 24
57 198 8
57 222 189
57 239 231
0 0 8
0 0 0
99 41 33
16 156 16
115 140 156
0 0 0
99 16 99
16 156 16
115 140 156
0 0 0
74 123 231
16 156 16
115 140 156
0 0 0
0 0 0
0 0 0
0 0 0
0 0 0
0 0 24
0 0 0
0 0 0
0 0 0
206 156 99
16 156 8
115 140 156
0 0 0
24 173 33
0 41 8
0 0 0
0 0 0
24 140 165
0 41 8
0 0 0
0 0 0
140 41 0
0 8 57
0 0 0
0 0 0
0 16 0
0 0 0
0 173 99
0 0 0
0 0 0
57 247 0
0 0 0
57 247 0
0 0 0
57 247 0
0 0 0
0 0 0
132 123 0
57 189 173
247 181 99
57 198 41
239 90 156
57 239 239
0 0 8
0 0 0
99 24 198
16 156 16
115 140 156
0 0 0
0 140 231
16 156 16
115 140 156
0 0 0
99 49 132
16 156 16
115 140 156
0 0 0
0 0 0
0 0 0
0 0 0
0 0 0
0 0 24
0 0 0
0 0 0
0 0 0
206 156 99
16 156 8
115 140 156
0 0 0
24 181 231
0 41 8
0 0 0
0 0 0
24 156 99
0 41 8
0 0 0
0 0 0
140 41 0
0 8 57
0 0 0
0 0 0
0 16 0
0 0 0
0 173 99
0 0 0
0 0 0
57 247 0
0 0 0
57 247 0
0 0 0
57 247 0
0 0 0
0 0 0
239 99 214
189 222 90
16 181 57
57 206 16
24 255 57
57 239 140
0 0 8
0 0 0
74 115 132
16 156 16
115 140 156
0 0 0
74 90 198
16 156 16
115 140 156
0 0 0
74 107 33
16 156 16
115 140 156
0 0 0
0 0 0
0 0 0
0 0 0
0 0 0
0 0 24
0 0 0
0 0 0
0 0 0
206 156 99
16 156 8
115 140 156
0 0 0
24 198 165
0 41 8
0 0 0
0 0 0
24 173 33
0 41 8
0 0 0
0 0 0
140 41 0
0 8 57
0 0 0
0 0 0
0 16 0
0 0 0
0 173 107
0 0 0
0 0 0
57 247 0
0 0 0
57 247 0
0 0 0
57 247 0
0 0 0
0 0 0
255 74 99
189 206 66
74 57 0
57 206 16
181 189 255
57 239 214
0 0 8
0 0 0
74 107 33
16 156 16
115 140 156
0 0 0
74 123 231
16 156 16
115 140 156
0 0 0
74 115 132
16 156 16
115 140 156
0 0 0
0 0 0
0 0 0
0 0 0
0 0 0
0 0 24
0 0 0
0 0 0
0 0 0
206 156 99
16 156 8
115 140 156
0 0 0
24 214 99
0 41 8
0 0 0
0 0 0
24 181 231
0 41 8
0 0 0
0 0 0
140 41 0
0 8 57
0 0 0
0 0 0
0 16 0
0 0 0
0 173 107
0 0 0
0 0 0
57 247 0
0 0 0
57 247 0
0 0 0
57 247 0
0 0 0
0 0 0
173 82 222
57 222 107
90 198 247
57 198 82
115 74 41
57 239 148
0 0 8
0 0 0
0 156 66
16 156 16
115 140 156
0 0 0
0 123 33
16 156 16
115 140 156
0 0 0
239 24 231
16 156 8
115 140 156
0 0 0
0 0 0
0 0 0
0 0 0
0 0 0
0 0 24
0 0 0
0 0 0
0 0 0
206 156 99
16 156 8
115 140 156
0 0 0
24 231 33
0 41 8
0 0 0
0 0 0
24 198 165
0 41 8
0 0 0
0 0 0
140 41 0
0 8 57
0 0 0
0 0 0
0 16 0
0 0 0
0 173 115
0 0 0
0 0 0
57 247 0
0 0 0
57 247 0
0 0 0
57 247 0
0 0 0
0 0 0
99 49 255
57 206 24
115 156 255
57 206 99
49 66 41
57 239 214
0 0 8
0 0 0
0 90 0
16 156 16
115 140 156
0 0 0
0 74 165
16 156 16
115 140 156
0 0 0
0 140 231
16 156 16
115 140 156
0 0 0
0 0 0
0 0 0
0 0 0
0 0 0
0 0 24
0 0 0
0 0 0
0 0 0
206 156 99
16 156 8
115 140 156
0 0 0
24 239 231
0 41 8
0 0 0
0 0 0
24 214 99
0 41 8
0 0 0
0 0 0
140 41 0
0 8 57
0 0 0
0 0 0
0 16 0
0 0 0
0 173 115
0 0 0
0 0 0
57 247 0
0 0 0
57 247 0
0 0 0
57 247 0
0 0 0
0 0 0
140 247 239
189 189 239
115 156 231
57 181 16
132 239 74
57 239 247
0 0 8
0 0 0
90 247 66
16 156 16
115 140 156
0 0 0
99 41 33
16 156 16
115 140 156
0 0 0
8 198 99
16 156 16
115 140 156
0 0 0
0 0 0
0 0 0
0 0 0
0 0 0
0 0 24
0 0 0
0 0 0
0 0 0
206 156 99
16 156 8
115 140 156
0 0 0
24 255 165
0 41 8
0 0 0
0 0 0
24 231 33
0 41 8
0 0 0
0 0 0
140 41 0
0 8 57
0 0 0
0 0 0
0 16 0
0 0 0
0 173 123
0 0 0
0 0 0
57 247 0
0 0 0
57 247 0
0 0 0
57 247 0
0 0 0
0 0 0
148 148 198
57 214 0
222 123 247
189 132 24
206 41 181
57 239 222
0 0 8
0 0 0
90 255 165
16 156 16
115 140 156
0 0 0
0 132 132
16 156 16
115 140 156
0 0 0
99 24 198
16 156 16
115 140 156
0 0 0
0 0 0
0 0 0
0 0 0
0 0 0
0 0 24
0 0 0
0 0 0
0 0 0
206 156 99
16 156 8
115 140 156
0 0 0
33 8 99
0 41 8
0 0 0
0 0 0
24 239 231
0 41 8
0 0 0
0 0 0
140 41 0
0 8 57
0 0 0
0 0 0
0 16 0
0 0 0
0 173 123
0 0 0
0 0 0
57 247 0
0 0 0
57 247 0
0 0 0
57 247 0
0 0 0
0 0 0
123 239 173
57 206 57
206 24 239
57 165 198
115 66 57
57 239 239
0 0 8
0 0 0
90 231 231
16 156 16
115 140 156
0 0 0
99 49 132
16 156 16
115 140 156
0 0 0
99 16 99
16 156 16
115 140 156
0 0 0
0 0 0
0 0 0
0 0 0
0 0 0
0 0 24
0 0 0
0 0 0
0 0 0
206 156 99
16 156 8
115 140 156
0 0 0
33 24 33
0 41 8
0 0 0
0 0 0
24 255 165
0 41 8
0 0 0
0 0 0
140 41 0
0 8 57
0 0 0
0 0 0
0 16 0
0 0 0
0 173 132
0 0 0
0 0 0
57 247 0
0 0 0
57 247 0
0 0 0
57 247 0
0 0 0
0 0 0
132 123 0
189 189 173
247 181 99
57 198 41
239 90 156
57 239 239
0 0 8
0 0 0
74 123 231
16 156 16
115 140 156
0 0 0
8 198 99
16 156 16
115 140 156
0 0 0
99 41 33
16 156 16
115 140 156
0 0 0
0 0 0
0 0 0
0 0 0
0 0 0
0 0 24
0 0 0
0 0 0
0 0 0
206 156 99
16 156 8
115 140 156
0 0 0
140 255 198
16 156 16
115 140 156
0 0 0
33 8 99
0 41 8
0 0 0
0 0 0
140 41 0
0 8 57
0 0 0
0 0 0
0 16 0
0 0 0
0 173 132
0 0 0
0 0 0
57 247 0
0 0 0
57 247 0
0 0 0
57 247 0
0 0 0
0 0 0
16 16 189
57 206 82
0 74 24
57 198 8
57 222 189
57 239 231
0 0 8
0 0 0
0 140 231
16 156 16
115 140 156
0 0 0
99 16 99
16 156 16
115 140 156
0 0 0
99 49 132
16 156 16
115 140 156
0 0 0
0 0 0
0 0 0
0 0 0
0 0 0
0 0 24
0 0 0
0 0 0
0 0 0
206 156 99
16 156 8
115 140 156
0 0 0
33 49 165
0 41 8
0 0 0
0 0 0
255 8 0
16 156 16
115 140 156
0 0 0
140 41 0
0 8 57
0 0 0
0 0 0
0 16 0
0 0 0
0 181 115
0 0 0
0 0 0
57 247 0
0 0 0
57 247 0
0 0 0
57 247 0
0 0 0
0 0 0
74 165 231
57 214 206
140 57 181
57 214 107
214 123 57
57 239 140
0 0 8
0 0 0
239 8 198
16 156 16
115 140 156
0 0 0
239 0 99
16 156 16
115 140 156
0 0 0
231 255 0
16 156 16
115 140 156
0 0 0
0 0 0
0 0 0
0 0 0
0 0 0
0 0 0
0 0 0
0 0 0
0 0 0
231 165 198
16 156 16
115 140 156
0 0 0
33 66 99
0 41 8
0 0 0
0 0 0
33 33 231
0 41 8
0 0 0
0 0 0
140 41 0
0 8 57
0 0 0
0 0 0
0 16 0
0 0 0
0 181 115
0 0 0
0 0 0
57 247 0
0 0 0
57 247 0
0 0 0
57 247 0
0 0 0
0 0 0
214 156 255
57 231 74
189 123 206
57 231 206
16 90 173
57 222 99
0 0 8
0 0 0
239 0 99
16 156 16
115 140 156
0 0 0
239 33 132
16 156 16
115 140 156
0 0 0
239 24 33
16 156 16
115 140 156
0 0 0
0 0 0
0 0 0
0 0 0
0 0 0
0 0 0
0 0 0
0 0 0
0 0 0
231 165 198
16 156 16
115 140 156
0 0 0
33 82 33
0 41 8
0 0 0
0 0 0
33 49 165
0 41 8
0 0 0
0 0 0
140 41 0
0 8 57
0 0 0
0 0 0
0 16 0
0 0 0
0 181 123
0 0 0
0 0 0
57 247 0
0 0 0
57 247 0
0 0 0
57 247 0
0 0 0
0 0 0
16 82 222
57 231 66
239 189 165
57 239 66
222 24 156
57 181 140
0 0 8
0 0 0
239 33 132
16 156 16
115 140 156
0 0 0
239 57 66
16 156 16
115 140 156
0 0 0
239 41 231
16 156 16
115 140 156
0 0 0
0 0 0
0 0 0
0 0 0
0 0 0
0 0 0
0 0 0
0 0 0
0 0 0
231 165 198
16 156 16
115 140 156
0 0 0
33 90 231
0 41 8
0 0 0
0 0 0
33 66 99
0 41 8
0 0 0
0 0 0
140 41 0
0 8 57
0 0 0
0 0 0
0 16 0
0 0 0
0 181 123
0 0 0
0 0 0
57 247 0
0 0 0
57 247 0
0 0 0
57 247 0
0 0 0
0 0 0
99 181 107
57 231 0
255 214 181
57 239 82
66 90 107
189 206 148
0 0 8
0 0 0
239 57 66
16 156 16
115 140 156
0 0 0
239 66 165
16 156 16
115 140 156
0 0 0
239 41 231
16 156 16
115 140 156
0 0 0
0 0 0
0 0 0
0 0 0
0 0 0
0 0 0
0 0 0
0 0 0
0 0 0
231 165 198
16 156 16
115 140 156
0 0 0
33 107 165
0 41 8
0 0 0
0 0 0
33 82 33
0 41 8
0 0 0
0 0 0
140 41 0
0 8 57
0 0 0
0 0 0
0 16 0
0 0 0
0 181 132
0 0 0
0 0 0
57 247 0
0 0 0
57 247 0
0 0 0
57 247 0
0 0 0
0 0 0
173 33 33
57 214 189
255 74 99
57 231 239
247 132 206
189 231 82
0 0 8
0 0 0
239 66 165
16 156 16
115 140 156
0 0 0
239 90 99
16 156 16
115 140 156
0 0 0
239 82 0
16 156 16
115 140 156
0 0 0
0 0 0
0 0 0
0 0 0
0 0 0
0 0 0
0 0 0
0 0 0
0 0 0
231 165 198
16 156 16
115 140 156
0 0 0
33 123 99
0 41 8
0 0 0
0 0 0
33 90 231
0 41 8
0 0 0
0 0 0
140 41 0
0 8 57
0 0 0
0 0 0
0 16 0
0 0 0
0 181 132
0 0 0
0 0 0
57 247 0
0 0 0
57 247 0
0 0 0
57 247 0
0 0 0
0 0 0
148 222 82
189 181 57
57 255 123
57 214 8
206 99 255
189 239 222
0 0 8
0 0 0
239 90 99
16 156 16
115 140 156
0 0 0
239 115 33
16 156 16
115 140 156
0 0 0
239 99 198
16 156 16
115 140 156
0 0 0
0 0 0
0 0 0
0 0 0
0 0 0
0 0 0
0 0 0
0 0 0
0 0 0
231 165 198
16 156 16
115 140 156
0 0 0
33 140 33
0 41 8
0 0 0
0 0 0
33 107 165
0 41 8
0 0 0
0 0 0
140 41 0
0 8 57
0 0 0
0 0 0
0 16 0
0 0 0
0 181 140
0 0 0
0 0 0
57 247 0
0 0 0
57 247 0
0 0 0
57 247 0
0 0 0
0 0 0
140 189 148
189 214 198
123 156 132
189 214 99
173 255 198
189 239 140
0 0 8
0 0 0
239 115 33
16 156 16
115 140 156
0 0 0
239 132 231
16 156 16
115 140 156
0 0 0
239 123 132
16 156 16
115 140 156
0 0 0
0 0 0
0 0 0
0 0 0
0 0 0
0 0 0
0 0 0
0 0 0
0 0 0
231 165 198
16 156 16
115 140 156
0 0 0
33 148 231
0 41 8
0 0 0
0 0 0
33 123 99
0 41 8
0 0 0
0 0 0
140 41 0
0 8 57
0 0 0
0 0 0
0 16 0
0 0 0
0 181 140
0 0 0
0 0 0
57 247 0
0 0 0
57 247 0
0 0 0
57 247 0
0 0 0
0 0 0
8 132 57
189 231 74
222 74 16
189 231 189
123 222 255
189 222 156
0 0 8
0 0 0
239 132 231
16 156 16
115 140 156
0 0 0
239 156 165
16 156 16
115 140 156
0 0 0
239 148 66
16 156 16
115 140 156
0 0 0
0 0 0
0 0 0
0 0 0
0 0 0
0 0 0
0 0 0
0 0 0
0 0 0
231 165 198
16 156 16
115 140 156
0 0 0
33 165 165
0 41 8
0 0 0
0 0 0
33 140 33
0 41 8
0 0 0
0 0 0
140 41 0
0 8 57
0 0 0
0 0 0
0 16 0
0 0 0
0 181 148
0 0 0
0 0 0
57 247 0
0 0 0
57 247 0
0 0 0
57 247 0
0 0 0
0 0 0
0 82 173
189 222 231
99 33 90
189 239 123
24 57 198
189 181 0
0 0 8
0 0 0
239 156 165
16 156 16
115 140 156
0 0 0
239 181 99
16 156 16
115 140 156
0 0 0
239 173 0
16 156 16
115 140 156
0 0 0
0 0 0
0 0 0
0 0 0
0 0 0
0 0 0
0 0 0
0 0 0
0 0 0
231 165 198
16 156 16
115 140 156
0 0 0
33 181 99
0 41 8
0 0 0
0 0 0
33 148 231
0 41 8
0 0 0
0 0 0
140 41 0
0 8 57
0 0 0
0 0 0
0 16 0
0 0 0
0 181 148
0 0 0
0 0 0
57 247 0
0 0 0
57 247 0
0 0 0
57 247 0
0 0 0
0 0 0
165 82 123
189 222 107
165 132 66
189 239 132
123 57 173
57 206 41
0 0 8
0 0 0
239 181 99
16 156 16
115 140 156
0 0 0
239 189 198
16 156 16
115 140 156
0 0 0
239 173 0
16 156 16
115 140 156
0 0 0
0 0 0
0 0 0
0 0 0
0 0 0
0 0 0
0 0 0
0 0 0
0 0 0
231 165 198
16 156 16
115 140 156
0 0 0
33 198 33
0 41 8
0 0 0
0 0 0
33 165 165
0 41 8
0 0 0
0 0 0
140 41 0
0 8 57
0 0 0
0 0 0
0 16 0
0 0 0
0 181 156
0 0 0
0 0 0
57 247 0
0 0 0
57 247 0
0 0 0
57 247 0
0 0 0
0 0 0
198 41 222
189 214 181
181 140 222
189 231 239
90 206 57
57 231 99
0 0 8
0 0 0
239 189 198
16 156 16
115 140 156
0 0 0
239 214 132
16 156 16
115 140 156
0 0 0
239 206 33
16 156 16
115 140 156
0 0 0
0 0 0
0 0 0
0 0 0
0 0 0
0 0 0
0 0 0
0 0 0
0 0 0
231 165 198
16 156 16
115 140 156
0 0 0
33 206 231
0 41 8
0 0 0
0 0 0
33 181 99
0 41 8
0 0 0
0 0 0
140 41 0
0 8 57
0 0 0
0 0 0
0 16 0
0 0 0
0 181 156
0 0 0
0 0 0
57 247 0
0 0 0
57 247 0
0 0 0
57 247 0
0 0 0
0 0 0
247 49 189
57 181 214
49 0 66
189 214 41
82 49 8
57 239 214
0 0 8
0 0 0
239 214 132
16 156 16
115 140 156
0 0 0
239 8 198
16 156 16
115 140 156
0 0 0
239 222 231
16 156 16
115 140 156
0 0 0
0 0 0
0 0 0
0 0 0
0 0 0
0 0 0
0 0 0
0 0 0
0 0 0
231 165 198
16 156 16
115 140 156
0 0 0
33 222 165
0 41 8
0 0 0
0 0 0
33 198 33
0 41 8
0 0 0
0 0 0
140 41 0
0 8 57
0 0 0
0 0 0
0 16 0
0 0 0
0 181 165
0 0 0
0 0 0
57 247 0
0 0 0
57 247 0
0 0 0
57 247 0
0 0 0
0 0 0
90 115 140
57 214 214
156 189 156
57 214 107
99 247 165
57 239 140
0 0 8
0 0 0
231 255 0
16 156 16
115 140 156
0 0 0
247 255 165
16 156 16
115 140 156
0 0 0
239 8 198
16 156 16
115 140 156
0 0 0
0 0 0
0 0 0
0 0 0
0 0 0
0 0 0
0 0 0
0 0 0
0 0 0
231 165 198
16 156 16
115 140 156
0 0 0
33 239 99
0 41 8
0 0 0
0 0 0
33 206 231
0 41 8
0 0 0
0 0 0
140 41 0
0 8 57
0 0 0
0 0 0
0 16 0
0 0 0
0 181 165
0 0 0
0 0 0
57 247 0
0 0 0
57 247 0
0 0 0
57 247 0
0 0 0
0 0 0
173 66 66
57 239 239
33 8 181
189 189 231
239 123 181
57 198 156
0 0 8
0 0 0
239 8 198
16 156 16
115 140 156
0 0 0
247 16 198
16 156 16
115 140 156
0 0 0
239 0 99
16 156 16
115 140 156
0 0 0
0 0 0
0 0 0
0 0 0
0 0 0
0 0 0
0 0 0
0 0 0
0 0 0
231 165 198
16 156 16
115 140 156
0 0 0
33 255 33
0 41 8
0 0 0
0 0 0
33 222 165
0 41 8
0 0 0
0 0 0
140 41 0
0 8 57
0 0 0
0 0 0
0 16 0
0 0 0
0 181 173
0 0 0
0 0 0
57 247 0
0 0 0
57 247 0
0 0 0
57 247 0
0 0 0
0 0 0
33 0 33
57 239 214
24 107 222
189 206 231
148 74 66
57 198 214
0 0 8
0 0 0
239 214 132
16 156 16
115 140 156
0 0 0
247 16 198
16 156 16
115 140 156
0 0 0
239 8 198
16 156 16
115 140 156
0 0 0
0 0 0
0 0 0
0 0 0
0 0 0
0 0 0
0 0 0
0 0 0
0 0 0
231 165 198
16 156 16
115 140 156
0 0 0
41 0 231
0 41 8
0 0 0
0 0 0
33 239 99
0 41 8
0 0 0
0 0 0
140 41 0
0 8 57
0 0 0
0 0 0
0 16 0
0 0 0
0 181 173
0 0 0
0 0 0
57 247 0
0 0 0
57 247 0
0 0 0
57 247 0
0 0 0
0 0 0
247 206 165
57 239 181
66 57 255
189 214 198
239 8 239
57 198 0
0 0 8
0 0 0
239 189 198
16 156 16
115 140 156
0 0 0
247 33 33
16 156 16
115 140 156
0 0 0
239 214 132
16 156 16
115 140 156
0 0 0
0 0 0
0 0 0
0 0 0
0 0 0
0 0 0
0 0 0
0 0 0
0 0 0
231 165 198
16 156 16
115 140 156
0 0 0
41 16 165
0 41 8
0 0 0
0 0 0
33 255 33
0 41 8
0 0 0
0 0 0
140 41 0
0 8 57
0 0 0
0 0 0
0 16 0
0 0 0
0 181 181
0 0 0
0 0 0
57 247 0
0 0 0
57 247 0
0 0 0
57 247 0
0 0 0
0 0 0
165 148 189
57 239 156
0 206 165
189 222 99
239 156 165
57 165 132
0 0 8
0 0 0
239 181 99
16 156 16
115 140 156
0 0 0
247 41 132
16 156 16
115 140 156
0 0 0
239 189 198
16 156 16
115 140 156
0 0 0
0 0 0
0 0 0
0 0 0
0 0 0
0 0 0
0 0 0
0 0 0
0 0 0
231 165 198
16 156 16
115 140 156
0 0 0
41 33 99
0 41 8
0 0 0
0 0 0
41 0 231
0 41 8
0 0 0
0 0 0
140 41 0
0 8 57
0 0 0
0 0 0
0 16 0
0 0 0
0 181 181
0 0 0
0 0 0
57 247 0
0 0 0
57 247 0
0 0 0
57 247 0
0 0 0
0 0 0
231 239 57
57 239 148
173 41 16
189 222 115
57 57 82
189 181 214
0 0 8
0 0 0
239 156 165
16 156 16
115 140 156
0 0 0
247 49 231
16 156 16
115 140 156
0 0 0
239 181 99
16 156 16
115 140 156
0 0 0
0 0 0
0 0 0
0 0 0
0 0 0
0 0 0
0 0 0
0 0 0
0 0 0
231 165 198
16 156 16
115 140 156
0 0 0
41 49 33
0 41 8
0 0 0
0 0 0
41 16 165
0 41 8
0 0 0
0 0 0
140 41 0
0 8 57
0 0 0
0 0 0
0 16 0
0 0 0
0 181 189
0 0 0
0 0 0
57 247 0
0 0 0
57 247 0
0 0 0
57 247 0
0 0 0
0 0 0
148 66 173
57 239 156
107 16 33
189 222 24
140 49 165
189 198 198
0 0 8
0 0 0
239 132 231
16 156 16
115 140 156
0 0 0
247 66 66
16 156 16
115 140 156
0 0 0
239 156 165
16 156 16
115 140 156
0 0 0
0 0 0
0 0 0
0 0 0
0 0 0
0 0 0
0 0 0
0 0 0
0 0 0
231 165 198
16 156 16
115 140 156
0 0 0
41 57 231
0 41 8
0 0 0
0 0 0
41 33 99
0 41 8
0 0 0
0 0 0
140 41 0
0 8 57
0 0 0
0 0 0
0 16 0
0 0 0
0 181 189
0 0 0
0 0 0
57 247 0
0 0 0
57 247 0
0 0 0
57 247 0
0 0 0
0 0 0
41 198 66
57 239 189
107 222 57
189 206 247
115 99 49
189 214 41
0 0 8
0 0 0
239 115 33
16 156 16
115 140 156
0 0 0
247 74 165
16 156 16
115 140 156
0 0 0
239 132 231
16 156 16
115 140 156
0 0 0
0 0 0
0 0 0
0 0 0
0 0 0
0 0 0
0 0 0
0 0 0
0 0 0
231 165 198
16 156 16
115 140 156
0 0 0
41 74 165
0 41 8
0 0 0
0 0 0
41 49 33
0 41 8
0 0 0
0 0 0
140 41 0
0 8 57
0 0 0
0 0 0
0 16 0
0 0 0
0 181 198
0 0 0
0 0 0
57 247 0
0 0 0
57 247 0
0 0 0
57 247 0
0 0 0
0 0 0
181 165 90
57 239 206
148 57 231
189 198 57
90 24 231
189 214 41
0 0 8
0 0 0
239 90 99
16 156 16
115 140 156
0 0 0
247 74 165
16 156 16
115 140 156
0 0 0
239 115 33
16 156 16
115 140 156
0 0 0
0 0 0
0 0 0
0 0 0
0 0 0
0 0 0
0 0 0
0 0 0
0 0 0
231 165 198
16 156 16
115 140 156
0 0 0
41 90 99
0 41 8
0 0 0
0 0 0
41 57 231
0 41 8
0 0 0
0 0 0
140 41 0
0 8 57
0 0 0
0 0 0
0 16 0
0 0 0
0 181 198
0 0 0
0 0 0
57 247 0
0 0 0
57 247 0
0 0 0
57 247 0
0 0 0
0 0 0
239 239 74
57 239 239
107 247 156
57 99 132
189 206 239
189 198 214
0 0 8
0 0 0
239 66 165
16 156 16
115 140 156
0 0 0
247 90 0
16 156 16
115 140 156
0 0 0
239 90 99
16 156 16
115 140 156
0 0 0
0 0 0
0 0 0
0 0 0
0 0 0
0 0 0
0 0 0
0 0 0
0 0 0
231 165 198
16 156 16
115 140 156
0 0 0
41 107 33
0 41 8
0 0 0
0 0 0
41 74 165
0 41 8
0 0 0
0 0 0
140 41 0
0 8 57
0 0 0
0 0 0
0 16 0
0 0 0
0 181 206
0 0 0
0 0 0
57 247 0
0 0 0
57 247 0
0 0 0
57 247 0
0 0 0
0 0 0
132 206 214
57 239 247
247 74 16
57 181 99
99 156 198
189 189 189
0 0 8
0 0 0
239 57 66
16 156 16
115 140 156
0 0 0
247 99 99
16 156 16
115 140 156
0 0 0
239 66 165
16 156 16
115 140 156
0 0 0
0 0 0
0 0 0
0 0 0
0 0 0
0 0 0
0 0 0
0 0 0
0 0 0
231 165 198
16 156 16
115 140 156
0 0 0
41 115 231
0 41 8
0 0 0
0 0 0
41 90 99
0 41 8
0 0 0
0 0 0
140 41 0
0 8 57
0 0 0
0 0 0
0 16 0
0 0 0
0 181 206
0 0 0
0 0 0
57 247 0
0 0 0
57 247 0
0 0 0
57 247 0
0 0 0
0 0 0
8 24 115
57 239 255
222 74 57
57 181 198
8 0 41
57 132 41
0 0 8
0 0 0
239 33 132
16 156 16
115 140 156
0 0 0
247 107 198
16 156 16
115 140 156
0 0 0
239 57 66
16 156 16
115 140 156
0 0 0
0 0 0
0 0 0
0 0 0
0 0 0
0 0 0
0 0 0
0 0 0
0 0 0
231 165 198
16 156 16
115 140 156
0 0 0
41 132 165
0 41 8
0 0 0
0 0 0
41 107 33
0 41 8
0 0 0
0 0 0
140 41 0
0 8 57
0 0 0
0 0 0
0 16 0
0 0 0
0 181 214
0 0 0
0 0 0
57 247 0
0 0 0
57 247 0
0 0 0
57 247 0
0 0 0
0 0 0
49 206 82
57 239 255
247 255 82
57 148 165
231 99 189
57 181 107
0 0 8
0 0 0
239 0 99
16 156 16
115 140 156
0 0 0
247 123 33
16 156 16
115 140 156
0 0 0
239 33 132
16 156 16
115 140 156
0 0 0
0 0 0
0 0 0
0 0 0
0 0 0
0 0 0
0 0 0
0 0 0
0 0 0
231 165 198
16 156 16
115 140 156
0 0 0
41 148 99
0 41 8
0 0 0
0 0 0
41 115 231
0 41 8
0 0 0
0 0 0
140 41 0
0 8 57
0 0 0
0 0 0
0 16 0
0 0 0
0 181 214
0 0 0
0 0 0
57 247 0
0 0 0
57 247 0
0 0 0
57 247 0
0 0 0
0 0 0
24 198 99
57 239 255
115 156 0
57 165 8
41 107 140
57 189 189
0 0 8
0 0 0
247 123 33
16 156 16
115 140 156
0 0 0
247 107 198
16 156 16
115 140 156
0 0 0
239 33 132
16 156 16
115 140 156
0 0 0
0 0 0
0 0 0
0 0 0
0 0 0
0 0 0
0 0 0
0 0 0
0 0 0
231 165 198
16 156 16
115 140 156
0 0 0
41 165 33
0 41 8
0 0 0
0 0 0
41 132 165
0 41 8
0 0 0
0 0 0
140 41 0
0 8 57
0 0 0
0 0 0
0 16 0
0 0 0
0 181 222
0 0 0
0 0 0
57 247 0
0 0 0
57 247 0
0 0 0
57 247 0
0 0 0
0 0 0
0 156 8
57 239 255
49 148 181
57 181 206
123 99 41
57 132 74
0 0 8
0 0 0
247 107 198
16 156 16
115 140 156
0 0 0
247 214 33
16 156 16
115 140 156
0 0 0
239 57 66
16 156 16
115 140 156
0 0 0
0 0 0
0 0 0
0 0 0
0 0 0
0 0 0
0 0 0
0 0 0
0 0 0
231 165 198
16 156 16
115 140 156
0 0 0
41 173 231
0 41 8
0 0 0
0 0 0
41 148 99
0 41 8
0 0 0
0 0 0
140 41 0
0 8 57
0 0 0
0 0 0
0 16 0
0 0 0
0 181 222
0 0 0
0 0 0
57 247 0
0 0 0
57 247 0
0 0 0
57 247 0
0 0 0
0 0 0
49 165 156
57 239 247
41 107 90
57 181 148
107 181 214
189 189 247
0 0 8
0 0 0
239 57 66
16 156 16
115 140 156
0 0 0
247 214 33
16 156 16
115 140 156
0 0 0
247 99 99
16 156 16
115 140 156
0 0 0
0 0 0
0 0 0
0 0 0
0 0 0
0 0 0
0 0 0
0 0 0
0 0 0
231 165 198
16 156 16
115 140 156
0 0 0
41 189 165
0 41 8
0 0 0
0 0 0
41 165 33
0 41 8
0 0 0
0 0 0
140 41 0
0 8 57
0 0 0
0 0 0
0 16 0
0 0 0
0 181 231
0 0 0
0 0 0
57 247 0
0 0 0
57 247 0
0 0 0
57 247 0
0 0 0
0 0 0
123 66 49
57 239 231
132 189 173
57 132 222
99 239 156
189 206 148
0 0 8
0 0 0
239 66 165
16 156 16
115 140 156
0 0 0
247 99 99
16 156 16
115 140 156
0 0 0
247 90 0
16 156 16
115 140 156
0 0 0
0 0 0
0 0 0
0 0 0
0 0 0
0 0 0
0 0 0
0 0 0
0 0 0
231 165 198
16 156 16
115 140 156
0 0 0
41 206 99
0 41 8
0 0 0
0 0 0
41 173 231
0 41 8
0 0 0
0 0 0
140 41 0
0 8 57
0 0 0
0 0 0
0 16 0
0 0 0
0 181 231
0 0 0
0 0 0
57 247 0
0 0 0
57 247 0
0 0 0
57 247 0
0 0 0
0 0 0
156 74 206
57 239 214
74 33 49
189 198 16
99 165 16
189 214 0
0 0 8
0 0 0
239 90 99
16 156 16
115 140 156
0 0 0
247 90 0
16 156 16
115 140 156
0 0 0
247 74 165
16 156 16
115 140 156
0 0 0
0 0 0
0 0 0
0 0 0
0 0 0
0 0 0
0 0 0
0 0 0
0 0 0
231 165 198
16 156 16
115 140 156
0 0 0
41 222 33
0 41 8
0 0 0
0 0 0
41 189 165
0 41 8
0 0 0
0 0 0
140 41 0
0 8 57
0 0 0
0 0 0
0 16 0
0 0 0
0 181 239
0 0 0
0 0 0
57 247 0
0 0 0
57 247 0
0 0 0
57 247 0
0 0 0
0 0 0
49 41 8
57 239 189
140 239 24
189 206 247
74 198 156
189 214 41
0 0 8
0 0 0
247 74 165
16 156 16
115 140 156
0 0 0
247 66 66
16 156 16
115 140 156
0 0 0
239 132 231
16 156 16
115 140 156
0 0 0
0 0 0
0 0 0
0 0 0
0 0 0
0 0 0
0 0 0
0 0 0
0 0 0
231 165 198
16 156 16
115 140 156
0 0 0
41 231 231
0 41 8
0 0 0
0 0 0
41 206 99
0 41 8
0 0 0
0 0 0
140 41 0
0 8 57
0 0 0
0 0 0
0 16 0
0 0 0
0 181 239
0 0 0
0 0 0
57 247 0
0 0 0
57 247 0
0 0 0
57 247 0
0 0 0
0 0 0
41 173 0
57 239 156
0 148 156
189 222 33
239 206 140
189 198 222
0 0 8
0 0 0
247 66 66
16 156 16
115 140 156
0 0 0
247 49 231
16 156 16
115 140 156
0 0 0
239 156 165
16 156 16
115 140 156
0 0 0
0 0 0
0 0 0
0 0 0
0 0 0
0 0 0
0 0 0
0 0 0
0 0 0
231 165 198
16 156 16
115 140 156
0 0 0
41 247 165
0 41 8
0 0 0
0 0 0
41 222 33
0 41 8
0 0 0
0 0 0
140 41 0
0 8 57
0 0 0
0 0 0
0 16 0
0 0 0
0 181 247
0 0 0
0 0 0
57 247 0
0 0 0
57 247 0
0 0 0
57 247 0
0 0 0
0 0 0
115 74 41
57 239 148
66 107 90
189 222 123
239 140 156
189 181 231
0 0 8
0 0 0
247 49 231
16 156 16
115 140 156
0 0 0
247 140 231
16 156 16
115 140 156
0 0 0
239 181 99
16 156 16
115 140 156
0 0 0
0 0 0
0 0 0
0 0 0
0 0 0
0 0 0
0 0 0
0 0 0
0 0 0
231 165 198
16 156 16
115 140 156
0 0 0
49 0 99
0 41 8
0 0 0
0 0 0
41 231 231
0 41 8
0 0 0
0 0 0
140 41 0
0 8 57
0 0 0
0 0 0
0 16 0
0 0 0
0 181 247
0 0 0
0 0 0
57 247 0
0 0 0
57 247 0
0 0 0
57 247 0
0 0 0
0 0 0
148 206 49
57 239 156
57 181 206
189 222 99
247 148 107
57 165 140
0 0 8
0 0 0
239 181 99
16 156 16
115 140 156
0 0 0
247 140 231
16 156 16
115 140 156
0 0 0
247 41 132
16 156 16
115 140 156
0 0 0
0 0 0
0 0 0
0 0 0
0 0 0
0 0 0
0 0 0
0 0 0
0 0 0
231 165 198
16 156 16
115 140 156
0 0 0
49 16 33
0 41 8
0 0 0
0 0 0
41 247 165
0 41 8
0 0 0
0 0 0
140 41 0
0 8 57
0 0 0
0 0 0
0 16 0
0 0 0
0 181 255
0 0 0
0 0 0
57 247 0
0 0 0
57 247 0
0 0 0
57 247 0
0 0 0
0 0 0
140 255 123
57 239 181
74 99 16
189 214 206
90 132 214
57 198 132
0 0 8
0 0 0
239 189 198
16 156 16
115 140 156
0 0 0
247 41 132
16 156 16
115 140 156
0 0 0
247 33 33
16 156 16
115 140 156
0 0 0
0 0 0
0 0 0
0 0 0
0 0 0
0 0 0
0 0 0
0 0 0
0 0 0
231 165 198
16 156 16
115 140 156
0 0 0
49 24 231
0 41 8
0 0 0
0 0 0
49 0 99
0 41 8
0 0 0
0 0 0
140 41 0
0 8 57
0 0 0
0 0 0
0 16 0
0 0 0
0 181 255
0 0 0
0 0 0
57 247 0
0 0 0
57 247 0
0 0 0
57 247 0
0 0 0
0 0 0
33 41 181
57 239 214
140 206 8
189 206 231
214 206 140
57 198 214
0 0 8
0 0 0
239 214 132
16 156 16
115 140 156
0 0 0
247 33 33
16 156 16
115 140 156
0 0 0
247 16 198
16 156 16
115 140 156
0 0 0
0 0 0
0 0 0
0 0 0
0 0 0
0 0 0
0 0 0
0 0 0
0 0 0
231 165 198
16 156 16
115 140 156
0 0 0
49 41 165
0 41 8
0 0 0
0 0 0
49 16 33
0 41 8
0 0 0
0 0 0
140 41 0
0 8 57
0 0 0
0 0 0
0 16 0
0 0 0
0 189 0
0 0 0
0 0 0
57 247 0
0 0 0
57 247 0
0 0 0
57 247 0
0 0 0
0 0 0
140 231 8
57 239 231
165 82 148
189 198 8
123 115 255
57 198 239
0 0 8
0 0 0
247 16 198
16 156 16
115 140 156
0 0 0
247 123 33
16 156 16
115 140 156
0 0 0
239 0 99
16 156 16
115 140 156
0 0 0
0 0 0
0 0 0
0 0 0
0 0 0
0 0 0
0 0 0
0 0 0
0 0 0
231 165 198
16 156 16
115 140 156
0 0 0
49 57 99
0 41 8
0 0 0
0 0 0
49 24 231
0 41 8
0 0 0
0 0 0
140 41 0
0 8 57
0 0 0
0 0 0
0 16 0
0 0 0
0 189 0
0 0 0
0 0 0
57 247 0
0 0 0
57 247 0
0 0 0
57 247 0
0 0 0
0 0 0
57 82 8
57 231 49
49 57 115
57 231 222
41 231 255
57 222 132
0 0 8
0 0 0
239 24 33
16 156 16
115 140 156
0 0 0
231 255 0
16 156 16
115 140 156
0 0 0
239 0 99
16 156 16
115 140 156
0 0 0
0 0 0
0 0 0
0 0 0
0 0 0
0 0 0
0 0 0
0 0 0
0 0 0
231 165 198
16 156 16
115 140 156
0 0 0
49 74 33
0 41 8
0 0 0
0 0 0
49 41 165
0 41 8
0 0 0
0 0 0
140 41 0
0 8 57
0 0 0
0 0 0
0 16 0
0 0 0
0 189 8
0 0 0
0 0 0
57 247 0
0 0 0
57 247 0
0 0 0
57 247 0
0 0 0
0 0 0
16 82 222
57 231 66
239 189 165
57 239 66
222 24 156
57 181 140
0 0 8
0 0 0
239 41 231
16 156 16
115 140 156
0 0 0
239 24 33
16 156 16
115 140 156
0 0 0
239 33 132
16 156 16
115 140 156
0 0 0
0 0 0
0 0 0
0 0 0
0 0 0
0 0 0
0 0 0
0 0 0
0 0 0
231 165 198
16 156 16
115 140 156
0 0 0
49 82 231
0 41 8
0 0 0
0 0 0
49 57 99
0 41 8
0 0 0
0 0 0
140 41 0
0 8 57
0 0 0
0 0 0
0 16 0
0 0 0
0 189 8
0 0 0
0 0 0
57 247 0
0 0 0
57 247 0
0 0 0
57 247 0
0 0 0
0 0 0
99 181 107
57 231 0
255 214 181
57 239 82
66 90 107
189 206 148
0 0 8
0 0 0
239 66 165
16 156 16
115 140 156
0 0 0
239 82 0
16 156 16
115 140 156
0 0 0
239 41 231
16 156 16
115 140 156
0 0 0
0 0 0
0 0 0
0 0 0
0 0 0
0 0 0
0 0 0
0 0 0
0 0 0
231 165 198
16 156 16
115 140 156
0 0 0
49 99 165
0 41 8
0 0 0
0 0 0
49 74 33
0 41 8
0 0 0
0 0 0
140 41 0
0 8 57
0 0 0
0 0 0
0 16 0
0 0 0
0 189 16
0 0 0
0 0 0
57 247 0
0 0 0
57 247 0
0 0 0
57 247 0
0 0 0
0 0 0
173 33 33
57 214 189
255 74 99
57 231 239
247 132 206
189 231 82
0 0 8
0 0 0
239 90 99
16 156 16
115 140 156
0 0 0
239 99 198
16 156 16
115 140 156
0 0 0
239 82 0
16 156 16
115 140 156
0 0 0
0 0 0
0 0 0
0 0 0
0 0 0
0 0 0
0 0 0
0 0 0
0 0 0
231 165 198
16 156 16
115 140 156
0 0 0
49 115 99
0 41 8
0 0 0
0 0 0
49 82 231
0 41 8
0 0 0
0 0 0
140 41 0
0 8 57
0 0 0
0 0 0
0 16 0
0 0 0
0 189 16
0 0 0
0 0 0
57 247 0
0 0 0
57 247 0
0 0 0
57 247 0
0 0 0
0 0 0
16 206 16
189 123 173
82 156 132
57 214 24
231 107 247
189 239 222
0 0 8
0 0 0
239 115 33
16 156 16
115 140 156
0 0 0
247 8 99
16 156 16
115 140 156
0 0 0
239 99 198
16 156 16
115 140 156
0 0 0
0 0 0
0 0 0
0 0 0
0 0 0
0 0 0
0 0 0
0 0 0
0 0 0
231 165 198
16 156 16
115 140 156
0 0 0
49 132 33
0 41 8
0 0 0
0 0 0
49 99 165
0 41 8
0 0 0
0 0 0
140 41 0
0 8 57
0 0 0
0 0 0
0 16 0
0 0 0
0 189 24
0 0 0
0 0 0
57 247 0
0 0 0
57 247 0
0 0 0
57 247 0
0 0 0
0 0 0
16 0 214
189 214 206
82 206 123
189 214 90
148 173 181
189 239 140
0 0 8
0 0 0
239 123 132
16 156 16
115 140 156
0 0 0
247 8 99
16 156 16
115 140 156
0 0 0
239 115 33
16 156 16
115 140 156
0 0 0
0 0 0
0 0 0
0 0 0
0 0 0
0 0 0
0 0 0
0 0 0
0 0 0
231 165 198
16 156 16
115 140 156
0 0 0
49 140 231
0 41 8
0 0 0
0 0 0
49 115 99
0 41 8
0 0 0
0 0 0
140 41 0
0 8 57
0 0 0
0 0 0
0 16 0
0 0 0
0 189 24
0 0 0
0 0 0
57 247 0
0 0 0
57 247 0
0 0 0
57 247 0
0 0 0
0 0 0
247 49 115
189 231 41
82 189 181
189 231 214
165 123 247
189 222 148
0 0 8
0 0 0
239 148 66
16 156 16
115 140 156
0 0 0
239 123 132
16 156 16
115 140 156
0 0 0
239 132 231
16 156 16
115 140 156
0 0 0
0 0 0
0 0 0
0 0 0
0 0 0
0 0 0
0 0 0
0 0 0
0 0 0
231 165 198
16 156 16
115 140 156
0 0 0
49 156 165
0 41 8
0 0 0
0 0 0
49 132 33
0 41 8
0 0 0
0 0 0
140 41 0
0 8 57
0 0 0
0 0 0
0 16 0
0 0 0
0 189 33
0 0 0
0 0 0
57 247 0
0 0 0
57 247 0
0 0 0
57 247 0
0 0 0
0 0 0
82 156 66
189 231 66
140 49 66
189 239 66
123 16 107
189 181 214
0 0 8
0 0 0
239 173 0
16 156 16
115 140 156
0 0 0
239 148 66
16 156 16
115 140 156
0 0 0
239 156 165
16 156 16
115 140 156
0 0 0
0 0 0
0 0 0
0 0 0
0 0 0
0 0 0
0 0 0
0 0 0
0 0 0
231 165 198
16 156 16
115 140 156
0 0 0
49 173 99
0 41 8
0 0 0
0 0 0
49 140 231
0 41 8
0 0 0
0 0 0
140 41 0
0 8 57
0 0 0
0 0 0
0 16 0
0 0 0
0 189 33
0 0 0
0 0 0
57 247 0
0 0 0
57 247 0
0 0 0
57 247 0
0 0 0
0 0 0
41 255 165
189 231 0
239 255 107
189 239 82
255 255 90
57 206 156
0 0 8
0 0 0
239 189 198
16 156 16
115 140 156
0 0 0
239 206 33
16 156 16
115 140 156
0 0 0
239 173 0
16 156 16
115 140 156
0 0 0
0 0 0
0 0 0
0 0 0
0 0 0
0 0 0
0 0 0
0 0 0
0 0 0
231 165 198
16 156 16
115 140 156
0 0 0
49 189 33
0 41 8
0 0 0
0 0 0
49 156 165
0 41 8
0 0 0
0 0 0
140 41 0
0 8 57
0 0 0
0 0 0
0 16 0
0 0 0
0 189 41
0 0 0
0 0 0
57 247 0
0 0 0
57 247 0
0 0 0
57 247 0
0 0 0
0 0 0
214 189 247
57 156 132
247 107 115
189 206 189
198 181 231
57 239 231
0 0 8
0 0 0
239 8 198
16 156 16
115 140 156
0 0 0
247 255 165
16 156 16
115 140 156
0 0 0
239 222 231
16 156 16
115 140 156
0 0 0
0 0 0
0 0 0
0 0 0
0 0 0
0 0 0
0 0 0
0 0 0
0 0 0
231 165 198
16 156 16
115 140 156
0 0 0
49 198 231
0 41 8
0 0 0
0 0 0
49 173 99
0 41 8
0 0 0
0 0 0
140 41 0
0 8 57
0 0 0
0 0 0
0 16 0
0 0 0
0 189 41
0 0 0
0 0 0
57 247 0
0 0 0
57 247 0
0 0 0
57 247 0
0 0 0
0 0 0
173 16 33
189 214 132
206 0 140
189 231 255
156 198 0
57 231 90
0 0 8
0 0 0
239 214 132
16 156 16
115 140 156
0 0 0
239 222 231
16 156 16
115 140 156
0 0 0
239 206 33
16 156 16
115 140 156
0 0 0
0 0 0
0 0 0
0 0 0
0 0 0
0 0 0
0 0 0
0 0 0
0 0 0
231 165 198
16 156 16
115 140 156
0 0 0
49 214 165
0 41 8
0 0 0
0 0 0
49 189 33
0 41 8
0 0 0
0 0 0
140 41 0
0 8 57
0 0 0
0 0 0
0 16 0
0 0 0
0 189 49
0 0 0
0 0 0
57 247 0
0 0 0
57 247 0
0 0 0
57 247 0
0 0 0
0 0 0
74 181 165
57 239 239
66 49 49
189 198 222
189 239 8
57 181 24
0 0 8
0 0 0
247 16 198
16 156 16
115 140 156
0 0 0
247 132 132
16 156 16
115 140 156
0 0 0
247 123 33
16 156 16
115 140 156
0 0 0
0 0 0
0 0 0
0 0 0
0 0 0
0 0 8
0 0 0
0 0 0
0 0 0
231 181 165
16 156 16
115 140 156
0 0 0
49 231 99
0 41 8
0 0 0
0 0 0
49 198 231
0 41 8
0 0 0
0 0 0
140 41 0
0 8 57
0 0 0
0 0 0
0 16 0
0 0 0
0 189 49
0 0 0
0 0 0
57 247 0
0 0 0
57 247 0
0 0 0
57 247 0
0 0 0
0 0 0
99 74 33
57 239 231
123 90 24
189 206 115
214 24 239
57 181 41
0 0 8
0 0 0
247 33 33
16 156 16
115 140 156
0 0 0
247 132 132
16 156 16
115 140 156
0 0 0
247 16 198
16 156 16
115 140 156
0 0 0
0 0 0
0 0 0
0 0 0
0 0 0
0 0 8
0 0 0
0 0 0
0 0 0
231 181 165
16 156 16
115 140 156
0 0 0
49 247 33
0 41 8
0 0 0
0 0 0
49 214 165
0 41 8
0 0 0
0 0 0
140 41 0
0 8 57
0 0 0
0 0 0
0 16 0
0 0 0
0 189 57
0 0 0
0 0 0
57 247 0
0 0 0
57 247 0
0 0 0
57 247 0
0 0 0
0 0 0
132 214 57
57 239 222
82 24 82
189 206 239
222 222 123
57 181 82
0 0 8
0 0 0
247 41 132
16 156 16
115 140 156
0 0 0
247 0 0
16 156 16
115 140 156
0 0 0
247 33 33
16 156 16
115 140 156
0 0 0
0 0 0
0 0 0
0 0 0
0 0 0
0 0 8
0 0 0
0 0 0
0 0 0
231 181 165
16 156 16
115 140 156
0 0 0
49 255 231
0 41 8
0 0 0
0 0 0
49 231 99
0 41 8
0 0 0
0 0 0
140 41 0
0 8 57
0 0 0
0 0 0
0 16 0
0 0 0
0 189 57
0 0 0
0 0 0
57 247 0
0 0 0
57 247 0
0 0 0
57 247 0
0 0 0
0 0 0
156 247 16
57 239 206
57 115 66
189 214 140
247 49 24
57 132 247
0 0 8
0 0 0
247 140 231
16 156 16
115 140 156
0 0 0
239 247 165
16 156 16
115 140 156
0 0 0
247 41 132
16 156 16
115 140 156
0 0 0
0 0 0
0 0 0
0 0 0
0 0 0
0 0 8
0 0 0
0 0 0
0 0 0
231 181 165
16 156 16
115 140 156
0 0 0
57 8 165
0 41 8
0 0 0
0 0 0
49 247 33
0 41 8
0 0 0
0 0 0
140 41 0
0 8 57
0 0 0
0 0 0
0 16 0
0 0 0
0 189 66
0 0 0
0 0 0
57 247 0
0 0 0
57 247 0
0 0 0
57 247 0
0 0 0
0 0 0
99 140 115
57 239 198
214 198 0
189 214 148
16 198 181
189 181 123
0 0 8
0 0 0
247 49 231
16 156 16
115 140 156
0 0 0
247 156 66
16 156 16
115 140 156
0 0 0
247 140 231
16 156 16
115 140 156
0 0 0
0 0 0
0 0 0
0 0 0
0 0 0
0 0 8
0 0 0
0 0 0
0 0 0
231 181 165
16 156 16
115 140 156
0 0 0
57 24 99
0 41 8
0 0 0
0 0 0
49 255 231
0 41 8
0 0 0
0 0 0
140 41 0
0 8 57
0 0 0
0 0 0
0 16 0
0 0 0
0 189 66
0 0 0
0 0 0
57 247 0
0 0 0
57 247 0
0 0 0
57 247 0
0 0 0
0 0 0
16 247 132
57 239 214
173 222 90
189 214 33
165 189 148
189 189 90
0 0 8
0 0 0
247 66 66
16 156 16
115 140 156
0 0 0
247 165 165
16 156 16
115 140 156
0 0 0
247 49 231
16 156 16
115 140 156
0 0 0
0 0 0
0 0 0
0 0 0
0 0 0
0 0 8
0 0 0
0 0 0
0 0 0
231 181 165
16 156 16
115 140 156
0 0 0
57 41 33
0 41 8
0 0 0
0 0 0
57 8 165
0 41 8
0 0 0
0 0 0
140 41 0
0 8 57
0 0 0
0 0 0
0 16 0
0 0 0
0 189 74
0 0 0
0 0 0
57 247 0
0 0 0
57 247 0
0 0 0
57 247 0
0 0 0
0 0 0
173 33 214
57 239 231
247 198 41
189 206 41
107 41 49
189 198 24
0 0 8
0 0 0
247 74 165
16 156 16
115 140 156
0 0 0
247 181 0
16 156 16
115 140 156
0 0 0
247 66 66
16 156 16
115 140 156
0 0 0
0 0 0
0 0 0
0 0 0
0 0 0
0 0 8
0 0 0
0 0 0
0 0 0
231 181 165
16 156 16
115 140 156
0 0 0
57 49 231
0 41 8
0 0 0
0 0 0
57 24 99
0 41 8
0 0 0
0 0 0
140 41 0
0 8 57
0 0 0
0 0 0
0 16 0
0 0 0
0 189 74
0 0 0
0 0 0
57 247 0
0 0 0
57 247 0
0 0 0
57 247 0
0 0 0
0 0 0
82 66 156
57 239 239
107 189 231
189 198 156
74 231 0
189 198 24
0 0 8
0 0 0
247 90 0
16 156 16
115 140 156
0 0 0
247 181 0
16 156 16
115 140 156
0 0 0
247 74 165
16 156 16
115 140 156
0 0 0
0 0 0
0 0 0
0 0 0
0 0 0
0 0 8
0 0 0
0 0 0
0 0 0
231 181 165
16 156 16
115 140 156
0 0 0
57 66 165
0 41 8
0 0 0
0 0 0
57 41 33
0 41 8
0 0 0
0 0 0
140 41 0
0 8 57
0 0 0
0 0 0
0 16 0
0 0 0
0 189 82
0 0 0
0 0 0
57 247 0
0 0 0
57 247 0
0 0 0
57 247 0
0 0 0
0 0 0
140 115 222
57 239 239
8 206 140
189 198 33
231 140 132
189 198 16
0 0 8
0 0 0
247 99 99
16 156 16
115 140 156
0 0 0
247 189 99
16 156 16
115 140 156
0 0 0
247 90 0
16 156 16
115 140 156
0 0 0
0 0 0
0 0 0
0 0 0
0 0 0
0 0 8
0 0 0
0 0 0
0 0 0
231 181 165
16 156 16
115 140 156
0 0 0
57 82 99
0 41 8
0 0 0
0 0 0
57 49 231
0 41 8
0 0 0
0 0 0
140 41 0
0 8 57
0 0 0
0 0 0
0 16 0
0 0 0
0 189 82
0 0 0
0 0 0
57 247 0
0 0 0
57 247 0
0 0 0
57 247 0
0 0 0
0 0 0
247 206 115
57 239 247
247 239 82
189 181 239
156 198 173
189 181 198
0 0 8
0 0 0
247 214 33
16 156 16
115 140 156
0 0 0
247 198 198
16 156 16
115 140 156
0 0 0
247 99 99
16 156 16
115 140 156
0 0 0
0 0 0
0 0 0
0 0 0
0 0 0
0 0 8
0 0 0
0 0 0
0 0 0
231 181 165
16 156 16
115 140 156
0 0 0
57 99 33
0 41 8
0 0 0
0 0 0
57 66 165
0 41 8
0 0 0
0 0 0
140 41 0
0 8 57
0 0 0
0 0 0
0 16 0
0 0 0
0 189 90
0 0 0
0 0 0
57 247 0
0 0 0
57 247 0
0 0 0
57 247 0
0 0 0
0 0 0
0 206 8
57 239 255
173 148 231
189 181 198
8 82 24
189 132 74
0 0 8
0 0 0
247 107 198
16 156 16
115 140 156
0 0 0
247 222 132
16 156 16
115 140 156
0 0 0
247 214 33
16 156 16
115 140 156
0 0 0
0 0 0
0 0 0
0 0 0
0 0 0
0 0 8
0 0 0
0 0 0
0 0 0
231 181 165
16 156 16
115 140 156
0 0 0
57 107 231
0 41 8
0 0 0
0 0 0
57 82 99
0 41 8
0 0 0
0 0 0
140 41 0
0 8 57
0 0 0
0 0 0
0 16 0
0 0 0
0 189 90
0 0 0
0 0 0
57 247 0
0 0 0
57 247 0
0 0 0
57 247 0
0 0 0
0 0 0
189 33 0
57 239 247
82 255 140
189 198 16
49 115 231
57 156 132
0 0 8
0 0 0
247 123 33
16 156 16
115 140 156
0 0 0
247 231 231
16 156 16
115 140 156
0 0 0
247 107 198
16 156 16
115 140 156
0 0 0
0 0 0
0 0 0
0 0 0
0 0 0
0 0 8
0 0 0
0 0 0
0 0 0
231 181 165
16 156 16
115 140 156
0 0 0
57 123 165
0 41 8
0 0 0
0 0 0
57 99 33
0 41 8
0 0 0
0 0 0
140 41 0
0 8 57
0 0 0
0 0 0
0 16 0
0 0 0
0 189 99
0 0 0
0 0 0
57 247 0
0 0 0
57 247 0
0 0 0
57 247 0
0 0 0
0 0 0
173 115 140
57 239 247
115 90 255
189 198 99
107 247 49
57 173 231
0 0 8
0 0 0
247 231 231
16 156 16
115 140 156
0 0 0
247 222 132
16 156 16
115 140 156
0 0 0
247 107 198
16 156 16
115 140 156
0 0 0
0 0 0
0 0 0
0 0 0
0 0 0
0 0 8
0 0 0
0 0 0
0 0 0
231 181 165
16 156 16
115 140 156
0 0 0
57 140 99
0 41 8
0 0 0
0 0 0
57 107 231
0 41 8
0 0 0
0 0 0
140 41 0
0 8 57
0 0 0
0 0 0
0 16 0
0 0 0
0 189 99
0 0 0
0 0 0
57 247 0
0 0 0
57 247 0
0 0 0
57 247 0
0 0 0
0 0 0
0 132 189
57 239 255
66 115 49
189 181 206
115 156 189
189 132 123
0 0 8
0 0 0
247 222 132
16 156 16
115 140 156
0 0 0
247 247 66
16 156 16
115 140 156
0 0 0
247 214 33
16 156 16
115 140 156
0 0 0
0 0 0
0 0 0
0 0 0
0 0 0
0 0 8
0 0 0
0 0 0
0 0 0
231 181 165
16 156 16
115 140 156
0 0 0
57 156 33
0 41 8
0 0 0
0 0 0
57 123 165
0 41 8
0 0 0
0 0 0
140 41 0
0 8 57
0 0 0
0 0 0
0 16 0
0 0 0
0 189 107
0 0 0
0 0 0
57 247 0
0 0 0
57 247 0
0 0 0
57 247 0
0 0 0
0 0 0
239 33 0
57 239 247
173 41 214
189 181 231
173 41 214
189 181 231
0 0 8
0 0 0
247 214 33
16 156 16
115 140 156
0 0 0
247 247 66
16 156 16
115 140 156
0 0 0
247 198 198
16 156 16
115 140 156
0 0 0
0 0 0
0 0 0
0 0 0
0 0 0
0 0 8
0 0 0
0 0 0
0 0 0
231 181 165
16 156 16
115 140 156
0 0 0
57 165 231
0 41 8
0 0 0
0 0 0
57 140 99
0 41 8
0 0 0
0 0 0
140 41 0
0 8 57
0 0 0
0 0 0
0 16 0
0 0 0
0 189 107
0 0 0
0 0 0
57 247 0
0 0 0
57 247 0
0 0 0
57 247 0
0 0 0
0 0 0
33 99 181
57 239 247
123 74 24
189 198 0
24 115 33
189 189 214
0 0 8
0 0 0
247 99 99
16 156 16
115 140 156
0 0 0
247 198 198
16 156 16
115 140 156
0 0 0
247 189 99
16 156 16
115 140 156
0 0 0
0 0 0
0 0 0
0 0 0
0 0 0
0 0 8
0 0 0
0 0 0
0 0 0
231 181 165
16 156 16
115 140 156
0 0 0
57 181 165
0 41 8
0 0 0
0 0 0
57 156 33
0 41 8
0 0 0
0 0 0
140 41 0
0 8 57
0 0 0
0 0 0
0 16 0
0 0 0
0 189 115
0 0 0
0 0 0
57 247 0
0 0 0
57 247 0
0 0 0
57 247 0
0 0 0
0 0 0
156 132 74
57 239 231
247 222 148
189 198 255
8 189 66
189 198 90
0 0 8
0 0 0
247 90 0
16 156 16
115 140 156
0 0 0
247 189 99
16 156 16
115 140 156
0 0 0
247 181 0
16 156 16
115 140 156
0 0 0
0 0 0
0 0 0
0 0 0
0 0 0
0 0 8
0 0 0
0 0 0
0 0 0
231 181 165
16 156 16
115 140 156
0 0 0
57 198 99
0 41 8
0 0 0
0 0 0
57 165 231
0 41 8
0 0 0
0 0 0
140 41 0
0 8 57
0 0 0
0 0 0
0 16 0
0 0 0
0 189 115
0 0 0
0 0 0
57 247 0
0 0 0
57 247 0
0 0 0
57 247 0
0 0 0
0 0 0
222 222 165
57 239 231
165 33 206
189 206 8
99 107 247
189 198 49
0 0 8
0 0 0
247 181 0
16 156 16
115 140 156
0 0 0
247 165 165
16 156 16
115 140 156
0 0 0
247 66 66
16 156 16
115 140 156
0 0 0
0 0 0
0 0 0
0 0 0
0 0 0
0 0 8
0 0 0
0 0 0
0 0 0
231 181 165
16 156 16
115 140 156
0 0 0
57 214 33
0 41 8
0 0 0
0 0 0
57 181 165
0 41 8
0 0 0
0 0 0
140 41 0
0 8 57
0 0 0
0 0 0
0 16 0
0 0 0
0 189 123
0 0 0
0 0 0
57 247 0
0 0 0
57 247 0
0 0 0
57 247 0
0 0 0
0 0 0
206 247 99
57 239 214
189 74 222
189 206 74
189 74 222
189 206 74
0 0 8
0 0 0
247 165 165
16 156 16
115 140 156
0 0 0
247 156 66
16 156 16
115 140 156
0 0 0
247 49 231
16 156 16
115 140 156
0 0 0
0 0 0
0 0 0
0 0 0
0 0 0
0 0 8
0 0 0
0 0 0
0 0 0
231 181 165
16 156 16
115 140 156
0 0 0
57 222 231
0 41 8
0 0 0
0 0 0
57 198 99
0 41 8
0 0 0
0 0 0
140 41 0
0 8 57
0 0 0
0 0 0
0 16 0
0 0 0
0 189 123
0 0 0
0 0 0
57 247 0
0 0 0
57 247 0
0 0 0
57 247 0
0 0 0
0 0 0
148 132 115
57 239 206
148 198 74
189 214 115
49 0 66
189 165 41
0 0 8
0 0 0
247 156 66
16 156 16
115 140 156
0 0 0
239 239 66
16 156 16
115 140 156
0 0 0
247 140 231
16 156 16
115 140 156
0 0 0
0 0 0
0 0 0
0 0 0
0 0 0
0 0 8
0 0 0
0 0 0
0 0 0
231 181 165
16 156 16
115 140 156
0 0 0
57 239 165
0 41 8
0 0 0
0 0 0
57 214 33
0 41 8
0 0 0
0 0 0
140 41 0
0 8 57
0 0 0
0 0 0
0 16 0
0 0 0
0 189 132
0 0 0
0 0 0
57 247 0
0 0 0
57 247 0
0 0 0
57 247 0
0 0 0
0 0 0
115 57 222
57 239 206
231 99 49
189 214 115
24 189 99
189 165 181
0 0 8
0 0 0
247 140 231
16 156 16
115 140 156
0 0 0
239 239 66
16 156 16
115 140 156
0 0 0
239 247 165
16 156 16
115 140 156
0 0 0
0 0 0
0 0 0
0 0 0
0 0 0
0 0 8
0 0 0
0 0 0
0 0 0
231 181 165
16 156 16
115 140 156
0 0 0
57 255 99
0 41 8
0 0 0
0 0 0
57 222 231
0 41 8
0 0 0
0 0 0
140 41 0
0 8 57
0 0 0
0 0 0
0 16 0
0 0 0
0 189 132
0 0 0
0 0 0
57 247 0
0 0 0
57 247 0
0 0 0
57 247 0
0 0 0
0 0 0
90 198 214
57 239 222
33 8 189
189 206 255
148 148 173
57 181 49
0 0 8
0 0 0
247 41 132
16 156 16
115 140 156
0 0 0
239 247 165
16 156 16
115 140 156
0 0 0
247 0 0
16 156 16
115 140 156
0 0 0
0 0 0
0 0 0
0 0 0
0 0 0
0 0 8
0 0 0
0 0 0
0 0 0
231 181 165
16 156 16
115 140 156
0 0 0
66 8 33
0 41 8
0 0 0
0 0 0
57 239 165
0 41 8
0 0 0
0 0 0
140 41 0
0 8 57
0 0 0
0 0 0
0 16 0
0 0 0
0 189 140
0 0 0
0 0 0
57 247 0
0 0 0
57 247 0
0 0 0
57 247 0
0 0 0
0 0 0
33 173 140
57 239 239
165 49 255
189 198 181
57 132 231
57 189 0
0 0 8
0 0 0
247 33 33
16 156 16
115 140 156
0 0 0
247 0 0
16 156 16
115 140 156
0 0 0
247 132 132
16 156 16
115 140 156
0 0 0
0 0 0
0 0 0
0 0 0
0 0 0
0 0 8
0 0 0
0 0 0
0 0 0
231 181 165
16 156 16
115 140 156
0 0 0
66 16 231
0 41 8
0 0 0
0 0 0
57 255 99
0 41 8
0 0 0
0 0 0
140 41 0
0 8 57
0 0 0
0 0 0
0 16 0
0 0 0
0 189 140
0 0 0
0 0 0
57 247 0
0 0 0
57 247 0
0 0 0
57 247 0
0 0 0
0 0 0
247 57 181
57 239 247
247 57 181
189 189 247
33 255 198
57 156 41
0 0 8
0 0 0
247 132 132
16 156 16
115 140 156
0 0 0
247 231 231
16 156 16
115 140 156
0 0 0
247 123 33
16 156 16
115 140 156
0 0 0
0 0 0
0 0 0
0 0 0
0 0 0
0 0 8
0 0 0
0 0 0
0 0 0
231 181 165
16 156 16
115 140 156
0 0 0
66 33 165
0 41 8
0 0 0
0 0 0
66 8 33
0 41 8
0 0 0
0 0 0
140 41 0
0 8 57
0 0 0
0 0 0
0 16 0
0 0 0
0 189 148
0 0 0
0 0 0
57 247 0
0 0 0
57 247 0
0 0 0
57 247 0
0 0 0
0 0 0
239 206 107
57 239 247
239 206 107
189 189 247
181 90 16
189 181 247
0 0 8
0 0 0
247 0 0
16 156 16
115 140 156
0 0 0
239 247 165
16 156 16
115 140 156
0 0 0
239 239 66
16 156 16
115 140 156
0 0 0
0 0 0
0 0 0
0 0 0
0 0 0
0 0 8
0 0 0
0 0 0
0 0 0
231 198 132
16 156 16
115 140 156
0 0 0
66 49 99
0 41 8
0 0 0
0 0 0
66 16 231
0 41 8
0 0 0
0 0 0
140 41 0
0 8 57
0 0 0
0 0 0
0 16 0
0 0 0
0 189 148
0 0 0
0 0 0
57 247 0
0 0 0
57 247 0
0 0 0
57 247 0
0 0 0
0 0 0
90 99 255
57 239 247
115 123 255
189 173 189
33 33 255
189 198 24
0 0 8
0 0 0
239 239 66
16 156 16
115 140 156
0 0 0
247 132 132
16 156 16
115 140 156
0 0 0
247 0 0
16 156 16
115 140 156
0 0 0
0 0 0
0 0 0
0 0 0
0 0 0
0 0 8
0 0 0
0 0 0
0 0 0
231 198 132
16 156 16
115 140 156
0 0 0
66 66 33
0 41 8
0 0 0
0 0 0
66 33 165
0 41 8
0 0 0
0 0 0
140 41 0
0 8 57
0 0 0
0 0 0
0 16 0
0 0 0
0 189 156
0 0 0
0 0 0
57 247 0
0 0 0
57 247 0
0 0 0
57 247 0
0 0 0
0 0 0
247 140 231
57 239 239
49 156 33
189 198 214
41 222 181
189 148 132
0 0 8
0 0 0
239 239 66
16 156 16
115 140 156
0 0 0
247 156 66
16 156 16
115 140 156
0 0 0
247 132 132
16 156 16
115 140 156
0 0 0
0 0 0
0 0 0
0 0 0
0 0 0
0 0 8
0 0 0
0 0 0
0 0 0
231 198 132
16 156 16
115 140 156
0 0 0
66 74 231
0 41 8
0 0 0
0 0 0
66 49 99
0 41 8
0 0 0
0 0 0
140 41 0
0 8 57
0 0 0
0 0 0
0 16 0
0 0 0
0 189 156
0 0 0
0 0 0
57 247 0
0 0 0
57 247 0
0 0 0
57 247 0
0 0 0
0 0 0
123 247 123
57 239 255
156 173 57
189 181 115
156 173 57
189 181 115
0 0 8
0 0 0
247 156 66
16 156 16
115 140 156
0 0 0
247 165 165
16 156 16
115 140 156
0 0 0
247 132 132
16 156 16
115 140 156
0 0 0
0 0 0
0 0 0
0 0 0
0 0 0
0 0 8
0 0 0
0 0 0
0 0 0
231 198 132
16 156 16
115 140 156
0 0 0
66 90 165
0 41 8
0 0 0
0 0 0
66 66 33
0 41 8
0 0 0
0 0 0
140 41 0
0 8 57
0 0 0
0 0 0
0 16 0
0 0 0
0 189 165
0 0 0
0 0 0
57 247 0
0 0 0
57 247 0
0 0 0
57 247 0
0 0 0
0 0 0
214 0 165
57 239 247
107 206 206
189 198 99
49 90 214
189 173 66
0 0 8
0 0 0
247 165 165
16 156 16
115 140 156
0 0 0
247 181 0
16 156 16
115 140 156
0 0 0
247 132 132
16 156 16
115 140 156
0 0 0
0 0 0
0 0 0
0 0 0
0 0 0
0 0 8
0 0 0
0 0 0
0 0 0
231 198 132
16 156 16
115 140 156
0 0 0
66 107 99
0 41 8
0 0 0
0 0 0
66 74 231
0 41 8
0 0 0
0 0 0
140 41 0
0 8 57
0 0 0
0 0 0
0 16 0
0 0 0
0 189 165
0 0 0
0 0 0
57 247 0
0 0 0
57 247 0
0 0 0
57 247 0
0 0 0
0 0 0
16 231 198
57 239 231
181 206 66
189 206 156
90 214 156
189 165 231
0 0 8
0 0 0
247 181 0
16 156 16
115 140 156
0 0 0
247 189 99
16 156 16
115 140 156
0 0 0
247 132 132
16 156 16
115 140 156
0 0 0
0 0 0
0 0 0
0 0 0
0 0 0
0 0 8
0 0 0
0 0 0
0 0 0
231 198 132
16 156 16
115 140 156
0 0 0
66 123 33
0 41 8
0 0 0
0 0 0
66 90 165
0 41 8
0 0 0
0 0 0
140 41 0
0 8 57
0 0 0
0 0 0
0 16 0
0 0 0
0 189 173
0 0 0
0 0 0
57 247 0
0 0 0
57 247 0
0 0 0
57 247 0
0 0 0
0 0 0
99 41 156
57 239 247
66 24 189
189 198 165
156 74 99
189 165 24
0 0 8
0 0 0
247 189 99
16 156 16
115 140 156
0 0 0
247 231 231
16 156 16
115 140 156
0 0 0
247 132 132
16 156 16
115 140 156
0 0 0
0 0 0
0 0 0
0 0 0
0 0 0
0 0 8
0 0 0
0 0 0
0 0 0
231 198 132
16 156 16
115 140 156
0 0 0
66 132 231
0 41 8
0 0 0
0 0 0
66 107 99
0 41 8
0 0 0
0 0 0
140 41 0
0 8 57
0 0 0
0 0 0
0 16 0
0 0 0
0 189 173
0 0 0
0 0 0
57 247 0
0 0 0
57 247 0
0 0 0
57 247 0
0 0 0
0 0 0
206 198 214
57 239 239
165 41 82
189 198 214
24 0 247
189 165 16
0 0 8
0 0 0
247 189 99
16 156 16
115 140 156
0 0 0
247 198 198
16 156 16
115 140 156
0 0 0
247 231 231
16 156 16
115 140 156
0 0 0
0 0 0
0 0 0
0 0 0
0 0 0
0 0 8
0 0 0
0 0 0
0 0 0
231 198 132
16 156 16
115 140 156
0 0 0
66 148 165
0 41 8
0 0 0
0 0 0
66 123 33
0 41 8
0 0 0
0 0 0
140 41 0
0 8 57
0 0 0
0 0 0
0 16 0
0 0 0
0 189 181
0 0 0
0 0 0
57 247 0
0 0 0
57 247 0
0 0 0
57 247 0
0 0 0
0 0 0
140 156 115
57 239 222
156 74 24
189 214 24
57 173 247
189 173 16
0 0 8
0 0 0
247 198 198
16 156 16
115 140 156
0 0 0
247 247 66
16 156 16
115 140 156
0 0 0
247 231 231
16 156 16
115 140 156
0 0 0
0 0 0
0 0 0
0 0 0
0 0 0
0 0 8
0 0 0
0 0 0
0 0 0
231 198 132
16 156 16
115 140 156
0 0 0
255 173 99
16 156 16
115 140 156
0 0 0
66 132 231
0 41 8
0 0 0
0 0 0
140 41 0
0 8 57
0 0 0
0 0 0
0 16 0
0 0 0
0 189 181
0 0 0
0 0 0
57 247 0
0 0 0
57 247 0
0 0 0
57 247 0
0 0 0
0 0 0
255 57 16
57 239 231
123 181 156
189 206 107
24 74 107
189 156 8
0 0 8
0 0 0
247 247 66
16 156 16
115 140 156
0 0 0
247 222 132
16 156 16
115 140 156
0 0 0
247 231 231
16 156 16
115 140 156
0 0 0
0 0 0
0 0 0
0 0 0
0 0 0
0 0 8
0 0 0
0 0 0
0 0 0
231 198 132
16 156 16
115 140 156
0 0 0
66 181 33
0 41 8
0 0 0
0 0 0
24 99 132
16 156 16
115 140 156
0 0 0
140 41 0
0 8 57
0 0 0
0 0 0
0 16 0
0 0 0
0 198 165
0 0 0
0 0 0
57 247 0
0 0 0
57 247 0
0 0 0
57 247 0
0 0 0
0 0 0
214 24 8
57 214 181
33 181 132
57 222 140
156 24 49
189 239 82
0 0 8
0 0 0
8 82 132
16 156 16
115 140 156
0 0 0
8 90 231
16 156 16
115 140 156
0 0 0
8 107 66
16 156 16
115 140 156
0 0 0
0 0 0
0 0 0
0 0 0
0 0 0
0 0 0
0 0 0
0 0 0
0 0 0
8 0 66
16 156 16
115 140 156
0 0 0
66 189 231
0 41 8
0 0 0
0 0 0
66 165 99
0 41 8
0 0 0
0 0 0
140 41 0
0 8 57
0 0 0
0 0 0
0 16 0
0 0 0
0 198 165
0 0 0
0 0 0
57 247 0
0 0 0
57 247 0
0 0 0
57 247 0
0 0 0
0 0 0
0 140 214
57 231 0
41 140 173
57 239 49
222 99 24
189 214 148
0 0 8
0 0 0
8 115 165
16 156 16
115 140 156
0 0 0
8 132 0
16 156 16
115 140 156
0 0 0
8 90 231
16 156 16
115 140 156
0 0 0
0 0 0
0 0 0
0 0 0
0 0 0
0 0 0
0 0 0
0 0 0
0 0 0
8 0 66
16 156 16
115 140 156
0 0 0
66 206 165
0 41 8
0 0 0
0 0 0
66 181 33
0 41 8
0 0 0
0 0 0
140 41 0
0 8 57
0 0 0
0 0 0
0 16 0
0 0 0
0 198 173
0 0 0
0 0 0
57 247 0
0 0 0
57 247 0
0 0 0
57 247 0
0 0 0
0 0 0
206 181 66
57 222 231
214 41 189
57 239 123
181 66 33
57 181 24
0 0 8
0 0 0
8 140 99
16 156 16
115 140 156
0 0 0
8 148 198
16 156 16
115 140 156
0 0 0
8 132 0
16 156 16
115 140 156
0 0 0
0 0 0
0 0 0
0 0 0
0 0 0
0 0 0
0 0 0
0 0 0
0 0 0
8 0 66
16 156 16
115 140 156
0 0 0
66 222 99
0 41 8
0 0 0
0 0 0
66 189 231
0 41 8
0 0 0
0 0 0
140 41 0
0 8 57
0 0 0
0 0 0
0 16 0
0 0 0
0 198 173
0 0 0
0 0 0
57 247 0
0 0 0
57 247 0
0 0 0
57 247 0
0 0 0
0 0 0
66 148 82
57 222 90
8 198 66
57 239 82
148 8 206
57 214 247
0 0 8
0 0 0
8 140 99
16 156 16
115 140 156
0 0 0
8 165 33
16 156 16
115 140 156
0 0 0
8 148 198
16 156 16
115 140 156
0 0 0
0 0 0
0 0 0
0 0 0
0 0 0
0 0 0
0 0 0
0 0 0
0 0 0
8 0 66
16 156 16
115 140 156
0 0 0
66 239 33
0 41 8
0 0 0
0 0 0
66 206 165
0 41 8
0 0 0
0 0 0
140 41 0
0 8 57
0 0 0
0 0 0
0 16 0
0 0 0
0 198 181
0 0 0
0 0 0
57 247 0
0 0 0
57 247 0
0 0 0
57 247 0
0 0 0
0 0 0
16 107 198
57 214 33
165 66 165
57 231 148
198 148 90
57 231 222
0 0 8
0 0 0
8 173 132
16 156 16
115 140 156
0 0 0
8 181 231
16 156 16
115 140 156
0 0 0
8 165 33
16 156 16
115 140 156
0 0 0
0 0 0
0 0 0
0 0 0
0 0 0
0 0 0
0 0 0
0 0 0
0 0 0
8 0 66
16 156 16
115 140 156
0 0 0
66 247 231
0 41 8
0 0 0
0 0 0
66 222 99
0 41 8
0 0 0
0 0 0
140 41 0
0 8 57
0 0 0
0 0 0
0 16 0
0 0 0
0 198 181
0 0 0
0 0 0
57 247 0
0 0 0
57 247 0
0 0 0
57 247 0
0 0 0
0 0 0
231 206 148
189 132 231
255 206 148
57 189 206
41 24 255
57 239 255
0 0 8
0 0 0
8 198 66
16 156 16
115 140 156
0 0 0
8 206 165
16 156 16
115 140 156
0 0 0
8 181 231
16 156 16
115 140 156
0 0 0
0 0 0
0 0 0
0 0 0
0 0 0
0 0 0
0 0 0
0 0 0
0 0 0
8 0 66
16 156 16
115 140 156
0 0 0
74 0 165
0 41 8
0 0 0
0 0 0
66 239 33
0 41 8
0 0 0
0 0 0
140 41 0
0 8 57
0 0 0
0 0 0
0 16 0
0 0 0
0 198 189
0 0 0
0 0 0
57 247 0
0 0 0
57 247 0
0 0 0
57 247 0
0 0 0
0 0 0
99 82 82
189 214 189
16 99 231
189 222 156
49 239 173
57 239 74
0 0 8
0 0 0
8 222 0
16 156 16
115 140 156
0 0 0
8 231 99
16 156 16
115 140 156
0 0 0
8 206 165
16 156 16
115 140 156
0 0 0
0 0 0
0 0 0
0 0 0
0 0 0
0 0 0
0 0 0
0 0 0
0 0 0
8 0 66
16 156 16
115 140 156
0 0 0
74 16 99
0 41 8
0 0 0
0 0 0
66 247 231
0 41 8
0 0 0
0 0 0
140 41 0
0 8 57
0 0 0
0 0 0
0 16 0
0 0 0
0 198 189
0 0 0
0 0 0
57 247 0
0 0 0
57 247 0
0 0 0
57 247 0
0 0 0
0 0 0
82 214 74
189 222 214
24 66 33
189 239 57
189 33 0
57 214 189
0 0 8
0 0 0
8 239 198
16 156 16
115 140 156
0 0 0
8 255 33
16 156 16
115 140 156
0 0 0
8 231 99
16 156 16
115 140 156
0 0 0
0 0 0
0 0 0
0 0 0
0 0 0
0 0 0
0 0 0
0 0 0
0 0 0
8 0 66
16 156 16
115 140 156
0 0 0
74 33 33
0 41 8
0 0 0
0 0 0
74 0 165
0 41 8
0 0 0
0 0 0
140 41 0
0 8 57
0 0 0
0 0 0
0 16 0
0 0 0
0 198 198
0 0 0
0 0 0
57 247 0
0 0 0
57 247 0
0 0 0
57 247 0
0 0 0
0 0 0
173 231 41
189 222 231
214 49 181
189 239 123
16 8 239
189 181 41
0 0 8
0 0 0
16 0 132
16 156 16
115 140 156
0 0 0
16 8 231
16 156 16
115 140 156
0 0 0
8 255 33
16 156 16
115 140 156
0 0 0
0 0 0
0 0 0
0 0 0
0 0 0
0 0 0
0 0 0
0 0 0
0 0 0
8 0 66
16 156 16
115 140 156
0 0 0
74 41 231
0 41 8
0 0 0
0 0 0
74 16 99
0 41 8
0 0 0
0 0 0
140 41 0
0 8 57
0 0 0
0 0 0
0 16 0
0 0 0
0 198 198
0 0 0
0 0 0
57 247 0
0 0 0
57 247 0
0 0 0
57 247 0
0 0 0
0 0 0
24 148 41
189 222 107
90 214 206
189 239 82
41 189 90
189 214 214
0 0 8
0 0 0
16 0 132
16 156 16
115 140 156
0 0 0
16 24 66
16 156 16
115 140 156
0 0 0
16 8 231
16 156 16
115 140 156
0 0 0
0 0 0
0 0 0
0 0 0
0 0 0
0 0 0
0 0 0
0 0 0
0 0 0
8 0 66
16 156 16
115 140 156
0 0 0
74 57 165
0 41 8
0 0 0
0 0 0
74 33 33
0 41 8
0 0 0
0 0 0
140 41 0
0 8 57
0 0 0
0 0 0
0 16 0
0 0 0
0 198 206
0 0 0
0 0 0
57 247 0
0 0 0
57 247 0
0 0 0
57 247 0
0 0 0
0 0 0
57 222 140
189 214 41
24 8 8
189 231 156
0 156 206
189 231 214
0 0 8
0 0 0
16 33 165
16 156 16
115 140 156
0 0 0
16 49 0
16 156 16
115 140 156
0 0 0
16 24 66
16 156 16
115 140 156
0 0 0
0 0 0
0 0 0
0 0 0
0 0 0
0 0 0
0 0 0
0 0 0
0 0 0
8 0 66
16 156 16
115 140 156
0 0 0
74 74 99
0 41 8
0 0 0
0 0 0
74 41 231
0 41 8
0 0 0
0 0 0
140 41 0
0 8 57
0 0 0
0 0 0
0 16 0
0 0 0
0 198 206
0 0 0
0 0 0
57 247 0
0 0 0
57 247 0
0 0 0
57 247 0
0 0 0
0 0 0
156 90 198
57 181 181
206 132 156
189 189 41
206 181 156
189 239 247
0 0 8
0 0 0
16 57 99
16 156 16
115 140 156
0 0 0
8 107 66
16 156 16
115 140 156
0 0 0
16 49 0
16 156 16
115 140 156
0 0 0
0 0 0
0 0 0
0 0 0
0 0 0
0 0 0
0 0 0
0 0 0
0 0 0
8 0 66
16 156 16
115 140 156
0 0 0
74 90 33
0 41 8
0 0 0
0 0 0
74 57 165
0 41 8
0 0 0
0 0 0
140 41 0
0 8 57
0 0 0
0 0 0
0 16 0
0 0 0
0 198 214
0 0 0
0 0 0
57 247 0
0 0 0
57 247 0
0 0 0
57 247 0
0 0 0
0 0 0
214 24 8
57 214 181
33 181 132
57 222 140
156 24 49
189 239 82
0 0 8
0 0 0
8 107 66
16 156 16
115 140 156
0 0 0
24 90 33
16 156 16
115 140 156
0 0 0
8 82 132
16 156 16
115 140 156
0 0 0
0 0 0
0 0 0
0 0 0
0 0 0
0 0 0
0 0 0
0 0 0
0 0 0
8 0 66
16 156 16
115 140 156
0 0 0
74 99 231
0 41 8
0 0 0
0 0 0
74 74 99
0 41 8
0 0 0
0 0 0
140 41 0
0 8 57
0 0 0
0 0 0
0 16 0
0 0 0
0 198 214
0 0 0
0 0 0
57 247 0
0 0 0
57 247 0
0 0 0
57 247 0
0 0 0
0 0 0
148 231 33
57 239 239
0 140 156
189 165 198
173 165 90
189 206 49
0 0 8
0 0 0
8 90 231
16 156 16
115 140 156
0 0 0
16 115 66
16 156 16
115 140 156
0 0 0
8 107 66
16 156 16
115 140 156
0 0 0
0 0 0
0 0 0
0 0 0
0 0 0
0 0 0
0 0 0
0 0 0
0 0 0
8 0 66
16 156 16
115 140 156
0 0 0
74 115 165
0 41 8
0 0 0
0 0 0
74 90 33
0 41 8
0 0 0
0 0 0
140 41 0
0 8 57
0 0 0
0 0 0
0 16 0
0 0 0
0 198 222
0 0 0
0 0 0
57 247 0
0 0 0
57 247 0
0 0 0
57 247 0
0 0 0
0 0 0
115 239 222
57 239 214
16 255 214
189 198 247
181 33 115
189 206 189
0 0 8
0 0 0
8 107 66
16 156 16
115 140 156
0 0 0
16 115 66
16 156 16
115 140 156
0 0 0
16 49 0
16 156 16
115 140 156
0 0 0
0 0 0
0 0 0
0 0 0
0 0 0
0 0 0
0 0 0
0 0 0
0 0 0
8 0 66
16 156 16
115 140 156
0 0 0
74 132 99
0 41 8
0 0 0
0 0 0
74 99 231
0 41 8
0 0 0
0 0 0
140 41 0
0 8 57
0 0 0
0 0 0
0 16 0
0 0 0
0 198 222
0 0 0
0 0 0
57 247 0
0 0 0
57 247 0
0 0 0
57 247 0
0 0 0
0 0 0
140 115 222
57 239 181
107 24 33
189 214 198
148 165 0
189 198 148
0 0 8
0 0 0
16 49 0
16 156 16
115 140 156
0 0 0
16 123 165
16 156 16
115 140 156
0 0 0
16 24 66
16 156 16
115 140 156
0 0 0
0 0 0
0 0 0
0 0 0
0 0 0
0 0 0
0 0 0
0 0 0
0 0 0
8 0 66
16 156 16
115 140 156
0 0 0
74 148 33
0 41 8
0 0 0
0 0 0
74 115 165
0 41 8
0 0 0
0 0 0
140 41 0
0 8 57
0 0 0
0 0 0
0 16 0
0 0 0
0 198 231
0 0 0
0 0 0
57 247 0
0 0 0
57 247 0
0 0 0
57 247 0
0 0 0
0 0 0
24 239 90
57 239 132
66 206 132
189 222 198
132 99 222
189 181 148
0 0 8
0 0 0
16 24 66
16 156 16
115 140 156
0 0 0
16 140 0
16 156 16
115 140 156
0 0 0
16 8 231
16 156 16
115 140 156
0 0 0
0 0 0
0 0 0
0 0 0
0 0 0
0 0 0
0 0 0
0 0 0
0 0 0
8 0 66
16 156 16
115 140 156
0 0 0
74 156 231
0 41 8
0 0 0
0 0 0
74 132 99
0 41 8
0 0 0
0 0 0
140 41 0
0 8 57
0 0 0
0 0 0
0 16 0
0 0 0
0 198 231
0 0 0
0 0 0
57 247 0
0 0 0
57 247 0
0 0 0
57 247 0
0 0 0
0 0 0
239 57 189
57 239 132
82 82 90
189 222 214
99 239 181
57 148 148
0 0 8
0 0 0
16 8 231
16 156 16
115 140 156
0 0 0
16 148 99
16 156 16
115 140 156
0 0 0
8 255 33
16 156 16
115 140 156
0 0 0
0 0 0
0 0 0
0 0 0
0 0 0
0 0 0
0 0 0
0 0 0
0 0 0
8 0 66
16 156 16
115 140 156
0 0 0
74 173 165
0 41 8
0 0 0
0 0 0
74 148 33
0 41 8
0 0 0
0 0 0
140 41 0
0 8 57
0 0 0
0 0 0
0 16 0
0 0 0
0 198 239
0 0 0
0 0 0
57 247 0
0 0 0
57 247 0
0 0 0
57 247 0
0 0 0
0 0 0
99 156 189
57 239 140
0 247 123
189 222 115
181 33 132
57 198 239
0 0 8
0 0 0
8 255 33
16 156 16
115 140 156
0 0 0
16 156 198
16 156 16
115 140 156
0 0 0
8 231 99
16 156 16
115 140 156
0 0 0
0 0 0
0 0 0
0 0 0
0 0 0
0 0 0
0 0 0
0 0 0
0 0 0
8 0 66
16 156 16
115 140 156
0 0 0
74 189 99
0 41 8
0 0 0
0 0 0
74 156 231
0 41 8
0 0 0
0 0 0
140 41 0
0 8 57
0 0 0
0 0 0
0 16 0
0 0 0
0 198 239
0 0 0
0 0 0
57 247 0
0 0 0
57 247 0
0 0 0
57 247 0
0 0 0
0 0 0
255 90 231
57 239 165
33 255 24
189 214 82
156 57 107
57 214 66
0 0 8
0 0 0
8 231 99
16 156 16
115 140 156
0 0 0
16 173 33
16 156 16
115 140 156
0 0 0
8 206 165
16 156 16
115 140 156
0 0 0
0 0 0
0 0 0
0 0 0
0 0 0
0 0 0
0 0 0
0 0 0
0 0 0
8 0 66
16 156 16
115 140 156
0 0 0
74 206 33
0 41 8
0 0 0
0 0 0
74 173 165
0 41 8
0 0 0
0 0 0
140 41 0
0 8 57
0 0 0
0 0 0
0 16 0
0 0 0
0 198 247
0 0 0
0 0 0
57 247 0
0 0 0
57 247 0
0 0 0
57 247 0
0 0 0
0 0 0
231 66 24
57 239 189
239 132 16
189 198 123
239 132 16
57 214 123
0 0 8
0 0 0
8 206 165
16 156 16
115 140 156
0 0 0
16 173 33
16 156 16
115 140 156
0 0 0
8 181 231
16 156 16
115 140 156
0 0 0
0 0 0
0 0 0
0 0 0
0 0 0
0 0 0
0 0 0
0 0 0
0 0 0
8 0 66
16 156 16
115 140 156
0 0 0
74 214 231
0 41 8
0 0 0
0 0 0
74 189 99
0 41 8
0 0 0
0 0 0
140 41 0
0 8 57
0 0 0
0 0 0
0 16 0
0 0 0
0 198 247
0 0 0
0 0 0
57 247 0
0 0 0
57 247 0
0 0 0
57 247 0
0 0 0
0 0 0
231 222 66
57 239 222
99 115 206
57 123 198
107 57 181
57 206 255
0 0 8
0 0 0
8 181 231
16 156 16
115 140 156
0 0 0
16 181 132
16 156 16
115 140 156
0 0 0
8 165 33
16 156 16
115 140 156
0 0 0
0 0 0
0 0 0
0 0 0
0 0 0
0 0 0
0 0 0
0 0 0
0 0 0
8 0 66
16 156 16
115 140 156
0 0 0
74 231 165
0 41 8
0 0 0
0 0 0
74 206 33
0 41 8
0 0 0
0 0 0
140 41 0
0 8 57
0 0 0
0 0 0
0 16 0
0 0 0
0 198 255
0 0 0
0 0 0
57 247 0
0 0 0
57 247 0
0 0 0
57 247 0
0 0 0
0 0 0
99 0 255
57 239 239
239 173 115
57 189 156
49 239 173
57 198 206
0 0 8
0 0 0
8 165 33
16 156 16
115 140 156
0 0 0
16 189 231
16 156 16
115 140 156
0 0 0
8 148 198
16 156 16
115 140 156
0 0 0
0 0 0
0 0 0
0 0 0
0 0 0
0 0 0
0 0 0
0 0 0
0 0 0
8 0 66
16 156 16
115 140 156
0 0 0
74 247 99
0 41 8
0 0 0
0 0 0
74 214 231
0 41 8
0 0 0
0 0 0
140 41 0
0 8 57
0 0 0
0 0 0
0 16 0
0 0 0
0 198 255
0 0 0
0 0 0
57 247 0
0 0 0
57 247 0
0 0 0
57 247 0
0 0 0
0 0 0
24 49 107
57 239 247
255 165 41
57 198 57
115 33 66
57 173 132
0 0 8
0 0 0
8 148 198
16 156 16
115 140 156
0 0 0
16 206 66
16 156 16
115 140 156
0 0 0
8 132 0
16 156 16
115 140 156
0 0 0
0 0 0
0 0 0
0 0 0
0 0 0
0 0 0
0 0 0
0 0 0
0 0 0
8 0 66
16 156 16
115 140 156
0 0 0
82 0 33
0 41 8
0 0 0
0 0 0
74 231 165
0 41 8
0 0 0
0 0 0
140 41 0
0 8 57
0 0 0
0 0 0
0 16 0
0 0 0
0 206 0
0 0 0
0 0 0
57 247 0
0 0 0
57 247 0
0 0 0
57 247 0
0 0 0
0 0 0
123 24 132
57 239 255
222 8 90
57 181 41
57 115 206
189 181 189
0 0 8
0 0 0
8 132 0
16 156 16
115 140 156
0 0 0
16 214 165
16 156 16
115 140 156
0 0 0
8 90 231
16 156 16
115 140 156
0 0 0
0 0 0
0 0 0
0 0 0
0 0 0
0 0 0
0 0 0
0 0 0
0 0 0
8 0 66
16 156 16
115 140 156
0 0 0
82 8 231
0 41 8
0 0 0
0 0 0
74 247 99
0 41 8
0 0 0
0 0 0
140 41 0
0 8 57
0 0 0
0 0 0
0 16 0
0 0 0
0 206 0
0 0 0
0 0 0
57 247 0
0 0 0
57 247 0
0 0 0
57 247 0
0 0 0
0 0 0
247 181 33
57 239 247
16 74 24
57 181 198
16 255 132
189 198 8
0 0 8
0 0 0
8 132 0
16 156 16
115 140 156
0 0 0
16 206 66
16 156 16
115 140 156
0 0 0
16 214 165
16 156 16
115 140 156
0 0 0
0 0 0
0 0 0
0 0 0
0 0 0
0 0 0
0 0 0
0 0 0
0 0 0
8 0 66
16 156 16
115 140 156
0 0 0
82 24 165
0 41 8
0 0 0
0 0 0
82 0 33
0 41 8
0 0 0
0 0 0
140 41 0
0 8 57
0 0 0
0 0 0
0 16 0
0 0 0
0 206 8
0 0 0
0 0 0
57 247 0
0 0 0
57 247 0
0 0 0
57 247 0
0 0 0
0 0 0
148 82 165
57 239 247
255 99 16
57 198 132
165 66 231
57 165 198
0 0 8
0 0 0
8 148 198
16 156 16
115 140 156
0 0 0
24 41 165
16 156 16
115 140 156
0 0 0
16 206 66
16 156 16
115 140 156
0 0 0
0 0 0
0 0 0
0 0 0
0 0 0
0 0 0
0 0 0
0 0 0
0 0 0
8 0 66
16 156 16
115 140 156
0 0 0
82 41 99
0 41 8
0 0 0
0 0 0
82 8 231
0 41 8
0 0 0
0 0 0
140 41 0
0 8 57
0 0 0
0 0 0
0 16 0
0 0 0
0 206 8
0 0 0
0 0 0
57 247 0
0 0 0
57 247 0
0 0 0
57 247 0
0 0 0
0 0 0
181 156 0
57 239 231
222 0 115
57 198 8
198 74 107
57 206 41
0 0 8
0 0 0
16 189 231
16 156 16
115 140 156
0 0 0
24 41 165
16 156 16
115 140 156
0 0 0
8 148 198
16 156 16
115 140 156
0 0 0
0 0 0
0 0 0
0 0 0
0 0 0
0 0 0
0 0 0
0 0 0
0 0 0
8 0 66
16 156 16
115 140 156
0 0 0
82 57 33
0 41 8
0 0 0
0 0 0
82 24 165
0 41 8
0 0 0
0 0 0
140 41 0
0 8 57
0 0 0
0 0 0
0 16 0
0 0 0
0 206 16
0 0 0
0 0 0
57 247 0
0 0 0
57 247 0
0 0 0
57 247 0
0 0 0
0 0 0
198 57 123
57 239 206
41 148 99
57 132 74
90 239 140
57 214 115
0 0 8
0 0 0
16 181 132
16 156 16
115 140 156
0 0 0
16 189 231
16 156 16
115 140 156
0 0 0
8 165 33
16 156 16
115 140 156
0 0 0
0 0 0
0 0 0
0 0 0
0 0 0
0 0 0
0 0 0
0 0 0
0 0 0
8 0 66
16 156 16
115 140 156
0 0 0
82 66 231
0 41 8
0 0 0
0 0 0
82 41 99
0 41 8
0 0 0
0 0 0
140 41 0
0 8 57
0 0 0
0 0 0
0 16 0
0 0 0
0 206 16
0 0 0
0 0 0
57 247 0
0 0 0
57 247 0
0 0 0
57 247 0
0 0 0
0 0 0
231 66 24
57 239 189
239 132 16
189 198 123
239 132 16
57 214 123
0 0 8
0 0 0
16 173 33
16 156 16
115 140 156
0 0 0
16 181 132
16 156 16
115 140 156
0 0 0
8 181 231
16 156 16
115 140 156
0 0 0
0 0 0
0 0 0
0 0 0
0 0 0
0 0 0
0 0 0
0 0 0
0 0 0
8 0 66
16 156 16
115 140 156
0 0 0
82 82 165
0 41 8
0 0 0
0 0 0
82 57 33
0 41 8
0 0 0
0 0 0
140 41 0
0 8 57
0 0 0
0 0 0
0 16 0
0 0 0
0 206 24
0 0 0
0 0 0
57 247 0
0 0 0
57 247 0
0 0 0
57 247 0
0 0 0
0 0 0
189 8 90
57 239 156
132 90 82
189 214 57
156 222 206
57 214 140
0 0 8
0 0 0
8 231 99
16 156 16
115 140 156
0 0 0
16 156 198
16 156 16
115 140 156
0 0 0
16 173 33
16 156 16
115 140 156
0 0 0
0 0 0
0 0 0
0 0 0
0 0 0
0 0 0
0 0 0
0 0 0
0 0 0
8 0 66
16 156 16
115 140 156
0 0 0
82 99 99
0 41 8
0 0 0
0 0 0
82 66 231
0 41 8
0 0 0
0 0 0
140 41 0
0 8 57
0 0 0
0 0 0
0 16 0
0 0 0
0 206 24
0 0 0
0 0 0
57 247 0
0 0 0
57 247 0
0 0 0
57 247 0
0 0 0
0 0 0
41 156 0
57 239 140
115 90 165
189 222 115
247 156 24
57 198 247
0 0 8
0 0 0
8 255 33
16 156 16
115 140 156
0 0 0
16 148 99
16 156 16
115 140 156
0 0 0
16 156 198
16 156 16
115 140 156
0 0 0
0 0 0
0 0 0
0 0 0
0 0 0
0 0 0
0 0 0
0 0 0
0 0 0
8 0 66
16 156 16
115 140 156
0 0 0
82 115 33
0 41 8
0 0 0
0 0 0
82 82 165
0 41 8
0 0 0
0 0 0
140 41 0
0 8 57
0 0 0
0 0 0
0 16 0
0 0 0
0 206 33
0 0 0
0 0 0
57 247 0
0 0 0
57 247 0
0 0 0
57 247 0
0 0 0
0 0 0
82 148 140
57 239 123
231 41 140
189 222 231
231 140 198
57 156 132
0 0 8
0 0 0
16 8 231
16 156 16
115 140 156
0 0 0
16 239 99
16 156 16
115 140 156
0 0 0
16 148 99
16 156 16
115 140 156
0 0 0
0 0 0
0 0 0
0 0 0
0 0 0
0 0 0
0 0 0
0 0 0
0 0 0
8 0 66
16 156 16
115 140 156
0 0 0
82 123 231
0 41 8
0 0 0
0 0 0
82 99 99
0 41 8
0 0 0
0 0 0
140 41 0
0 8 57
0 0 0
0 0 0
0 16 0
0 0 0
0 206 33
0 0 0
0 0 0
57 247 0
0 0 0
57 247 0
0 0 0
57 247 0
0 0 0
0 0 0
0 90 222
57 239 140
173 165 247
189 222 181
214 8 123
189 181 66
0 0 8
0 0 0
16 140 0
16 156 16
115 140 156
0 0 0
16 239 99
16 156 16
115 140 156
0 0 0
16 8 231
16 156 16
115 140 156
0 0 0
0 0 0
0 0 0
0 0 0
0 0 0
0 0 0
0 0 0
0 0 0
0 0 0
8 0 66
16 156 16
115 140 156
0 0 0
82 140 165
0 41 8
0 0 0
0 0 0
82 115 33
0 41 8
0 0 0
0 0 0
140 41 0
0 8 57
0 0 0
0 0 0
0 16 0
0 0 0
0 206 41
0 0 0
0 0 0
57 247 0
0 0 0
57 247 0
0 0 0
57 247 0
0 0 0
0 0 0
99 132 165
57 239 165
8 99 123
189 214 189
99 132 165
189 206 165
0 0 8
0 0 0
16 123 165
16 156 16
115 140 156
0 0 0
16 140 0
16 156 16
115 140 156
0 0 0
16 24 66
16 156 16
115 140 156
0 0 0
0 0 0
0 0 0
0 0 0
0 0 0
0 0 0
0 0 0
0 0 0
0 0 0
8 0 66
16 156 16
115 140 156
0 0 0
82 156 99
0 41 8
0 0 0
0 0 0
82 123 231
0 41 8
0 0 0
0 0 0
140 41 0
0 8 57
0 0 0
0 0 0
0 16 0
0 0 0
0 206 41
0 0 0
0 0 0
57 247 0
0 0 0
57 247 0
0 0 0
57 247 0
0 0 0
0 0 0
214 0 247
57 239 214
24 173 165
189 206 57
49 90 165
189 206 99
0 0 8
0 0 0
16 115 66
16 156 16
115 140 156
0 0 0
16 123 165
16 156 16
115 140 156
0 0 0
16 49 0
16 156 16
115 140 156
0 0 0
0 0 0
0 0 0
0 0 0
0 0 0
0 0 0
0 0 0
0 0 0
0 0 0
8 0 66
16 156 16
115 140 156
0 0 0
82 173 33
0 41 8
0 0 0
0 0 0
82 140 165
0 41 8
0 0 0
0 0 0
140 41 0
0 8 57
0 0 0
0 0 0
0 16 0
0 0 0
0 206 49
0 0 0
0 0 0
57 247 0
0 0 0
57 247 0
0 0 0
57 247 0
0 0 0
0 0 0
148 132 66
57 239 239
49 140 132
189 165 198
231 148 66
189 206 49
0 0 8
0 0 0
8 90 231
16 156 16
115 140 156
0 0 0
16 214 165
16 156 16
115 140 156
0 0 0
16 115 66
16 156 16
115 140 156
0 0 0
0 0 0
0 0 0
0 0 0
0 0 0
0 0 0
0 0 0
0 0 0
0 0 0
8 0 66
16 156 16
115 140 156
0 0 0
82 181 231
0 41 8
0 0 0
0 0 0
82 156 99
0 41 8
0 0 0
0 0 0
140 41 0
0 8 57
0 0 0
0 0 0
0 16 0
0 0 0
0 206 49
0 0 0
0 0 0
57 247 0
0 0 0
57 247 0
0 0 0
57 247 0
0 0 0
0 0 0
189 140 214
57 222 173
41 41 173
57 239 66
0 173 8
189 214 206
0 0 8
0 0 0
8 90 231
16 156 16
115 140 156
0 0 0
8 82 132
16 156 16
115 140 156
0 0 0
8 115 165
16 156 16
115 140 156
0 0 0
0 0 0
0 0 0
0 0 0
0 0 0
0 0 0
0 0 0
0 0 0
0 0 0
8 0 66
16 156 16
115 140 156
0 0 0
82 198 165
0 41 8
0 0 0
0 0 0
82 173 33
0 41 8
0 0 0
0 0 0
140 41 0
0 8 57
0 0 0
0 0 0
0 16 0
0 0 0
0 206 57
0 0 0
0 0 0
57 247 0
0 0 0
57 247 0
0 0 0
57 247 0
0 0 0
0 0 0
206 181 66
57 222 231
214 41 189
57 239 123
181 66 33
57 181 24
0 0 8
0 0 0
8 132 0
16 156 16
115 140 156
0 0 0
8 115 165
16 156 16
115 140 156
0 0 0
8 140 99
16 156 16
115 140 156
0 0 0
0 0 0
0 0 0
0 0 0
0 0 0
0 0 0
0 0 0
0 0 0
0 0 0
8 0 66
16 156 16
115 140 156
0 0 0
82 214 99
0 41 8
0 0 0
0 0 0
82 181 231
0 41 8
0 0 0
0 0 0
140 41 0
0 8 57
0 0 0
0 0 0
0 16 0
0 0 0
0 206 57
0 0 0
0 0 0
57 247 0
0 0 0
57 247 0
0 0 0
57 247 0
0 0 0
0 0 0
66 148 82
57 222 90
8 198 66
57 239 82
148 8 206
57 214 247
0 0 8
0 0 0
8 140 99
16 156 16
115 140 156
0 0 0
8 173 132
16 156 16
115 140 156
0 0 0
8 165 33
16 156 16
115 140 156
0 0 0
0 0 0
0 0 0
0 0 0
0 0 0
0 0 0
0 0 0
0 0 0
0 0 0
8 0 66
16 156 16
115 140 156
0 0 0
82 231 33
0 41 8
0 0 0
0 0 0
82 198 165
0 41 8
0 0 0
0 0 0
140 41 0
0 8 57
0 0 0
0 0 0
0 16 0
0 0 0
0 206 66
0 0 0
0 0 0
57 247 0
0 0 0
57 247 0
0 0 0
57 247 0
0 0 0
0 0 0
140 107 49
57 214 41
148 247 156
57 231 148
82 206 206
57 231 222
0 0 8
0 0 0
8 173 132
16 156 16
115 140 156
0 0 0
8 198 66
16 156 16
115 140 156
0 0 0
8 181 231
16 156 16
115 140 156
0 0 0
0 0 0
0 0 0
0 0 0
0 0 0
0 0 0
0 0 0
0 0 0
0 0 0
8 0 66
16 156 16
115 140 156
0 0 0
82 239 231
0 41 8
0 0 0
0 0 0
82 214 99
0 41 8
0 0 0
0 0 0
140 41 0
0 8 57
0 0 0
0 0 0
0 16 0
0 0 0
0 206 66
0 0 0
0 0 0
57 247 0
0 0 0
57 247 0
0 0 0
57 247 0
0 0 0
0 0 0
156 231 189
189 181 206
231 189 123
57 189 99
148 140 24
57 239 247
0 0 8
0 0 0
8 198 66
16 156 16
115 140 156
0 0 0
16 99 231
16 156 16
115 140 156
0 0 0
8 206 165
16 156 16
115 140 156
0 0 0
0 0 0
0 0 0
0 0 0
0 0 0
0 0 0
0 0 0
0 0 0
0 0 0
8 0 66
16 156 16
115 140 156
0 0 0
82 255 165
0 41 8
0 0 0
0 0 0
82 231 33
0 41 8
0 0 0
0 0 0
140 41 0
0 8 57
0 0 0
0 0 0
0 16 0
0 0 0
0 206 74
0 0 0
0 0 0
57 247 0
0 0 0
57 247 0
0 0 0
57 247 0
0 0 0
0 0 0
57 198 41
189 222 16
99 123 24
189 222 82
0 66 90
57 239 74
0 0 8
0 0 0
8 206 165
16 156 16
115 140 156
0 0 0
16 99 231
16 156 16
115 140 156
0 0 0
8 222 0
16 156 16
115 140 156
0 0 0
0 0 0
0 0 0
0 0 0
0 0 0
0 0 0
0 0 0
0 0 0
0 0 0
8 0 66
16 156 16
115 140 156
0 0 0
90 8 99
0 41 8
0 0 0
0 0 0
82 239 231
0 41 8
0 0 0
0 0 0
140 41 0
0 8 57
0 0 0
0 0 0
0 16 0
0 0 0
0 206 74
0 0 0
0 0 0
57 247 0
0 0 0
57 247 0
0 0 0
57 247 0
0 0 0
0 0 0
8 222 8
189 222 173
90 156 156
189 239 74
222 165 33
57 214 181
0 0 8
0 0 0
8 231 99
16 156 16
115 140 156
0 0 0
8 222 0
16 156 16
115 140 156
0 0 0
8 239 198
16 156 16
115 140 156
0 0 0
0 0 0
0 0 0
0 0 0
0 0 0
0 0 0
0 0 0
0 0 0
0 0 0
8 0 66
16 156 16
115 140 156
0 0 0
90 24 33
0 41 8
0 0 0
0 0 0
82 255 165
0 41 8
0 0 0
0 0 0
140 41 0
0 8 57
0 0 0
0 0 0
0 16 0
0 0 0
0 206 82
0 0 0
0 0 0
57 247 0
0 0 0
57 247 0
0 0 0
57 247 0
0 0 0
0 0 0
255 222 206
189 222 173
74 49 24
189 239 140
82 8 41
189 181 132
0 0 8
0 0 0
8 255 33
16 156 16
115 140 156
0 0 0
8 239 198
16 156 16
115 140 156
0 0 0
16 0 132
16 156 16
115 140 156
0 0 0
0 0 0
0 0 0
0 0 0
0 0 0
0 0 0
0 0 0
0 0 0
0 0 0
8 0 66
16 156 16
115 140 156
0 0 0
90 33 231
0 41 8
0 0 0
0 0 0
90 8 99
0 41 8
0 0 0
0 0 0
140 41 0
0 8 57
0 0 0
0 0 0
0 16 0
0 0 0
0 206 82
0 0 0
0 0 0
57 247 0
0 0 0
57 247 0
0 0 0
57 247 0
0 0 0
0 0 0
24 148 41
189 222 107
90 214 206
189 239 82
41 189 90
189 214 214
0 0 8
0 0 0
16 0 132
16 156 16
115 140 156
0 0 0
16 33 165
16 156 16
115 140 156
0 0 0
16 24 66
16 156 16
115 140 156
0 0 0
0 0 0
0 0 0
0 0 0
0 0 0
0 0 0
0 0 0
0 0 0
0 0 0
8 0 66
16 156 16
115 140 156
0 0 0
90 49 165
0 41 8
0 0 0
0 0 0
90 24 33
0 41 8
0 0 0
0 0 0
140 41 0
0 8 57
0 0 0
0 0 0
0 16 0
0 0 0
0 206 90
0 0 0
0 0 0
57 247 0
0 0 0
57 247 0
0 0 0
57 247 0
0 0 0
0 0 0
16 82 148
57 181 231
123 156 165
189 189 74
148 222 214
189 239 247
0 0 8
0 0 0
16 57 99
16 156 16
115 140 156
0 0 0
24 90 33
16 156 16
115 140 156
0 0 0
8 107 66
16 156 16
115 140 156
0 0 0
0 0 0
0 0 0
0 0 0
0 0 0
0 0 0
0 0 0
0 0 0
0 0 0
8 0 66
16 156 16
115 140 156
0 0 0
90 66 99
0 41 8
0 0 0
0 0 0
90 33 231
0 41 8
0 0 0
0 0 0
140 41 0
0 8 57
0 0 0
0 0 0
0 16 0
0 0 0
0 206 90
0 0 0
0 0 0
57 247 0
0 0 0
57 247 0
0 0 0
57 247 0
0 0 0
0 0 0
57 222 140
189 214 41
24 8 8
189 231 156
0 156 206
189 231 214
0 0 8
0 0 0
16 33 165
16 156 16
115 140 156
0 0 0
16 57 99
16 156 16
115 140 156
0 0 0
16 49 0
16 156 16
115 140 156
0 0 0
0 0 0
0 0 0
0 0 0
0 0 0
0 0 0
0 0 0
0 0 0
0 0 0
8 0 66
16 156 16
115 140 156
0 0 0
90 82 33
0 41 8
0 0 0
0 0 0
90 49 165
0 41 8
0 0 0
0 0 0
140 41 0
0 8 57
0 0 0
0 0 0
0 16 0
0 0 0
0 206 99
0 0 0
0 0 0
57 247 0
0 0 0
57 247 0
0 0 0
57 247 0
0 0 0
0 0 0
57 123 90
57 239 247
173 99 57
189 189 222
198 0 24
189 181 165
0 0 8
0 0 0
16 214 165
16 156 16
115 140 156
0 0 0
16 231 0
16 156 16
115 140 156
0 0 0
16 115 66
16 156 16
115 140 156
0 0 0
0 0 0
0 0 0
0 0 0
0 0 0
0 0 8
0 0 0
0 0 0
0 0 0
8 16 33
16 156 16
115 140 156
0 0 0
90 90 231
0 41 8
0 0 0
0 0 0
90 66 99
0 41 8
0 0 0
0 0 0
140 41 0
0 8 57
0 0 0
0 0 0
0 16 0
0 0 0
0 206 99
0 0 0
0 0 0
57 247 0
0 0 0
57 247 0
0 0 0
57 247 0
0 0 0
0 0 0
198 8 49
57 239 231
16 8 189
189 206 33
82 132 247
189 189 49
0 0 8
0 0 0
16 115 66
16 156 16
115 140 156
0 0 0
16 231 0
16 156 16
115 140 156
0 0 0
16 123 165
16 156 16
115 140 156
0 0 0
0 0 0
0 0 0
0 0 0
0 0 0
0 0 8
0 0 0
0 0 0
0 0 0
8 16 33
16 156 16
115 140 156
0 0 0
90 107 165
0 41 8
0 0 0
0 0 0
90 82 33
0 41 8
0 0 0
0 0 0
140 41 0
0 8 57
0 0 0
0 0 0
0 16 0
0 0 0
0 206 107
0 0 0
0 0 0
57 247 0
0 0 0
57 247 0
0 0 0
57 247 0
0 0 0
0 0 0
66 181 222
57 239 231
255 239 74
189 206 90
189 24 198
189 181 214
0 0 8
0 0 0
16 123 165
16 156 16
115 140 156
0 0 0
16 90 132
16 156 16
115 140 156
0 0 0
16 140 0
16 156 16
115 140 156
0 0 0
0 0 0
0 0 0
0 0 0
0 0 0
0 0 8
0 0 0
0 0 0
0 0 0
8 16 33
16 156 16
115 140 156
0 0 0
90 123 99
0 41 8
0 0 0
0 0 0
90 90 231
0 41 8
0 0 0
0 0 0
140 41 0
0 8 57
0 0 0
0 0 0
0 16 0
0 0 0
0 206 107
0 0 0
0 0 0
57 247 0
0 0 0
57 247 0
0 0 0
57 247 0
0 0 0
0 0 0
189 107 231
57 239 206
148 123 148
189 214 140
148 148 222
189 140 0
0 0 8
0 0 0
16 140 0
16 156 16
115 140 156
0 0 0
16 82 33
16 156 16
115 140 156
0 0 0
16 239 99
16 156 16
115 140 156
0 0 0
0 0 0
0 0 0
0 0 0
0 0 0
0 0 8
0 0 0
0 0 0
0 0 0
8 16 33
16 156 16
115 140 156
0 0 0
90 140 33
0 41 8
0 0 0
0 0 0
90 107 165
0 41 8
0 0 0
0 0 0
140 41 0
0 8 57
0 0 0
0 0 0
0 16 0
0 0 0
0 206 115
0 0 0
0 0 0
57 247 0
0 0 0
57 247 0
0 0 0
57 247 0
0 0 0
0 0 0
173 255 49
57 239 206
16 90 33
189 214 107
231 90 0
57 165 247
0 0 8
0 0 0
16 239 99
16 156 16
115 140 156
0 0 0
16 247 198
16 156 16
115 140 156
0 0 0
16 148 99
16 156 16
115 140 156
0 0 0
0 0 0
0 0 0
0 0 0
0 0 0
0 0 8
0 0 0
0 0 0
0 0 0
8 16 33
16 156 16
115 140 156
0 0 0
90 148 231
0 41 8
0 0 0
0 0 0
90 123 99
0 41 8
0 0 0
0 0 0
140 41 0
0 8 57
0 0 0
0 0 0
0 16 0
0 0 0
0 206 115
0 0 0
0 0 0
57 247 0
0 0 0
57 247 0
0 0 0
57 247 0
0 0 0
0 0 0
66 16 222
57 239 206
165 206 156
189 214 74
99 206 156
57 189 239
0 0 8
0 0 0
16 148 99
16 156 16
115 140 156
0 0 0
24 0 33
16 156 16
115 140 156
0 0 0
16 156 198
16 156 16
115 140 156
0 0 0
0 0 0
0 0 0
0 0 0
0 0 0
0 0 8
0 0 0
0 0 0
0 0 0
8 16 33
16 156 16
115 140 156
0 0 0
90 165 165
0 41 8
0 0 0
0 0 0
90 140 33
0 41 8
0 0 0
0 0 0
140 41 0
0 8 57
0 0 0
0 0 0
0 16 0
0 0 0
0 206 123
0 0 0
0 0 0
57 247 0
0 0 0
57 247 0
0 0 0
57 247 0
0 0 0
0 0 0
140 33 156
57 239 214
132 214 115
189 206 90
181 107 57
57 206 0
0 0 8
0 0 0
16 156 198
16 156 16
115 140 156
0 0 0
24 8 132
16 156 16
115 140 156
0 0 0
16 173 33
16 156 16
115 140 156
0 0 0
0 0 0
0 0 0
0 0 0
0 0 0
0 0 8
0 0 0
0 0 0
0 0 0
8 16 33
16 156 16
115 140 156
0 0 0
90 181 99
0 41 8
0 0 0
0 0 0
90 148 231
0 41 8
0 0 0
0 0 0
140 41 0
0 8 57
0 0 0
0 0 0
0 16 0
0 0 0
0 206 123
0 0 0
0 0 0
57 247 0
0 0 0
57 247 0
0 0 0
57 247 0
0 0 0
0 0 0
16 189 0
57 239 222
156 173 115
189 198 198
140 8 132
57 206 33
0 0 8
0 0 0
16 173 33
16 156 16
115 140 156
0 0 0
24 8 132
16 156 16
115 140 156
0 0 0
16 181 132
16 156 16
115 140 156
0 0 0
0 0 0
0 0 0
0 0 0
0 0 0
0 0 8
0 0 0
0 0 0
0 0 0
8 16 33
16 156 16
115 140 156
0 0 0
90 198 33
0 41 8
0 0 0
0 0 0
90 165 165
0 41 8
0 0 0
0 0 0
140 41 0
0 8 57
0 0 0
0 0 0
0 16 0
0 0 0
0 206 132
0 0 0
0 0 0
57 247 0
0 0 0
57 247 0
0 0 0
57 247 0
0 0 0
0 0 0
49 16 8
57 239 231
206 247 214
189 198 132
231 222 148
57 198 165
0 0 8
0 0 0
16 181 132
16 156 16
115 140 156
0 0 0
24 16 231
16 156 16
115 140 156
0 0 0
16 189 231
16 156 16
115 140 156
0 0 0
0 0 0
0 0 0
0 0 0
0 0 0
0 0 8
0 0 0
0 0 0
0 0 0
8 16 33
16 156 16
115 140 156
0 0 0
90 206 231
0 41 8
0 0 0
0 0 0
90 181 99
0 41 8
0 0 0
0 0 0
140 41 0
0 8 57
0 0 0
0 0 0
0 16 0
0 0 0
0 206 132
0 0 0
0 0 0
57 247 0
0 0 0
57 247 0
0 0 0
57 247 0
0 0 0
0 0 0
99 16 8
57 239 247
198 206 214
189 181 8
198 206 214
57 198 8
0 0 8
0 0 0
16 189 231
16 156 16
115 140 156
0 0 0
24 33 66
16 156 16
115 140 156
0 0 0
24 41 165
16 156 16
115 140 156
0 0 0
0 0 0
0 0 0
0 0 0
0 0 0
0 0 8
0 0 0
0 0 0
0 0 0
8 16 33
16 156 16
115 140 156
0 0 0
90 222 165
0 41 8
0 0 0
0 0 0
90 198 33
0 41 8
0 0 0
0 0 0
140 41 0
0 8 57
0 0 0
0 0 0
0 16 0
0 0 0
0 206 140
0 0 0
0 0 0
57 247 0
0 0 0
57 247 0
0 0 0
57 247 0
0 0 0
0 0 0
90 222 140
57 239 255
165 247 123
189 181 8
140 189 99
57 156 181
0 0 8
0 0 0
24 41 165
16 156 16
115 140 156
0 0 0
24 57 0
16 156 16
115 140 156
0 0 0
16 206 66
16 156 16
115 140 156
0 0 0
0 0 0
0 0 0
0 0 0
0 0 0
0 0 8
0 0 0
0 0 0
0 0 0
8 16 33
16 156 16
115 140 156
0 0 0
90 239 99
0 41 8
0 0 0
0 0 0
90 206 231
0 41 8
0 0 0
0 0 0
140 41 0
0 8 57
0 0 0
0 0 0
0 16 0
0 0 0
0 206 140
0 0 0
0 0 0
57 247 0
0 0 0
57 247 0
0 0 0
57 247 0
0 0 0
0 0 0
90 156 181
57 239 255
214 148 57
189 189 24
24 140 165
189 173 181
0 0 8
0 0 0
16 206 66
16 156 16
115 140 156
0 0 0
24 66 99
16 156 16
115 140 156
0 0 0
16 214 165
16 156 16
115 140 156
0 0 0
0 0 0
0 0 0
0 0 0
0 0 0
0 0 8
0 0 0
0 0 0
0 0 0
8 16 33
16 156 16
115 140 156
0 0 0
90 255 33
0 41 8
0 0 0
0 0 0
90 222 165
0 41 8
0 0 0
0 0 0
140 41 0
0 8 57
0 0 0
0 0 0
0 16 0
0 0 0
0 206 148
0 0 0
0 0 0
57 247 0
0 0 0
57 247 0
0 0 0
57 247 0
0 0 0
0 0 0
99 82 181
57 239 255
57 41 156
189 173 206
239 231 255
57 165 66
0 0 8
0 0 0
16 206 66
16 156 16
115 140 156
0 0 0
24 57 0
16 156 16
115 140 156
0 0 0
24 66 99
16 156 16
115 140 156
0 0 0
0 0 0
0 0 0
0 0 0
0 0 0
0 0 8
0 0 0
0 0 0
0 0 0
8 16 33
16 156 16
115 140 156
0 0 0
99 0 231
0 41 8
0 0 0
0 0 0
90 239 99
0 41 8
0 0 0
0 0 0
140 41 0
0 8 57
0 0 0
0 0 0
0 16 0
0 0 0
0 206 148
0 0 0
0 0 0
57 247 0
0 0 0
57 247 0
0 0 0
57 247 0
0 0 0
0 0 0
189 140 156
57 239 255
255 173 140
189 165 231
0 0 0
0 0 0
0 0 8
0 0 0
24 41 165
16 156 16
115 140 156
0 0 0
24 74 198
16 156 16
115 140 156
0 0 0
24 57 0
16 156 16
115 140 156
0 0 0
0 0 0
0 0 0
0 0 0
0 0 0
0 0 8
0 0 0
0 0 0
0 0 0
8 16 33
16 156 16
115 140 156
0 0 0
99 16 165
0 41 8
0 0 0
0 0 0
90 255 33
0 41 8
0 0 0
0 0 0
140 41 0
0 8 57
0 0 0
0 0 0
0 16 0
0 0 0
0 206 156
0 0 0
0 0 0
57 247 0
0 0 0
57 247 0
0 0 0
57 247 0
0 0 0
0 0 0
41 33 66
57 239 255
99 132 99
189 181 41
66 115 24
57 189 41
0 0 8
0 0 0
24 33 66
16 156 16
115 140 156
0 0 0
24 74 198
16 156 16
115 140 156
0 0 0
24 41 165
16 156 16
115 140 156
0 0 0
0 0 0
0 0 0
0 0 0
0 0 0
0 0 8
0 0 0
0 0 0
0 0 0
8 16 33
16 156 16
115 140 156
0 0 0
99 33 99
0 41 8
0 0 0
0 0 0
99 0 231
0 41 8
0 0 0
0 0 0
140 41 0
0 8 57
0 0 0
0 0 0
0 16 0
0 0 0
0 206 156
0 0 0
0 0 0
57 247 0
0 0 0
57 247 0
0 0 0
57 247 0
0 0 0
0 0 0
8 41 74
57 239 214
90 173 247
189 206 82
8 16 57
57 206 132
0 0 8
0 0 0
24 16 231
16 156 16
115 140 156
0 0 0
24 33 66
16 156 16
115 140 156
0 0 0
16 189 231
16 156 16
115 140 156
0 0 0
0 0 0
0 0 0
0 0 0
0 0 0
0 0 8
0 0 0
0 0 0
0 0 0
8 16 33
16 156 16
115 140 156
0 0 0
99 49 33
0 41 8
0 0 0
0 0 0
99 16 165
0 41 8
0 0 0
0 0 0
140 41 0
0 8 57
0 0 0
0 0 0
0 16 0
0 0 0
0 206 165
0 0 0
0 0 0
57 247 0
0 0 0
57 247 0
0 0 0
57 247 0
0 0 0
0 0 0
132 165 49
57 239 247
74 90 74
189 181 33
165 90 231
57 198 99
0 0 8
0 0 0
24 8 132
16 156 16
115 140 156
0 0 0
24 16 231
16 156 16
115 140 156
0 0 0
16 181 132
16 156 16
115 140 156
0 0 0
0 0 0
0 0 0
0 0 0
0 0 0
0 0 8
0 0 0
0 0 0
0 0 0
8 16 33
16 156 16
115 140 156
0 0 0
99 57 231
0 41 8
0 0 0
0 0 0
99 33 99
0 41 8
0 0 0
0 0 0
140 41 0
0 8 57
0 0 0
0 0 0
0 16 0
0 0 0
0 206 165
0 0 0
0 0 0
57 247 0
0 0 0
57 247 0
0 0 0
57 247 0
0 0 0
0 0 0
189 90 123
57 239 214
198 231 90
189 214 8
82 123 206
57 198 66
0 0 8
0 0 0
16 156 198
16 156 16
115 140 156
0 0 0
24 0 33
16 156 16
115 140 156
0 0 0
24 8 132
16 156 16
115 140 156
0 0 0
0 0 0
0 0 0
0 0 0
0 0 0
0 0 8
0 0 0
0 0 0
0 0 0
8 16 33
16 156 16
115 140 156
0 0 0
99 74 165
0 41 8
0 0 0
0 0 0
99 49 33
0 41 8
0 0 0
0 0 0
140 41 0
0 8 57
0 0 0
0 0 0
0 16 0
0 0 0
0 206 173
0 0 0
0 0 0
57 247 0
0 0 0
57 247 0
0 0 0
57 247 0
0 0 0
0 0 0
16 115 99
57 239 206
132 198 148
189 214 156
90 148 115
57 123 16
0 0 8
0 0 0
16 148 99
16 156 16
115 140 156
0 0 0
16 247 198
16 156 16
115 140 156
0 0 0
24 0 33
16 156 16
115 140 156
0 0 0
0 0 0
0 0 0
0 0 0
0 0 0
0 0 8
0 0 0
0 0 0
0 0 0
8 16 33
16 156 16
115 140 156
0 0 0
99 90 99
0 41 8
0 0 0
0 0 0
99 57 231
0 41 8
0 0 0
0 0 0
140 41 0
0 8 57
0 0 0
0 0 0
0 16 0
0 0 0
0 206 173
0 0 0
0 0 0
57 247 0
0 0 0
57 247 0
0 0 0
57 247 0
0 0 0
0 0 0
148 123 123
57 239 189
99 156 247
189 214 181
247 165 222
57 189 82
0 0 8
0 0 0
16 239 99
16 156 16
115 140 156
0 0 0
16 66 198
16 156 16
115 140 156
0 0 0
16 247 198
16 156 16
115 140 156
0 0 0
0 0 0
0 0 0
0 0 0
0 0 0
0 0 8
0 0 0
0 0 0
0 0 0
8 16 33
16 156 16
115 140 156
0 0 0
99 107 33
0 41 8
0 0 0
0 0 0
99 74 165
0 41 8
0 0 0
0 0 0
140 41 0
0 8 57
0 0 0
0 0 0
0 16 0
0 0 0
0 206 181
0 0 0
0 0 0
57 247 0
0 0 0
57 247 0
0 0 0
57 247 0
0 0 0
0 0 0
222 156 165
57 239 206
239 16 107
189 214 132
0 0 0
0 0 0
0 0 8
0 0 0
16 82 33
16 156 16
115 140 156
0 0 0
16 66 198
16 156 16
115 140 156
0 0 0
16 239 99
16 156 16
115 140 156
0 0 0
0 0 0
0 0 0
0 0 0
0 0 0
0 0 8
0 0 0
0 0 0
0 0 0
8 16 33
16 156 16
115 140 156
0 0 0
99 115 231
0 41 8
0 0 0
0 0 0
99 90 99
0 41 8
0 0 0
0 0 0
140 41 0
0 8 57
0 0 0
0 0 0
0 16 0
0 0 0
0 206 181
0 0 0
0 0 0
57 247 0
0 0 0
57 247 0
0 0 0
57 247 0
0 0 0
0 0 0
0 49 49
57 239 231
165 90 24
189 206 222
33 247 198
189 173 198
0 0 8
0 0 0
16 90 132
16 156 16
115 140 156
0 0 0
16 82 33
16 156 16
115 140 156
0 0 0
16 140 0
16 156 16
115 140 156
0 0 0
0 0 0
0 0 0
0 0 0
0 0 0
0 0 8
0 0 0
0 0 0
0 0 0
8 16 33
16 156 16
115 140 156
0 0 0
99 132 165
0 41 8
0 0 0
0 0 0
99 107 33
0 41 8
0 0 0
0 0 0
140 41 0
0 8 57
0 0 0
0 0 0
0 16 0
0 0 0
0 206 189
0 0 0
0 0 0
57 247 0
0 0 0
57 247 0
0 0 0
57 247 0
0 0 0
0 0 0
239 16 148
57 239 222
222 173 66
189 206 189
132 82 231
189 181 189
0 0 8
0 0 0
16 231 0
16 156 16
115 140 156
0 0 0
16 90 132
16 156 16
115 140 156
0 0 0
16 123 165
16 156 16
115 140 156
0 0 0
0 0 0
0 0 0
0 0 0
0 0 0
0 0 8
0 0 0
0 0 0
0 0 0
8 16 33
16 156 16
115 140 156
0 0 0
99 148 99
0 41 8
0 0 0
0 0 0
99 115 231
0 41 8
0 0 0
0 0 0
140 41 0
0 8 57
0 0 0
0 0 0
0 16 0
0 0 0
0 206 189
0 0 0
0 0 0
57 247 0
0 0 0
57 247 0
0 0 0
57 247 0
0 0 0
0 0 0
115 206 74
57 239 255
189 82 66
189 189 0
222 181 41
189 173 148
0 0 8
0 0 0
16 214 165
16 156 16
115 140 156
0 0 0
24 66 99
16 156 16
115 140 156
0 0 0
16 231 0
16 156 16
115 140 156
0 0 0
0 0 0
0 0 0
0 0 0
0 0 0
0 0 8
0 0 0
0 0 0
0 0 0
8 16 33
16 156 16
115 140 156
0 0 0
99 165 33
0 41 8
0 0 0
0 0 0
99 132 165
0 41 8
0 0 0
0 0 0
140 41 0
0 8 57
0 0 0
0 0 0
0 16 0
0 0 0
0 206 198
0 0 0
0 0 0
57 247 0
0 0 0
57 247 0
0 0 0
57 247 0
0 0 0
0 0 0
206 115 255
57 239 247
115 140 181
189 198 66
115 140 181
57 181 66
0 0 8
0 0 0
16 66 198
16 156 16
115 140 156
0 0 0
16 82 33
16 156 16
115 140 156
0 0 0
16 90 132
16 156 16
115 140 156
0 0 0
0 0 0
0 0 0
0 0 0
0 0 0
0 0 8
0 0 0
0 0 0
0 0 0
8 33 0
16 156 16
115 140 156
0 0 0
99 173 231
0 41 8
0 0 0
0 0 0
99 148 99
0 41 8
0 0 0
0 0 0
140 41 0
0 8 57
0 0 0
0 0 0
0 16 0
0 0 0
0 206 198
0 0 0
0 0 0
57 247 0
0 0 0
57 247 0
0 0 0
57 247 0
0 0 0
0 0 0
24 57 41
57 239 239
123 82 99
189 206 99
255 115 189
57 148 181
0 0 8
0 0 0
16 90 132
16 156 16
115 140 156
0 0 0
16 231 0
16 156 16
115 140 156
0 0 0
16 66 198
16 156 16
115 140 156
0 0 0
0 0 0
0 0 0
0 0 0
0 0 0
0 0 8
0 0 0
0 0 0
0 0 0
8 33 0
16 156 16
115 140 156
0 0 0
99 189 165
0 41 8
0 0 0
0 0 0
99 165 33
0 41 8
0 0 0
0 0 0
140 41 0
0 8 57
0 0 0
0 0 0
0 16 0
0 0 0
0 206 206
0 0 0
0 0 0
57 247 0
0 0 0
57 247 0
0 0 0
57 247 0
0 0 0
0 0 0
231 0 33
57 239 239
222 214 57
189 198 66
231 115 90
57 189 123
0 0 8
0 0 0
16 231 0
16 156 16
115 140 156
0 0 0
16 247 198
16 156 16
115 140 156
0 0 0
16 66 198
16 156 16
115 140 156
0 0 0
0 0 0
0 0 0
0 0 0
0 0 0
0 0 8
0 0 0
0 0 0
0 0 0
8 33 0
16 156 16
115 140 156
0 0 0
99 206 99
0 41 8
0 0 0
0 0 0
99 173 231
0 41 8
0 0 0
0 0 0
140 41 0
0 8 57
0 0 0
0 0 0
0 16 0
0 0 0
0 206 206
0 0 0
0 0 0
57 247 0
0 0 0
57 247 0
0 0 0
57 247 0
0 0 0
0 0 0
99 74 189
57 239 214
82 255 214
189 214 99
24 255 198
189 140 41
0 0 8
0 0 0
16 231 0
16 156 16
115 140 156
0 0 0
24 0 33
16 156 16
115 140 156
0 0 0
16 247 198
16 156 16
115 140 156
0 0 0
0 0 0
0 0 0
0 0 0
0 0 0
0 0 8
0 0 0
0 0 0
0 0 0
8 33 0
16 156 16
115 140 156
0 0 0
99 222 33
0 41 8
0 0 0
0 0 0
99 189 165
0 41 8
0 0 0
0 0 0
140 41 0
0 8 57
0 0 0
0 0 0
0 16 0
0 0 0
0 206 214
0 0 0
0 0 0
57 247 0
0 0 0
57 247 0
0 0 0
57 247 0
0 0 0
0 0 0
99 148 41
57 239 239
189 247 231
189 198 239
24 165 247
57 173 33
0 0 8
0 0 0
16 231 0
16 156 16
115 140 156
0 0 0
24 8 132
16 156 16
115 140 156
0 0 0
24 0 33
16 156 16
115 140 156
0 0 0
0 0 0
0 0 0
0 0 0
0 0 0
0 0 8
0 0 0
0 0 0
0 0 0
8 33 0
16 156 16
115 140 156
0 0 0
99 231 231
0 41 8
0 0 0
0 0 0
99 206 99
0 41 8
0 0 0
0 0 0
140 41 0
0 8 57
0 0 0
0 0 0
0 16 0
0 0 0
0 206 214
0 0 0
0 0 0
57 247 0
0 0 0
57 247 0
0 0 0
57 247 0
0 0 0
0 0 0
41 49 231
57 239 255
132 165 206
189 189 41
181 214 247
57 181 33
0 0 8
0 0 0
16 231 0
16 156 16
115 140 156
0 0 0
24 16 231
16 156 16
115 140 156
0 0 0
24 8 132
16 156 16
115 140 156
0 0 0
0 0 0
0 0 0
0 0 0
0 0 0
0 0 8
0 0 0
0 0 0
0 0 0
8 33 0
16 156 16
115 140 156
0 0 0
99 247 165
0 41 8
0 0 0
0 0 0
99 222 33
0 41 8
0 0 0
0 0 0
140 41 0
0 8 57
0 0 0
0 0 0
0 16 0
0 0 0
0 206 222
0 0 0
0 0 0
57 247 0
0 0 0
57 247 0
0 0 0
57 247 0
0 0 0
0 0 0
57 156 107
57 239 239
255 132 231
189 206 41
82 16 222
57 181 57
0 0 8
0 0 0
16 231 0
16 156 16
115 140 156
0 0 0
24 66 99
16 156 16
115 140 156
0 0 0
24 16 231
16 156 16
115 140 156
0 0 0
0 0 0
0 0 0
0 0 0
0 0 0
0 0 8
0 0 0
0 0 0
0 0 0
8 33 0
16 156 16
115 140 156
0 0 0
107 0 99
0 41 8
0 0 0
0 0 0
99 231 231
0 41 8
0 0 0
0 0 0
140 41 0
0 8 57
0 0 0
0 0 0
0 16 0
0 0 0
0 206 222
0 0 0
0 0 0
57 247 0
0 0 0
57 247 0
0 0 0
57 247 0
0 0 0
0 0 0
57 247 74
57 239 214
189 90 140
189 214 90
165 82 99
57 165 198
0 0 8
0 0 0
24 66 99
16 156 16
115 140 156
0 0 0
24 33 66
16 156 16
115 140 156
0 0 0
24 16 231
16 156 16
115 140 156
0 0 0
0 0 0
0 0 0
0 0 0
0 0 0
0 0 8
0 0 0
0 0 0
0 0 0
8 33 0
16 156 16
115 140 156
0 0 0
107 16 33
0 41 8
0 0 0
0 0 0
99 247 165
0 41 8
0 0 0
0 0 0
140 41 0
0 8 57
0 0 0
0 0 0
0 16 0
0 0 0
0 206 231
0 0 0
0 0 0
57 247 0
0 0 0
57 247 0
0 0 0
57 247 0
0 0 0
0 0 0
41 206 24
57 239 239
66 206 41
189 206 82
247 99 107
57 165 214
0 0 8
0 0 0
24 66 99
16 156 16
115 140 156
0 0 0
24 74 198
16 156 16
115 140 156
0 0 0
24 33 66
16 156 16
115 140 156
0 0 0
0 0 0
0 0 0
0 0 0
0 0 0
0 0 8
0 0 0
0 0 0
0 0 0
8 33 0
16 156 16
115 140 156
0 0 0
33 0 231
16 156 16
115 140 156
0 0 0
107 0 99
0 41 8
0 0 0
0 0 0
140 41 0
0 8 57
0 0 0
0 0 0
0 16 0
0 0 0
0 206 231
0 0 0
0 0 0
57 247 0
0 0 0
57 247 0
0 0 0
57 247 0
0 0 0
0 0 0
0 0 0
57 247 0
0 0 0
0 0 0
0 0 0
0 0 0
0 0 8
0 0 0
24 66 99
16 156 16
115 140 156
0 0 0
24 57 0
16 156 16
115 140 156
0 0 0
24 74 198
16 156 16
115 140 156
0 0 0
0 0 0
0 0 0
0 0 0
0 0 0
0 0 8
0 0 0
0 0 0
0 0 0
8 33 0
16 156 16
115 140 156
0 0 0
107 41 165
0 41 8
0 0 0
0 0 0
49 156 0
16 156 16
115 140 156
0 0 0
140 41 0
0 8 57
0 0 0
0 0 0
0 16 0
0 0 0
0 214 107
0 0 0
0 0 0
57 247 0
0 0 0
57 247 0
0 0 0
57 247 0
0 0 0
0 0 0
148 222 0
57 214 140
173 189 8
57 148 222
132 107 173
57 239 206
0 0 8
0 0 0
41 123 66
16 156 16
115 140 156
0 0 0
41 132 165
16 156 16
115 140 156
0 0 0
41 148 0
16 156 16
115 140 156
0 0 0
0 0 0
0 0 0
0 0 0
0 0 0
0 0 0
0 0 0
0 0 0
0 0 0
41 74 231
16 156 16
115 140 156
0 0 0
107 57 99
0 41 8
0 0 0
0 0 0
107 24 231
0 41 8
0 0 0
0 0 0
140 41 0
0 8 57
0 0 0
0 0 0
0 16 0
0 0 0
0 214 115
0 0 0
0 0 0
57 247 0
0 0 0
57 247 0
0 0 0
57 247 0
0 0 0
0 0 0
231 57 156
57 222 41
247 82 189
57 173 66
173 173 181
57 239 173
0 0 8
0 0 0
41 156 99
16 156 16
115 140 156
0 0 0
41 165 198
16 156 16
115 140 156
0 0 0
41 181 33
16 156 16
115 140 156
0 0 0
0 0 0
0 0 0
0 0 0
0 0 0
0 0 0
0 0 0
0 0 0
0 0 0
41 74 231
16 156 16
115 140 156
0 0 0
107 74 33
0 41 8
0 0 0
0 0 0
107 41 165
0 41 8
0 0 0
0 0 0
140 41 0
0 8 57
0 0 0
0 0 0
0 16 0
0 0 0
0 214 115
0 0 0
0 0 0
57 247 0
0 0 0
57 247 0
0 0 0
57 247 0
0 0 0
0 0 0
123 165 33
57 222 74
8 198 49
189 189 123
181 57 0
57 239 156
0 0 8
0 0 0
49 82 198
16 156 16
115 140 156
0 0 0
49 115 231
16 156 16
115 140 156
0 0 0
49 74 99
16 156 16
115 140 156
0 0 0
0 0 0
0 0 0
0 0 0
0 0 0
0 0 0
0 0 0
0 0 0
0 0 0
41 74 231
16 156 16
115 140 156
0 0 0
107 82 231
0 41 8
0 0 0
0 0 0
107 57 99
0 41 8
0 0 0
0 0 0
140 41 0
0 8 57
0 0 0
0 0 0
0 16 0
0 0 0
0 214 123
0 0 0
0 0 0
57 247 0
0 0 0
57 247 0
0 0 0
57 247 0
0 0 0
0 0 0
33 231 132
57 214 41
41 41 107
189 181 99
156 206 165
57 239 214
0 0 8
0 0 0
41 132 165
16 156 16
115 140 156
0 0 0
49 140 165
16 156 16
115 140 156
0 0 0
49 107 132
16 156 16
115 140 156
0 0 0
0 0 0
0 0 0
0 0 0
0 0 0
0 0 0
0 0 0
0 0 0
0 0 0
41 74 231
16 156 16
115 140 156
0 0 0
107 99 165
0 41 8
0 0 0
0 0 0
107 74 33
0 41 8
0 0 0
0 0 0
140 41 0
0 8 57
0 0 0
0 0 0
0 16 0
0 0 0
0 214 123
0 0 0
0 0 0
57 247 0
0 0 0
57 247 0
0 0 0
57 247 0
0 0 0
0 0 0
8 181 123
189 148 16
189 0 8
57 239 231
239 66 231
57 206 198
0 0 8
0 0 0
41 123 66
16 156 16
115 140 156
0 0 0
49 99 33
16 156 16
115 140 156
0 0 0
49 8 33
16 156 16
115 140 156
0 0 0
0 0 0
0 0 0
0 0 0
0 0 0
0 0 0
0 0 0
0 0 0
0 0 0
41 74 231
16 156 16
115 140 156
0 0 0
107 115 99
0 41 8
0 0 0
0 0 0
107 82 231
0 41 8
0 0 0
0 0 0
140 41 0
0 8 57
0 0 0
0 0 0
0 16 0
0 0 0
0 214 132
0 0 0
0 0 0
57 247 0
0 0 0
57 247 0
0 0 0
57 247 0
0 0 0
0 0 0
156 165 49
57 206 33
181 165 107
189 239 198
140 206 165
57 214 57
0 0 8
0 0 0
41 148 0
16 156 16
115 140 156
0 0 0
49 24 231
16 156 16
115 140 156
0 0 0
41 222 165
16 156 16
115 140 156
0 0 0
0 0 0
0 0 0
0 0 0
0 0 0
0 0 0
0 0 0
0 0 0
0 0 0
41 74 231
16 156 16
115 140 156
0 0 0
107 132 33
0 41 8
0 0 0
0 0 0
107 99 165
0 41 8
0 0 0
0 0 0
140 41 0
0 8 57
0 0 0
0 0 0
0 16 0
0 0 0
0 214 132
0 0 0
0 0 0
57 247 0
0 0 0
57 247 0
0 0 0
57 247 0
0 0 0
0 0 0
231 239 148
189 222 247
132 49 214
189 231 173
231 82 74
57 231 49
0 0 8
0 0 0
41 198 231
16 156 16
115 140 156
0 0 0
41 189 132
16 156 16
115 140 156
0 0 0
49 82 198
16 156 16
115 140 156
0 0 0
0 0 0
0 0 0
0 0 0
0 0 0
0 0 0
0 0 0
0 0 0
0 0 0
41 74 231
16 156 16
115 140 156
0 0 0
107 140 231
0 41 8
0 0 0
0 0 0
107 115 99
0 41 8
0 0 0
0 0 0
140 41 0
0 8 57
0 0 0
0 0 0
0 16 0
0 0 0
0 214 140
0 0 0
0 0 0
57 247 0
0 0 0
57 247 0
0 0 0
57 247 0
0 0 0
0 0 0
148 206 41
57 222 222
231 57 24
57 239 123
33 57 206
57 165 90
0 0 8
0 0 0
41 156 99
16 156 16
115 140 156
0 0 0
49 74 99
16 156 16
115 140 156
0 0 0
41 214 66
16 156 16
115 140 156
0 0 0
0 0 0
0 0 0
0 0 0
0 0 0
0 0 0
0 0 0
0 0 0
0 0 0
41 74 231
16 156 16
115 140 156
0 0 0
107 156 165
0 41 8
0 0 0
0 0 0
107 132 33
0 41 8
0 0 0
0 0 0
140 41 0
0 8 57
0 0 0
0 0 0
0 16 0
0 0 0
0 214 140
0 0 0
0 0 0
57 247 0
0 0 0
57 247 0
0 0 0
57 247 0
0 0 0
0 0 0
214 148 0
189 231 173
132 239 140
57 231 132
99 165 57
57 222 41
0 0 8
0 0 0
49 140 165
16 156 16
115 140 156
0 0 0
41 132 165
16 156 16
115 140 156
0 0 0
49 132 66
16 156 16
115 140 156
0 0 0
0 0 0
0 0 0
0 0 0
0 0 0
0 0 0
0 0 0
0 0 0
0 0 0
41 74 231
16 156 16
115 140 156
0 0 0
107 173 99
0 41 8
0 0 0
0 0 0
107 140 231
0 41 8
0 0 0
0 0 0
140 41 0
0 8 57
0 0 0
0 0 0
0 16 0
0 0 0
0 214 148
0 0 0
0 0 0
57 247 0
0 0 0
57 247 0
0 0 0
57 247 0
0 0 0
0 0 0
239 33 239
57 222 66
82 222 222
189 189 123
214 66 173
57 239 156
0 0 8
0 0 0
49 74 99
16 156 16
115 140 156
0 0 0
41 181 33
16 156 16
115 140 156
0 0 0
49 82 198
16 156 16
115 140 156
0 0 0
0 0 0
0 0 0
0 0 0
0 0 0
0 0 0
0 0 0
0 0 0
0 0 0
41 74 231
16 156 16
115 140 156
0 0 0
107 189 33
0 41 8
0 0 0
0 0 0
107 156 165
0 41 8
0 0 0
0 0 0
140 41 0
0 8 57
0 0 0
0 0 0
0 16 0
0 0 0
0 214 148
0 0 0
0 0 0
57 247 0
0 0 0
57 247 0
0 0 0
57 247 0
0 0 0
0 0 0
123 57 206
57 222 8
222 107 214
57 165 66
165 107 140
57 239 181
0 0 8
0 0 0
49 74 99
16 156 16
115 140 156
0 0 0
41 156 99
16 156 16
115 140 156
0 0 0
41 181 33
16 156 16
115 140 156
0 0 0
0 0 0
0 0 0
0 0 0
0 0 0
0 0 0
0 0 0
0 0 0
0 0 0
41 74 231
16 156 16
115 140 156
0 0 0
107 198 231
0 41 8
0 0 0
0 0 0
107 173 99
0 41 8
0 0 0
0 0 0
140 41 0
0 8 57
0 0 0
0 0 0
0 16 0
0 0 0
0 214 156
0 0 0
0 0 0
57 247 0
0 0 0
57 247 0
0 0 0
57 247 0
0 0 0
0 0 0
57 0 132
57 222 49
0 0 0
0 0 0
140 41 33
57 239 173
0 0 8
0 0 0
41 156 99
16 156 16
115 140 156
0 0 0
49 99 33
16 156 16
115 140 156
0 0 0
41 165 198
16 156 16
115 140 156
0 0 0
0 0 0
0 0 0
0 0 0
0 0 0
0 0 0
0 0 0
0 0 0
0 0 0
41 74 231
16 156 16
115 140 156
0 0 0
107 214 165
0 41 8
0 0 0
0 0 0
107 189 33
0 41 8
0 0 0
0 0 0
140 41 0
0 8 57
0 0 0
0 0 0
0 16 0
0 0 0
0 214 156
0 0 0
0 0 0
57 247 0
0 0 0
57 247 0
0 0 0
57 247 0
0 0 0
0 0 0
123 0 107
57 214 66
0 0 0
0 0 0
156 24 239
57 239 214
0 0 8
0 0 0
49 99 33
16 156 16
115 140 156
0 0 0
41 123 66
16 156 16
115 140 156
0 0 0
41 165 198
16 156 16
115 140 156
0 0 0
0 0 0
0 0 0
0 0 0
0 0 0
0 0 0
0 0 0
0 0 0
0 0 0
41 74 231
16 156 16
115 140 156
0 0 0
107 231 99
0 41 8
0 0 0
0 0 0
107 198 231
0 41 8
0 0 0
0 0 0
140 41 0
0 8 57
0 0 0
0 0 0
0 16 0
0 0 0
0 214 165
0 0 0
0 0 0
57 247 0
0 0 0
57 247 0
0 0 0
57 247 0
0 0 0
0 0 0
74 66 33
57 214 99
8 99 66
57 165 165
49 0 82
57 239 214
0 0 8
0 0 0
41 123 66
16 156 16
115 140 156
0 0 0
41 148 0
16 156 16
115 140 156
0 0 0
41 165 198
16 156 16
115 140 156
0 0 0
0 0 0
0 0 0
0 0 0
0 0 0
0 0 0
0 0 0
0 0 0
0 0 0
41 74 231
16 156 16
115 140 156
0 0 0
107 247 33
0 41 8
0 0 0
0 0 0
107 214 165
0 41 8
0 0 0
0 0 0
140 41 0
0 8 57
0 0 0
0 0 0
0 16 0
0 0 0
0 214 165
0 0 0
0 0 0
57 247 0
0 0 0
57 247 0
0 0 0
57 247 0
0 0 0
0 0 0
66 198 41
57 214 107
239 24 222
189 181 140
16 247 123
57 239 206
0 0 8
0 0 0
41 132 165
16 156 16
115 140 156
0 0 0
49 107 132
16 156 16
115 140 156
0 0 0
41 148 0
16 156 16
115 140 156
0 0 0
0 0 0
0 0 0
0 0 0
0 0 0
0 0 0
0 0 0
0 0 0
0 0 0
41 74 231
16 156 16
115 140 156
0 0 0
107 255 231
0 41 8
0 0 0
0 0 0
107 231 99
0 41 8
0 0 0
0 0 0
140 41 0
0 8 57
0 0 0
0 0 0
0 16 0
0 0 0
0 214 173
0 0 0
0 0 0
57 247 0
0 0 0
57 247 0
0 0 0
57 247 0
0 0 0
0 0 0
24 255 66
57 222 165
140 222 189
189 214 148
140 189 206
57 239 82
0 0 8
0 0 0
49 82 198
16 156 16
115 140 156
0 0 0
41 255 198
16 156 16
115 140 156
0 0 0
49 115 231
16 156 16
115 140 156
0 0 0
0 0 0
0 0 0
0 0 0
0 0 0
0 0 0
0 0 0
0 0 0
0 0 0
41 74 231
16 156 16
115 140 156
0 0 0
115 8 165
0 41 8
0 0 0
0 0 0
107 247 33
0 41 8
0 0 0
0 0 0
140 41 0
0 8 57
0 0 0
0 0 0
0 16 0
0 0 0
0 214 173
0 0 0
0 0 0
57 247 0
0 0 0
57 247 0
0 0 0
57 247 0
0 0 0
0 0 0
148 189 173
57 148 239
189 8 247
57 239 222
165 49 33
57 214 0
0 0 8
0 0 0
49 8 33
16 156 16
115 140 156
0 0 0
49 16 132
16 156 16
115 140 156
0 0 0
41 123 66
16 156 16
115 140 156
0 0 0
0 0 0
0 0 0
0 0 0
0 0 0
0 0 0
0 0 0
0 0 0
0 0 0
41 74 231
16 156 16
115 140 156
0 0 0
115 24 99
0 41 8
0 0 0
0 0 0
107 255 231
0 41 8
0 0 0
0 0 0
140 41 0
0 8 57
0 0 0
0 0 0
0 16 0
0 0 0
0 214 181
0 0 0
0 0 0
57 247 0
0 0 0
57 247 0
0 0 0
57 247 0
0 0 0
0 0 0
82 107 90
57 214 99
0 99 24
189 239 140
24 198 24
57 214 214
0 0 8
0 0 0
41 165 198
16 156 16
115 140 156
0 0 0
41 148 0
16 156 16
115 140 156
0 0 0
41 222 165
16 156 16
115 140 156
0 0 0
0 0 0
0 0 0
0 0 0
0 0 0
0 0 0
0 0 0
0 0 0
0 0 0
41 74 231
16 156 16
115 140 156
0 0 0
115 41 33
0 41 8
0 0 0
0 0 0
115 8 165
0 41 8
0 0 0
0 0 0
140 41 0
0 8 57
0 0 0
0 0 0
0 16 0
0 0 0
0 214 181
0 0 0
0 0 0
57 247 0
0 0 0
57 247 0
0 0 0
57 247 0
0 0 0
0 0 0
99 0 198
189 222 239
115 123 115
189 231 132
231 198 8
57 231 107
0 0 8
0 0 0
49 82 198
16 156 16
115 140 156
0 0 0
41 181 33
16 156 16
115 140 156
0 0 0
41 198 231
16 156 16
115 140 156
0 0 0
0 0 0
0 0 0
0 0 0
0 0 0
0 0 0
0 0 0
0 0 0
0 0 0
41 74 231
16 156 16
115 140 156
0 0 0
115 49 231
0 41 8
0 0 0
0 0 0
115 24 99
0 41 8
0 0 0
0 0 0
140 41 0
0 8 57
0 0 0
0 0 0
0 16 0
0 0 0
0 214 189
0 0 0
0 0 0
57 247 0
0 0 0
57 247 0
0 0 0
57 247 0
0 0 0
0 0 0
41 148 0
57 239 24
123 74 41
189 231 115
173 16 107
189 198 165
0 0 8
0 0 0
49 107 132
16 156 16
115 140 156
0 0 0
49 49 165
16 156 16
115 140 156
0 0 0
49 41 66
16 156 16
115 140 156
0 0 0
0 0 0
0 0 0
0 0 0
0 0 0
0 0 0
0 0 0
0 0 0
0 0 0
41 74 231
16 156 16
115 140 156
0 0 0
115 66 165
0 41 8
0 0 0
0 0 0
115 41 33
0 41 8
0 0 0
0 0 0
140 41 0
0 8 57
0 0 0
0 0 0
0 16 0
0 0 0
0 214 189
0 0 0
0 0 0
57 247 0
0 0 0
57 247 0
0 0 0
57 247 0
0 0 0
0 0 0
74 66 74
57 231 82
140 90 148
57 239 49
33 123 247
57 198 66
0 0 8
0 0 0
41 214 66
16 156 16
115 140 156
0 0 0
41 239 0
16 156 16
115 140 156
0 0 0
41 156 99
16 156 16
115 140 156
0 0 0
0 0 0
0 0 0
0 0 0
0 0 0
0 0 0
0 0 0
0 0 0
0 0 0
41 74 231
16 156 16
115 140 156
0 0 0
115 82 99
0 41 8
0 0 0
0 0 0
115 49 231
0 41 8
0 0 0
0 0 0
140 41 0
0 8 57
0 0 0
0 0 0
0 16 0
0 0 0
0 214 198
0 0 0
0 0 0
57 247 0
0 0 0
57 247 0
0 0 0
57 247 0
0 0 0
0 0 0
90 115 123
189 231 123
156 181 189
57 231 148
74 148 115
57 222 148
0 0 8
0 0 0
49 132 66
16 156 16
115 140 156
0 0 0
49 66 0
16 156 16
115 140 156
0 0 0
49 140 165
16 156 16
115 140 156
0 0 0
0 0 0
0 0 0
0 0 0
0 0 0
0 0 0
0 0 0
0 0 0
0 0 0
41 74 231
16 156 16
115 140 156
0 0 0
115 99 33
0 41 8
0 0 0
0 0 0
115 66 165
0 41 8
0 0 0
0 0 0
140 41 0
0 8 57
0 0 0
0 0 0
0 16 0
0 0 0
0 214 198
0 0 0
0 0 0
57 247 0
0 0 0
57 247 0
0 0 0
57 247 0
0 0 0
0 0 0
49 165 16
57 239 107
206 41 57
57 222 247
123 33 222
189 198 198
0 0 8
0 0 0
49 115 231
16 156 16
115 140 156
0 0 0
41 247 99
16 156 16
115 140 156
0 0 0
41 214 66
16 156 16
115 140 156
0 0 0
0 0 0
0 0 0
0 0 0
0 0 0
0 0 0
0 0 0
0 0 0
0 0 0
41 74 231
16 156 16
115 140 156
0 0 0
115 107 231
0 41 8
0 0 0
0 0 0
115 82 99
0 41 8
0 0 0
0 0 0
140 41 0
0 8 57
0 0 0
0 0 0
0 16 0
0 0 0
0 214 206
0 0 0
0 0 0
57 247 0
0 0 0
57 247 0
0 0 0
57 247 0
0 0 0
0 0 0
255 247 107
189 206 173
8 173 33
57 239 115
181 148 16
57 222 148
0 0 8
0 0 0
49 16 132
16 156 16
115 140 156
0 0 0
49 132 66
16 156 16
115 140 156
0 0 0
41 132 165
16 156 16
115 140 156
0 0 0
0 0 0
0 0 0
0 0 0
0 0 0
0 0 0
0 0 0
0 0 0
0 0 0
41 74 231
16 156 16
115 140 156
0 0 0
115 123 165
0 41 8
0 0 0
0 0 0
115 99 33
0 41 8
0 0 0
0 0 0
140 41 0
0 8 57
0 0 0
0 0 0
0 16 0
0 0 0
0 214 206
0 0 0
0 0 0
57 247 0
0 0 0
57 247 0
0 0 0
57 247 0
0 0 0
0 0 0
82 49 231
189 198 90
206 99 189
189 239 74
206 206 173
57 231 41
0 0 8
0 0 0
41 181 33
16 156 16
115 140 156
0 0 0
41 165 198
16 156 16
115 140 156
0 0 0
41 222 165
16 156 16
115 140 156
0 0 0
0 0 0
0 0 0
0 0 0
0 0 0
0 0 0
0 0 0
0 0 0
0 0 0
41 74 231
16 156 16
115 140 156
0 0 0
115 140 99
0 41 8
0 0 0
0 0 0
115 107 231
0 41 8
0 0 0
0 0 0
140 41 0
0 8 57
0 0 0
0 0 0
0 16 0
0 0 0
0 214 214
0 0 0
0 0 0
57 247 0
0 0 0
57 247 0
0 0 0
57 247 0
0 0 0
0 0 0
132 165 189
57 231 181
24 66 57
189 231 247
74 214 99
189 156 82
0 0 8
0 0 0
41 148 0
16 156 16
115 140 156
0 0 0
49 107 132
16 156 16
115 140 156
0 0 0
49 24 231
16 156 16
115 140 156
0 0 0
0 0 0
0 0 0
0 0 0
0 0 0
0 0 0
0 0 0
0 0 0
0 0 0
41 74 231
16 156 16
115 140 156
0 0 0
115 156 33
0 41 8
0 0 0
0 0 0
115 123 165
0 41 8
0 0 0
0 0 0
140 41 0
0 8 57
0 0 0
0 0 0
0 16 0
0 0 0
0 214 214
0 0 0
0 0 0
57 247 0
0 0 0
57 247 0
0 0 0
57 247 0
0 0 0
0 0 0
33 8 222
57 239 255
189 181 173
57 173 214
16 214 189
189 173 165
0 0 8
0 0 0
41 247 99
16 156 16
115 140 156
0 0 0
49 115 231
16 156 16
115 140 156
0 0 0
41 255 198
16 156 16
115 140 156
0 0 0
0 0 0
0 0 0
0 0 0
0 0 0
0 0 0
0 0 0
0 0 0
0 0 0
41 74 231
16 156 16
115 140 156
0 0 0
115 165 231
0 41 8
0 0 0
0 0 0
115 140 99
0 41 8
0 0 0
0 0 0
140 41 0
0 8 57
0 0 0
0 0 0
0 16 0
0 0 0
0 214 222
0 0 0
0 0 0
57 247 0
0 0 0
57 247 0
0 0 0
57 247 0
0 0 0
0 0 0
189 173 165
189 239 99
140 57 222
57 198 66
156 222 132
57 231 0
0 0 8
0 0 0
49 140 165
16 156 16
115 140 156
0 0 0
49 66 0
16 156 16
115 140 156
0 0 0
49 49 165
16 156 16
115 140 156
0 0 0
0 0 0
0 0 0
0 0 0
0 0 0
0 0 0
0 0 0
0 0 0
0 0 0
41 74 231
16 156 16
115 140 156
0 0 0
115 181 165
0 41 8
0 0 0
0 0 0
115 156 33
0 41 8
0 0 0
0 0 0
140 41 0
0 8 57
0 0 0
0 0 0
0 16 0
0 0 0
0 214 222
0 0 0
0 0 0
57 247 0
0 0 0
57 247 0
0 0 0
57 247 0
0 0 0
0 0 0
57 0 16
189 231 99
0 255 8
189 231 74
255 57 49
57 231 57
0 0 8
0 0 0
49 82 198
16 156 16
115 140 156
0 0 0
41 189 132
16 156 16
115 140 156
0 0 0
41 255 198
16 156 16
115 140 156
0 0 0
0 0 0
0 0 0
0 0 0
0 0 0
0 0 0
0 0 0
0 0 0
0 0 0
41 74 231
16 156 16
115 140 156
0 0 0
115 198 99
0 41 8
0 0 0
0 0 0
115 165 231
0 41 8
0 0 0
0 0 0
140 41 0
0 8 57
0 0 0
0 0 0
0 16 0
0 0 0
0 214 231
0 0 0
0 0 0
57 247 0
0 0 0
57 247 0
0 0 0
57 247 0
0 0 0
0 0 0
74 33 156
57 214 24
165 165 24
57 239 214
156 189 140
57 189 66
0 0 8
0 0 0
41 239 0
16 156 16
115 140 156
0 0 0
49 8 33
16 156 16
115 140 156
0 0 0
49 99 33
16 156 16
115 140 156
0 0 0
0 0 0
0 0 0
0 0 0
0 0 0
0 0 0
0 0 0
0 0 0
0 0 0
41 74 231
16 156 16
115 140 156
0 0 0
115 214 33
0 41 8
0 0 0
0 0 0
115 181 165
0 41 8
0 0 0
0 0 0
140 41 0
0 8 57
0 0 0
0 0 0
0 16 0
0 0 0
0 214 231
0 0 0
0 0 0
57 247 0
0 0 0
57 247 0
0 0 0
57 247 0
0 0 0
0 0 0
140 165 189
57 239 74
123 165 24
57 231 66
49 8 239
189 156 8
0 0 8
0 0 0
41 214 66
16 156 16
115 140 156
0 0 0
49 74 99
16 156 16
115 140 156
0 0 0
49 115 231
16 156 16
115 140 156
0 0 0
0 0 0
0 0 0
0 0 0
0 0 0
0 0 0
0 0 0
0 0 0
0 0 0
41 74 231
16 156 16
115 140 156
0 0 0
115 222 231
0 41 8
0 0 0
0 0 0
115 198 99
0 41 8
0 0 0
0 0 0
140 41 0
0 8 57
0 0 0
0 0 0
0 16 0
0 0 0
0 214 239
0 0 0
0 0 0
57 247 0
0 0 0
57 247 0
0 0 0
57 247 0
0 0 0
0 0 0
173 41 0
57 181 222
148 247 8
189 222 231
156 214 107
57 239 123
0 0 8
0 0 0
49 140 165
16 156 16
115 140 156
0 0 0
49 49 165
16 156 16
115 140 156
0 0 0
49 107 132
16 156 16
115 140 156
0 0 0
0 0 0
0 0 0
0 0 0
0 0 0
0 0 0
0 0 0
0 0 0
0 0 0
41 74 231
16 156 16
115 140 156
0 0 0
115 239 165
0 41 8
0 0 0
0 0 0
115 214 33
0 41 8
0 0 0
0 0 0
140 41 0
0 8 57
0 0 0
0 0 0
0 16 0
0 0 0
0 214 239
0 0 0
0 0 0
57 247 0
0 0 0
57 247 0
0 0 0
57 247 0
0 0 0
0 0 0
156 140 123
189 214 41
214 198 99
57 239 115
24 255 0
57 222 107
0 0 8
0 0 0
41 132 165
16 156 16
115 140 156
0 0 0
41 123 66
16 156 16
115 140 156
0 0 0
49 16 132
16 156 16
115 140 156
0 0 0
0 0 0
0 0 0
0 0 0
0 0 0
0 0 0
0 0 0
0 0 0
0 0 0
41 74 231
16 156 16
115 140 156
0 0 0
115 255 99
0 41 8
0 0 0
0 0 0
115 222 231
0 41 8
0 0 0
0 0 0
140 41 0
0 8 57
0 0 0
0 0 0
0 16 0
0 0 0
0 214 247
0 0 0
0 0 0
57 247 0
0 0 0
57 247 0
0 0 0
57 247 0
0 0 0
0 0 0
231 24 132
57 222 181
231 99 107
57 239 115
231 173 74
57 206 41
0 0 8
0 0 0
49 99 33
16 156 16
115 140 156
0 0 0
41 156 99
16 156 16
115 140 156
0 0 0
41 239 0
16 156 16
115 140 156
0 0 0
0 0 0
0 0 0
0 0 0
0 0 0
0 0 0
0 0 0
0 0 0
0 0 0
41 74 231
16 156 16
115 140 156
0 0 0
123 8 33
0 41 8
0 0 0
0 0 0
115 239 165
0 41 8
0 0 0
0 0 0
140 41 0
0 8 57
0 0 0
0 0 0
0 16 0
0 0 0
0 214 247
0 0 0
0 0 0
57 247 0
0 0 0
57 247 0
0 0 0
57 247 0
0 0 0
0 0 0
123 214 16
57 231 156
57 206 140
189 239 0
82 222 41
189 165 247
0 0 8
0 0 0
49 107 132
16 156 16
115 140 156
0 0 0
49 41 66
16 156 16
115 140 156
0 0 0
49 24 231
16 156 16
115 140 156
0 0 0
0 0 0
0 0 0
0 0 0
0 0 0
0 0 0
0 0 0
0 0 0
0 0 0
41 74 231
16 156 16
115 140 156
0 0 0
49 255 33
16 156 16
115 140 156
0 0 0
115 255 99
0 41 8
0 0 0
0 0 0
140 41 0
0 8 57
0 0 0
0 0 0
0 16 0
0 0 0
0 214 255
0 0 0
0 0 0
57 247 0
0 0 0
57 247 0
0 0 0
57 247 0
0 0 0
0 0 0
33 222 247
189 198 74
74 57 33
189 239 123
132 231 8
57 222 189
0 0 8
0 0 0
41 222 165
16 156 16
115 140 156
0 0 0
41 198 231
16 156 16
115 140 156
0 0 0
41 181 33
16 156 16
115 140 156
0 0 0
0 0 0
0 0 0
0 0 0
0 0 0
0 0 0
0 0 0
0 0 0
0 0 0
41 74 231
16 156 16
115 140 156
0 0 0
123 33 165
0 41 8
0 0 0
0 0 0
74 0 0
16 156 16
115 140 156
0 0 0
140 41 0
0 8 57
0 0 0
0 0 0
0 16 0
0 0 0
0 222 132
0 0 0
0 0 0
57 247 0
0 0 0
57 247 0
0 0 0
57 247 0
0 0 0
0 0 0
189 49 107
189 214 49
239 57 198
189 231 99
181 74 0
57 239 0
0 0 8
0 0 0
57 231 66
16 156 16
115 140 156
0 0 0
57 239 165
16 156 16
115 140 156
0 0 0
57 255 0
16 156 16
115 140 156
0 0 0
0 0 0
0 0 0
0 0 0
0 0 0
0 0 0
0 0 0
0 0 0
0 0 0
57 181 231
16 156 16
115 140 156
0 0 0
123 49 99
0 41 8
0 0 0
0 0 0
123 16 231
0 41 8
0 0 0
0 0 0
140 41 0
0 8 57
0 0 0
0 0 0
0 16 0
0 0 0
0 222 132
0 0 0
0 0 0
57 247 0
0 0 0
57 247 0
0 0 0
57 247 0
0 0 0
0 0 0
231 24 132
189 222 181
231 99 107
57 239 115
231 173 74
57 206 41
0 0 8
0 0 0
66 57 66
16 156 16
115 140 156
0 0 0
66 214 132
16 156 16
115 140 156
0 0 0
66 33 132
16 156 16
115 140 156
0 0 0
0 0 0
0 0 0
0 0 0
0 0 0
0 0 0
0 0 0
0 0 0
0 0 0
57 181 231
16 156 16
115 140 156
0 0 0
123 66 33
0 41 8
0 0 0
0 0 0
123 33 165
0 41 8
0 0 0
0 0 0
140 41 0
0 8 57
0 0 0
0 0 0
0 16 0
0 0 0
0 222 140
0 0 0
0 0 0
57 247 0
0 0 0
57 247 0
0 0 0
57 247 0
0 0 0
0 0 0
74 33 156
189 214 24
165 165 24
57 239 214
156 189 140
57 189 66
0 0 8
0 0 0
66 33 132
16 156 16
115 140 156
0 0 0
66 41 231
16 156 16
115 140 156
0 0 0
66 57 66
16 156 16
115 140 156
0 0 0
0 0 0
0 0 0
0 0 0
0 0 0
0 0 0
0 0 0
0 0 0
0 0 0
57 181 231
16 156 16
115 140 156
0 0 0
123 74 231
0 41 8
0 0 0
0 0 0
123 49 99
0 41 8
0 0 0
0 0 0
140 41 0
0 8 57
0 0 0
0 0 0
0 16 0
0 0 0
0 222 140
0 0 0
0 0 0
57 247 0
0 0 0
57 247 0
0 0 0
57 247 0
0 0 0
0 0 0
57 0 16
57 231 99
0 255 8
189 231 74
255 57 49
57 231 57
0 0 8
0 0 0
66 66 165
16 156 16
115 140 156
0 0 0
66 82 0
16 156 16
115 140 156
0 0 0
66 90 99
16 156 16
115 140 156
0 0 0
0 0 0
0 0 0
0 0 0
0 0 0
0 0 0
0 0 0
0 0 0
0 0 0
57 181 231
16 156 16
115 140 156
0 0 0
123 90 165
0 41 8
0 0 0
0 0 0
123 66 33
0 41 8
0 0 0
0 0 0
140 41 0
0 8 57
0 0 0
0 0 0
0 16 0
0 0 0
0 222 148
0 0 0
0 0 0
57 247 0
0 0 0
57 247 0
0 0 0
57 247 0
0 0 0
0 0 0
255 148 231
57 239 41
148 189 115
57 198 16
90 222 198
57 231 99
0 0 8
0 0 0
57 239 165
16 156 16
115 140 156
0 0 0
66 99 198
16 156 16
115 140 156
0 0 0
57 255 0
16 156 16
115 140 156
0 0 0
0 0 0
0 0 0
0 0 0
0 0 0
0 0 0
0 0 0
0 0 0
0 0 0
57 181 231
16 156 16
115 140 156
0 0 0
123 107 99
0 41 8
0 0 0
0 0 0
123 74 231
0 41 8
0 0 0
0 0 0
140 41 0
0 8 57
0 0 0
0 0 0
0 16 0
0 0 0
0 222 148
0 0 0
0 0 0
57 247 0
0 0 0
57 247 0
0 0 0
57 247 0
0 0 0
0 0 0
33 8 222
189 239 255
189 181 173
57 173 214
16 214 189
189 173 165
0 0 8
0 0 0
66 66 165
16 156 16
115 140 156
0 0 0
66 115 33
16 156 16
115 140 156
0 0 0
66 123 132
16 156 16
115 140 156
0 0 0
0 0 0
0 0 0
0 0 0
0 0 0
0 0 0
0 0 0
0 0 0
0 0 0
57 181 231
16 156 16
115 140 156
0 0 0
123 123 33
0 41 8
0 0 0
0 0 0
123 90 165
0 41 8
0 0 0
0 0 0
140 41 0
0 8 57
0 0 0
0 0 0
0 16 0
0 0 0
0 222 156
0 0 0
0 0 0
57 247 0
0 0 0
57 247 0
0 0 0
57 247 0
0 0 0
0 0 0
132 165 189
189 231 181
24 66 57
189 231 247
74 214 99
189 156 82
0 0 8
0 0 0
66 8 198
16 156 16
115 140 156
0 0 0
57 231 66
16 156 16
115 140 156
0 0 0
66 132 231
16 156 16
115 140 156
0 0 0
0 0 0
0 0 0
0 0 0
0 0 0
0 0 0
0 0 0
0 0 0
0 0 0
57 181 231
16 156 16
115 140 156
0 0 0
123 132 231
0 41 8
0 0 0
0 0 0
123 107 99
0 41 8
0 0 0
0 0 0
140 41 0
0 8 57
0 0 0
0 0 0
0 16 0
0 0 0
0 222 156
0 0 0
0 0 0
57 247 0
0 0 0
57 247 0
0 0 0
57 247 0
0 0 0
0 0 0
82 49 231
57 198 90
206 99 189
189 239 74
206 206 173
57 231 41
0 0 8
0 0 0
66 148 66
16 156 16
115 140 156
0 0 0
66 156 165
16 156 16
115 140 156
0 0 0
66 173 0
16 156 16
115 140 156
0 0 0
0 0 0
0 0 0
0 0 0
0 0 0
0 0 0
0 0 0
0 0 0
0 0 0
57 181 231
16 156 16
115 140 156
0 0 0
123 148 165
0 41 8
0 0 0
0 0 0
123 123 33
0 41 8
0 0 0
0 0 0
140 41 0
0 8 57
0 0 0
0 0 0
0 16 0
0 0 0
0 222 165
0 0 0
0 0 0
57 247 0
0 0 0
57 247 0
0 0 0
57 247 0
0 0 0
0 0 0
132 74 239
57 222 66
132 239 255
57 239 99
107 206 156
57 214 198
0 0 8
0 0 0
66 181 99
16 156 16
115 140 156
0 0 0
66 24 33
16 156 16
115 140 156
0 0 0
66 189 198
16 156 16
115 140 156
0 0 0
0 0 0
0 0 0
0 0 0
0 0 0
0 0 0
0 0 0
0 0 0
0 0 0
57 181 231
16 156 16
115 140 156
0 0 0
123 165 99
0 41 8
0 0 0
0 0 0
123 132 231
0 41 8
0 0 0
0 0 0
140 41 0
0 8 57
0 0 0
0 0 0
0 16 0
0 0 0
0 222 165
0 0 0
0 0 0
57 247 0
0 0 0
57 247 0
0 0 0
57 247 0
0 0 0
0 0 0
49 165 16
189 239 107
206 41 57
57 222 247
123 33 222
189 198 198
0 0 8
0 0 0
66 206 33
16 156 16
115 140 156
0 0 0
66 123 132
16 156 16
115 140 156
0 0 0
66 115 33
16 156 16
115 140 156
0 0 0
0 0 0
0 0 0
0 0 0
0 0 0
0 0 0
0 0 0
0 0 0
0 0 0
57 181 231
16 156 16
115 140 156
0 0 0
123 181 33
0 41 8
0 0 0
0 0 0
123 148 165
0 41 8
0 0 0
0 0 0
140 41 0
0 8 57
0 0 0
0 0 0
0 16 0
0 0 0
0 222 173
0 0 0
0 0 0
57 247 0
0 0 0
57 247 0
0 0 0
57 247 0
0 0 0
0 0 0
156 123 165
57 231 239
33 115 123
57 231 41
181 24 132
57 222 90
0 0 8
0 0 0
57 255 0
16 156 16
115 140 156
0 0 0
66 99 198
16 156 16
115 140 156
0 0 0
66 24 33
16 156 16
115 140 156
0 0 0
0 0 0
0 0 0
0 0 0
0 0 0
0 0 0
0 0 0
0 0 0
0 0 0
57 181 231
16 156 16
115 140 156
0 0 0
123 189 231
0 41 8
0 0 0
0 0 0
123 165 99
0 41 8
0 0 0
0 0 0
140 41 0
0 8 57
0 0 0
0 0 0
0 16 0
0 0 0
0 222 173
0 0 0
0 0 0
57 247 0
0 0 0
57 247 0
0 0 0
57 247 0
0 0 0
0 0 0
74 66 74
189 231 82
140 90 148
57 239 49
33 123 247
57 198 66
0 0 8
0 0 0
66 214 132
16 156 16
115 140 156
0 0 0
66 57 66
16 156 16
115 140 156
0 0 0
66 206 33
16 156 16
115 140 156
0 0 0
0 0 0
0 0 0
0 0 0
0 0 0
0 0 0
0 0 0
0 0 0
0 0 0
57 181 231
16 156 16
115 140 156
0 0 0
123 206 165
0 41 8
0 0 0
0 0 0
123 181 33
0 41 8
0 0 0
0 0 0
140 41 0
0 8 57
0 0 0
0 0 0
0 16 0
0 0 0
0 222 181
0 0 0
0 0 0
57 247 0
0 0 0
57 247 0
0 0 0
57 247 0
0 0 0
0 0 0
41 148 0
189 239 24
123 74 41
189 231 115
173 16 107
189 198 165
0 0 8
0 0 0
66 0 99
16 156 16
115 140 156
0 0 0
57 239 165
16 156 16
115 140 156
0 0 0
57 231 66
16 156 16
115 140 156
0 0 0
0 0 0
0 0 0
0 0 0
0 0 0
0 0 0
0 0 0
0 0 0
0 0 0
57 181 231
16 156 16
115 140 156
0 0 0
123 222 99
0 41 8
0 0 0
0 0 0
123 189 231
0 41 8
0 0 0
0 0 0
140 41 0
0 8 57
0 0 0
0 0 0
0 16 0
0 0 0
0 222 181
0 0 0
0 0 0
57 247 0
0 0 0
57 247 0
0 0 0
57 247 0
0 0 0
0 0 0
99 0 198
57 222 239
115 123 115
189 231 132
231 198 8
57 231 107
0 0 8
0 0 0
66 222 231
16 156 16
115 140 156
0 0 0
66 173 0
16 156 16
115 140 156
0 0 0
66 90 99
16 156 16
115 140 156
0 0 0
0 0 0
0 0 0
0 0 0
0 0 0
0 0 0
0 0 0
0 0 0
0 0 0
57 181 231
16 156 16
115 140 156
0 0 0
123 239 33
0 41 8
0 0 0
0 0 0
123 206 165
0 41 8
0 0 0
0 0 0
140 41 0
0 8 57
0 0 0
0 0 0
0 16 0
0 0 0
0 222 189
0 0 0
0 0 0
57 247 0
0 0 0
57 247 0
0 0 0
57 247 0
0 0 0
0 0 0
82 107 90
189 214 99
0 99 24
189 239 140
24 198 24
57 214 214
0 0 8
0 0 0
66 148 66
16 156 16
115 140 156
0 0 0
66 132 231
16 156 16
115 140 156
0 0 0
66 156 165
16 156 16
115 140 156
0 0 0
0 0 0
0 0 0
0 0 0
0 0 0
0 0 0
0 0 0
0 0 0
0 0 0
57 181 231
16 156 16
115 140 156
0 0 0
123 247 231
0 41 8
0 0 0
0 0 0
123 222 99
0 41 8
0 0 0
0 0 0
140 41 0
0 8 57
0 0 0
0 0 0
0 16 0
0 0 0
0 222 189
0 0 0
0 0 0
57 247 0
0 0 0
57 247 0
0 0 0
57 247 0
0 0 0
0 0 0
148 189 173
189 148 239
189 8 247
57 239 222
165 49 33
57 214 0
0 0 8
0 0 0
66 239 66
16 156 16
115 140 156
0 0 0
66 189 198
16 156 16
115 140 156
0 0 0
66 41 231
16 156 16
115 140 156
0 0 0
0 0 0
0 0 0
0 0 0
0 0 0
0 0 0
0 0 0
0 0 0
0 0 0
57 181 231
16 156 16
115 140 156
0 0 0
132 0 165
0 41 8
0 0 0
0 0 0
123 239 33
0 41 8
0 0 0
0 0 0
140 41 0
0 8 57
0 0 0
0 0 0
0 16 0
0 0 0
0 222 198
0 0 0
0 0 0
57 247 0
0 0 0
57 247 0
0 0 0
57 247 0
0 0 0
0 0 0
24 255 66
189 222 165
140 222 189
189 214 148
140 189 206
57 239 82
0 0 8
0 0 0
66 115 33
16 156 16
115 140 156
0 0 0
66 66 165
16 156 16
115 140 156
0 0 0
66 90 99
16 156 16
115 140 156
0 0 0
0 0 0
0 0 0
0 0 0
0 0 0
0 0 0
0 0 0
0 0 0
0 0 0
57 181 231
16 156 16
115 140 156
0 0 0
132 16 99
0 41 8
0 0 0
0 0 0
123 247 231
0 41 8
0 0 0
0 0 0
140 41 0
0 8 57
0 0 0
0 0 0
0 16 0
0 0 0
0 222 198
0 0 0
0 0 0
57 247 0
0 0 0
57 247 0
0 0 0
57 247 0
0 0 0
0 0 0
66 198 41
189 214 107
239 24 222
189 181 140
16 247 123
57 239 206
0 0 8
0 0 0
66 132 231
16 156 16
115 140 156
0 0 0
57 231 66
16 156 16
115 140 156
0 0 0
66 181 99
16 156 16
115 140 156
0 0 0
0 0 0
0 0 0
0 0 0
0 0 0
0 0 0
0 0 0
0 0 0
0 0 0
57 181 231
16 156 16
115 140 156
0 0 0
132 33 33
0 41 8
0 0 0
0 0 0
132 0 165
0 41 8
0 0 0
0 0 0
140 41 0
0 8 57
0 0 0
0 0 0
0 16 0
0 0 0
0 222 206
0 0 0
0 0 0
57 247 0
0 0 0
57 247 0
0 0 0
57 247 0
0 0 0
0 0 0
74 66 33
189 214 99
8 99 66
57 165 165
49 0 82
57 239 214
0 0 8
0 0 0
66 156 165
16 156 16
115 140 156
0 0 0
66 132 231
16 156 16
115 140 156
0 0 0
66 239 66
16 156 16
115 140 156
0 0 0
0 0 0
0 0 0
0 0 0
0 0 0
0 0 0
0 0 0
0 0 0
0 0 0
57 181 231
16 156 16
115 140 156
0 0 0
132 41 231
0 41 8
0 0 0
0 0 0
132 16 99
0 41 8
0 0 0
0 0 0
140 41 0
0 8 57
0 0 0
0 0 0
0 16 0
0 0 0
0 222 206
0 0 0
0 0 0
57 247 0
0 0 0
57 247 0
0 0 0
57 247 0
0 0 0
0 0 0
123 0 107
189 214 66
0 0 0
0 0 0
156 24 239
57 239 214
0 0 8
0 0 0
66 156 165
16 156 16
115 140 156
0 0 0
66 239 66
16 156 16
115 140 156
0 0 0
66 33 132
16 156 16
115 140 156
0 0 0
0 0 0
0 0 0
0 0 0
0 0 0
0 0 0
0 0 0
0 0 0
0 0 0
57 181 231
16 156 16
115 140 156
0 0 0
132 57 165
0 41 8
0 0 0
0 0 0
132 33 33
0 41 8
0 0 0
0 0 0
140 41 0
0 8 57
0 0 0
0 0 0
0 16 0
0 0 0
0 222 214
0 0 0
0 0 0
57 247 0
0 0 0
57 247 0
0 0 0
57 247 0
0 0 0
0 0 0
57 0 132
189 222 49
0 0 0
0 0 0
140 41 33
57 239 173
0 0 8
0 0 0
66 156 165
16 156 16
115 140 156
0 0 0
66 33 132
16 156 16
115 140 156
0 0 0
66 214 132
16 156 16
115 140 156
0 0 0
0 0 0
0 0 0
0 0 0
0 0 0
0 0 0
0 0 0
0 0 0
0 0 0
57 181 231
16 156 16
115 140 156
0 0 0
132 74 99
0 41 8
0 0 0
0 0 0
132 41 231
0 41 8
0 0 0
0 0 0
140 41 0
0 8 57
0 0 0
0 0 0
0 16 0
0 0 0
0 222 214
0 0 0
0 0 0
57 247 0
0 0 0
57 247 0
0 0 0
57 247 0
0 0 0
0 0 0
123 57 206
189 222 8
222 107 214
57 165 66
165 107 140
57 239 181
0 0 8
0 0 0
66 173 0
16 156 16
115 140 156
0 0 0
66 214 132
16 156 16
115 140 156
0 0 0
66 247 165
16 156 16
115 140 156
0 0 0
0 0 0
0 0 0
0 0 0
0 0 0
0 0 0
0 0 0
0 0 0
0 0 0
57 181 231
16 156 16
115 140 156
0 0 0
132 90 33
0 41 8
0 0 0
0 0 0
132 57 165
0 41 8
0 0 0
0 0 0
140 41 0
0 8 57
0 0 0
0 0 0
0 16 0
0 0 0
0 222 222
0 0 0
0 0 0
57 247 0
0 0 0
57 247 0
0 0 0
57 247 0
0 0 0
0 0 0
239 33 239
189 222 66
82 222 222
189 189 123
214 66 173
57 239 156
0 0 8
0 0 0
66 90 99
16 156 16
115 140 156
0 0 0
66 173 0
16 156 16
115 140 156
0 0 0
66 247 165
16 156 16
115 140 156
0 0 0
0 0 0
0 0 0
0 0 0
0 0 0
0 0 0
0 0 0
0 0 0
0 0 0
57 181 231
16 156 16
115 140 156
0 0 0
132 99 231
0 41 8
0 0 0
0 0 0
132 74 99
0 41 8
0 0 0
0 0 0
140 41 0
0 8 57
0 0 0
0 0 0
0 16 0
0 0 0
0 222 222
0 0 0
0 0 0
57 247 0
0 0 0
57 247 0
0 0 0
57 247 0
0 0 0
0 0 0
123 214 16
189 231 156
57 206 140
189 239 0
82 222 41
189 165 247
0 0 8
0 0 0
66 8 198
16 156 16
115 140 156
0 0 0
66 0 99
16 156 16
115 140 156
0 0 0
57 231 66
16 156 16
115 140 156
0 0 0
0 0 0
0 0 0
0 0 0
0 0 0
0 0 0
0 0 0
0 0 0
0 0 0
57 181 231
16 156 16
115 140 156
0 0 0
132 115 165
0 41 8
0 0 0
0 0 0
132 90 33
0 41 8
0 0 0
0 0 0
140 41 0
0 8 57
0 0 0
0 0 0
0 16 0
0 0 0
0 222 231
0 0 0
0 0 0
57 247 0
0 0 0
57 247 0
0 0 0
57 247 0
0 0 0
0 0 0
33 222 247
57 198 74
74 57 33
189 239 123
132 231 8
57 222 189
0 0 8
0 0 0
66 173 0
16 156 16
115 140 156
0 0 0
66 222 231
16 156 16
115 140 156
0 0 0
66 148 66
16 156 16
115 140 156
0 0 0
0 0 0
0 0 0
0 0 0
0 0 0
0 0 0
0 0 0
0 0 0
0 0 0
57 181 231
16 156 16
115 140 156
0 0 0
132 132 99
0 41 8
0 0 0
0 0 0
132 99 231
0 41 8
0 0 0
0 0 0
140 41 0
0 8 57
0 0 0
0 0 0
0 16 0
0 0 0
0 222 231
0 0 0
0 0 0
57 247 0
0 0 0
57 247 0
0 0 0
57 247 0
0 0 0
0 0 0
156 140 123
57 214 41
214 198 99
57 239 115
24 255 0
57 222 107
0 0 8
0 0 0
66 189 198
16 156 16
115 140 156
0 0 0
66 239 66
16 156 16
115 140 156
0 0 0
66 181 99
16 156 16
115 140 156
0 0 0
0 0 0
0 0 0
0 0 0
0 0 0
0 0 0
0 0 0
0 0 0
0 0 0
57 181 231
16 156 16
115 140 156
0 0 0
132 148 33
0 41 8
0 0 0
0 0 0
132 115 165
0 41 8
0 0 0
0 0 0
140 41 0
0 8 57
0 0 0
0 0 0
0 16 0
0 0 0
0 222 239
0 0 0
0 0 0
57 247 0
0 0 0
57 247 0
0 0 0
57 247 0
0 0 0
0 0 0
140 165 189
189 239 74
123 165 24
57 231 66
49 8 239
189 156 8
0 0 8
0 0 0
66 115 33
16 156 16
115 140 156
0 0 0
66 247 165
16 156 16
115 140 156
0 0 0
66 206 33
16 156 16
115 140 156
0 0 0
0 0 0
0 0 0
0 0 0
0 0 0
0 0 0
0 0 0
0 0 0
0 0 0
57 181 231
16 156 16
115 140 156
0 0 0
132 156 231
0 41 8
0 0 0
0 0 0
132 132 99
0 41 8
0 0 0
0 0 0
140 41 0
0 8 57
0 0 0
0 0 0
0 16 0
0 0 0
0 222 239
0 0 0
0 0 0
57 247 0
0 0 0
57 247 0
0 0 0
57 247 0
0 0 0
0 0 0
181 16 107
57 239 8
214 189 206
57 231 8
156 74 222
57 222 24
0 0 8
0 0 0
66 24 33
16 156 16
115 140 156
0 0 0
66 181 99
16 156 16
115 140 156
0 0 0
57 255 0
16 156 16
115 140 156
0 0 0
0 0 0
0 0 0
0 0 0
0 0 0
0 0 0
0 0 0
0 0 0
0 0 0
57 181 231
16 156 16
115 140 156
0 0 0
132 173 165
0 41 8
0 0 0
0 0 0
132 148 33
0 41 8
0 0 0
0 0 0
140 41 0
0 8 57
0 0 0
0 0 0
0 16 0
0 0 0
0 222 247
0 0 0
0 0 0
57 247 0
0 0 0
57 247 0
0 0 0
57 247 0
0 0 0
0 0 0
148 206 41
189 222 222
231 57 24
57 239 123
33 57 206
57 165 90
0 0 8
0 0 0
66 206 33
16 156 16
115 140 156
0 0 0
66 247 165
16 156 16
115 140 156
0 0 0
66 214 132
16 156 16
115 140 156
0 0 0
0 0 0
0 0 0
0 0 0
0 0 0
0 0 0
0 0 0
0 0 0
0 0 0
57 181 231
16 156 16
115 140 156
0 0 0
132 189 99
0 41 8
0 0 0
0 0 0
132 156 231
0 41 8
0 0 0
0 0 0
140 41 0
0 8 57
0 0 0
0 0 0
0 16 0
0 0 0
0 222 247
0 0 0
0 0 0
57 247 0
0 0 0
57 247 0
0 0 0
57 247 0
0 0 0
0 0 0
231 239 148
57 222 247
132 49 214
189 231 173
231 82 74
57 231 49
0 0 8
0 0 0
66 90 99
16 156 16
115 140 156
0 0 0
66 82 0
16 156 16
115 140 156
0 0 0
66 222 231
16 156 16
115 140 156
0 0 0
0 0 0
0 0 0
0 0 0
0 0 0
0 0 0
0 0 0
0 0 0
0 0 0
57 181 231
16 156 16
115 140 156
0 0 0
132 206 33
0 41 8
0 0 0
0 0 0
132 173 165
0 41 8
0 0 0
0 0 0
140 41 0
0 8 57
0 0 0
0 0 0
0 16 0
0 0 0
0 222 255
0 0 0
0 0 0
57 247 0
0 0 0
57 247 0
0 0 0
57 247 0
0 0 0
0 0 0
231 57 156
189 222 41
247 82 189
57 173 66
173 173 181
57 239 173
0 0 8
0 0 0
66 173 0
16 156 16
115 140 156
0 0 0
66 156 165
16 156 16
115 140 156
0 0 0
66 214 132
16 156 16
115 140 156
0 0 0
0 0 0
0 0 0
0 0 0
0 0 0
0 0 0
0 0 0
0 0 0
0 0 0
57 181 231
16 156 16
115 140 156
0 0 0
132 214 231
0 41 8
0 0 0
0 0 0
132 189 99
0 41 8
0 0 0
0 0 0
140 41 0
0 8 57
0 0 0
0 0 0
0 16 0
0 0 0
0 222 255
0 0 0
0 0 0
57 247 0
0 0 0
57 247 0
0 0 0
57 247 0
0 0 0
0 0 0
148 222 0
189 214 140
173 189 8
57 148 222
132 107 173
57 239 206
0 0 8
0 0 0
66 132 231
16 156 16
115 140 156
0 0 0
66 181 99
16 156 16
115 140 156
0 0 0
66 239 66
16 156 16
115 140 156
0 0 0
0 0 0
0 0 0
0 0 0
0 0 0
0 0 0
0 0 0
0 0 0
0 0 0
57 181 231
16 156 16
115 140 156
0 0 0
132 231 165
0 41 8
0 0 0
0 0 0
132 206 33
0 41 8
0 0 0
0 0 0
140 41 0
0 8 57
0 0 0
0 0 0
0 16 0
0 0 0
0 231 0
0 0 0
0 0 0
57 247 0
0 0 0
57 247 0
0 0 0
57 247 0
0 0 0
0 0 0
156 165 49
189 206 33
181 165 107
189 239 198
140 206 165
57 214 57
0 0 8
0 0 0
66 148 66
16 156 16
115 140 156
0 0 0
66 8 198
16 156 16
115 140 156
0 0 0
66 132 231
16 156 16
115 140 156
0 0 0
0 0 0
0 0 0
0 0 0
0 0 0
0 0 0
0 0 0
0 0 0
0 0 0
57 181 231
16 156 16
115 140 156
0 0 0
132 247 99
0 41 8
0 0 0
0 0 0
132 214 231
0 41 8
0 0 0
0 0 0
140 41 0
0 8 57
0 0 0
0 0 0
0 16 0
0 0 0
0 231 0
0 0 0
0 0 0
57 247 0
0 0 0
57 247 0
0 0 0
57 247 0
0 0 0
0 0 0
8 181 123
57 148 16
189 0 8
57 239 231
239 66 231
57 206 198
0 0 8
0 0 0
66 41 231
16 156 16
115 140 156
0 0 0
66 33 132
16 156 16
115 140 156
0 0 0
66 239 66
16 156 16
115 140 156
0 0 0
0 0 0
0 0 0
0 0 0
0 0 0
0 0 0
0 0 0
0 0 0
0 0 0
57 181 231
16 156 16
115 140 156
0 0 0
140 0 33
0 41 8
0 0 0
0 0 0
132 231 165
0 41 8
0 0 0
0 0 0
140 41 0
0 8 57
0 0 0
0 0 0
0 16 0
0 0 0
0 231 8
0 0 0
0 0 0
57 247 0
0 0 0
57 247 0
0 0 0
57 247 0
0 0 0
0 0 0
24 82 156
189 222 115
231 16 189
189 189 33
132 132 16
57 239 148
0 0 8
0 0 0
57 231 66
16 156 16
115 140 156
0 0 0
57 255 0
16 156 16
115 140 156
0 0 0
66 181 99
16 156 16
115 140 156
0 0 0
0 0 0
0 0 0
0 0 0
0 0 0
0 0 0
0 0 0
0 0 0
0 0 0
57 181 231
16 156 16
115 140 156
0 0 0
74 99 33
16 156 16
115 140 156
0 0 0
132 247 99
0 41 8
0 0 0
0 0 0
140 41 0
0 8 57
0 0 0
0 0 0
0 16 0
0 0 0
0 231 8
0 0 0
0 0 0
57 247 0
0 0 0
57 247 0
0 0 0
57 247 0
0 0 0
0 0 0
123 165 33
189 222 74
8 198 49
189 189 123
181 57 0
57 239 156
0 0 8
0 0 0
66 247 165
16 156 16
115 140 156
0 0 0
66 115 33
16 156 16
115 140 156
0 0 0
66 90 99
16 156 16
115 140 156
0 0 0
0 0 0
0 0 0
0 0 0
0 0 0
0 0 0
0 0 0
0 0 0
0 0 0
57 181 231
16 156 16
115 140 156
0 0 0
140 24 165
0 41 8
0 0 0
0 0 0
99 181 66
16 156 16
115 140 156
0 0 0
140 41 0
0 8 57
0 0 0
0 0 0
0 16 0
0 0 0
0 239 8
0 0 0
0 0 0
57 247 0
0 0 0
57 247 0
0 0 0
57 247 0
0 0 0
0 0 0
8 0 74
189 222 82
198 90 123
57 132 156
0 8 189
57 239 165
0 0 8
0 0 0
82 74 66
16 156 16
115 140 156
0 0 0
82 82 165
16 156 16
115 140 156
0 0 0
82 99 0
16 156 16
115 140 156
0 0 0
0 0 0
0 0 0
0 0 0
0 0 0
0 0 0
0 0 0
0 0 0
0 0 0
82 24 231
16 156 16
115 140 156
0 0 0
140 41 99
0 41 8
0 0 0
0 0 0
140 8 231
0 41 8
0 0 0
0 0 0
140 41 0
0 8 57
0 0 0
0 0 0
0 16 0
0 0 0
0 239 16
0 0 0
0 0 0
57 247 0
0 0 0
57 247 0
0 0 0
57 247 0
0 0 0
0 0 0
255 115 173
57 239 132
107 99 198
189 214 222
123 41 165
57 214 140
0 0 8
0 0 0
82 107 99
16 156 16
115 140 156
0 0 0
82 115 198
16 156 16
115 140 156
0 0 0
82 132 33
16 156 16
115 140 156
0 0 0
0 0 0
0 0 0
0 0 0
0 0 0
0 0 0
0 0 0
0 0 0
0 0 0
82 24 231
16 156 16
115 140 156
0 0 0
140 57 33
0 41 8
0 0 0
0 0 0
140 24 165
0 41 8
0 0 0
0 0 0
140 41 0
0 8 57
0 0 0
0 0 0
0 16 0
0 0 0
0 239 16
0 0 0
0 0 0
57 247 0
0 0 0
57 247 0
0 0 0
57 247 0
0 0 0
0 0 0
49 123 90
57 239 74
99 214 90
189 222 49
222 165 90
57 222 66
0 0 8
0 0 0
82 107 99
16 156 16
115 140 156
0 0 0
82 132 33
16 156 16
115 140 156
0 0 0
99 66 132
16 156 16
115 140 156
0 0 0
0 0 0
0 0 0
0 0 0
0 0 0
0 0 0
0 0 0
0 0 0
0 0 0
82 24 231
16 156 16
115 140 156
0 0 0
140 66 231
0 41 8
0 0 0
0 0 0
140 41 99
0 41 8
0 0 0
0 0 0
140 41 0
0 8 57
0 0 0
0 0 0
0 16 0
0 0 0
0 239 24
0 0 0
0 0 0
57 247 0
0 0 0
57 247 0
0 0 0
57 247 0
0 0 0
0 0 0
239 16 206
57 231 173
181 41 74
57 231 247
0 0 0
0 0 0
0 0 8
0 0 0
82 140 132
16 156 16
115 140 156
0 0 0
82 74 66
16 156 16
115 140 156
0 0 0
82 148 231
16 156 16
115 140 156
0 0 0
0 0 0
0 0 0
0 0 0
0 0 0
0 0 0
0 0 0
0 0 0
0 0 0
82 24 231
16 156 16
115 140 156
0 0 0
140 82 165
0 41 8
0 0 0
0 0 0
140 57 33
0 41 8
0 0 0
0 0 0
140 41 0
0 8 57
0 0 0
0 0 0
0 16 0
0 0 0
0 239 24
0 0 0
0 0 0
57 247 0
0 0 0
57 247 0
0 0 0
57 247 0
0 0 0
0 0 0
8 99 74
57 231 66
123 24 33
57 231 214
198 132 140
57 222 99
0 0 8
0 0 0
82 140 132
16 156 16
115 140 156
0 0 0
82 148 231
16 156 16
115 140 156
0 0 0
90 181 165
16 156 16
115 140 156
0 0 0
0 0 0
0 0 0
0 0 0
0 0 0
0 0 0
0 0 0
0 0 0
0 0 0
82 24 231
16 156 16
115 140 156
0 0 0
140 99 99
0 41 8
0 0 0
0 0 0
140 66 231
0 41 8
0 0 0
0 0 0
140 41 0
0 8 57
0 0 0
0 0 0
0 16 0
0 0 0
0 239 33
0 0 0
0 0 0
57 247 0
0 0 0
57 247 0
0 0 0
57 247 0
0 0 0
0 0 0
99 181 255
189 181 41
66 33 206
189 239 156
8 107 148
57 222 115
0 0 8
0 0 0
82 165 66
16 156 16
115 140 156
0 0 0
82 173 165
16 156 16
115 140 156
0 0 0
82 189 0
16 156 16
115 140 156
0 0 0
0 0 0
0 0 0
0 0 0
0 0 0
0 0 0
0 0 0
0 0 0
0 0 0
82 24 231
16 156 16
115 140 156
0 0 0
140 115 33
0 41 8
0 0 0
0 0 0
140 82 165
0 41 8
0 0 0
0 0 0
140 41 0
0 8 57
0 0 0
0 0 0
0 16 0
0 0 0
0 239 33
0 0 0
0 0 0
57 247 0
0 0 0
57 247 0
0 0 0
57 247 0
0 0 0
0 0 0
66 99 74
189 198 165
107 198 49
189 239 214
247 247 0
57 206 181
0 0 8
0 0 0
82 165 66
16 156 16
115 140 156
0 0 0
82 189 0
16 156 16
115 140 156
0 0 0
99 41 198
16 156 16
115 140 156
0 0 0
0 0 0
0 0 0
0 0 0
0 0 0
0 0 0
0 0 0
0 0 0
0 0 0
82 24 231
16 156 16
115 140 156
0 0 0
140 123 231
0 41 8
0 0 0
0 0 0
140 99 99
0 41 8
0 0 0
0 0 0
140 41 0
0 8 57
0 0 0
0 0 0
0 16 0
0 0 0
0 239 41
0 0 0
0 0 0
57 247 0
0 0 0
57 247 0
0 0 0
57 247 0
0 0 0
0 0 0
99 255 255
57 239 41
255 107 49
189 231 0
24 198 74
57 214 206
0 0 8
0 0 0
82 198 99
16 156 16
115 140 156
0 0 0
99 74 231
16 156 16
115 140 156
0 0 0
82 206 198
16 156 16
115 140 156
0 0 0
0 0 0
0 0 0
0 0 0
0 0 0
0 0 0
0 0 0
0 0 0
0 0 0
82 24 231
16 156 16
115 140 156
0 0 0
140 140 165
0 41 8
0 0 0
0 0 0
140 115 33
0 41 8
0 0 0
0 0 0
140 41 0
0 8 57
0 0 0
0 0 0
0 16 0
0 0 0
0 239 41
0 0 0
0 0 0
57 247 0
0 0 0
57 247 0
0 0 0
57 247 0
0 0 0
0 0 0
90 123 255
57 239 189
148 165 247
189 214 214
0 0 0
0 0 0
0 0 8
0 0 0
82 198 99
16 156 16
115 140 156
0 0 0
82 206 198
16 156 16
115 140 156
0 0 0
82 222 33
16 156 16
115 140 156
0 0 0
0 0 0
0 0 0
0 0 0
0 0 0
0 0 0
0 0 0
0 0 0
0 0 0
82 24 231
16 156 16
115 140 156
0 0 0
140 156 99
0 41 8
0 0 0
0 0 0
140 123 231
0 41 8
0 0 0
0 0 0
140 41 0
0 8 57
0 0 0
0 0 0
0 16 0
0 0 0
0 239 49
0 0 0
0 0 0
57 247 0
0 0 0
57 247 0
0 0 0
57 247 0
0 0 0
0 0 0
255 115 173
189 239 132
107 99 198
189 214 222
123 41 165
57 214 140
0 0 8
0 0 0
82 231 132
16 156 16
115 140 156
0 0 0
82 239 231
16 156 16
115 140 156
0 0 0
82 255 66
16 156 16
115 140 156
0 0 0
0 0 0
0 0 0
0 0 0
0 0 0
0 0 0
0 0 0
0 0 0
0 0 0
82 24 231
16 156 16
115 140 156
0 0 0
140 173 33
0 41 8
0 0 0
0 0 0
140 140 165
0 41 8
0 0 0
0 0 0
140 41 0
0 8 57
0 0 0
0 0 0
0 16 0
0 0 0
0 239 49
0 0 0
0 0 0
57 247 0
0 0 0
57 247 0
0 0 0
57 247 0
0 0 0
0 0 0
49 123 90
189 239 74
99 214 90
189 222 49
222 165 90
57 222 66
0 0 8
0 0 0
82 231 132
16 156 16
115 140 156
0 0 0
82 255 66
16 156 16
115 140 156
0 0 0
90 206 99
16 156 16
115 140 156
0 0 0
0 0 0
0 0 0
0 0 0
0 0 0
0 0 0
0 0 0
0 0 0
0 0 0
82 24 231
16 156 16
115 140 156
0 0 0
140 181 231
0 41 8
0 0 0
0 0 0
140 156 99
0 41 8
0 0 0
0 0 0
140 41 0
0 8 57
0 0 0
0 0 0
0 16 0
0 0 0
0 239 57
0 0 0
0 0 0
57 247 0
0 0 0
57 247 0
0 0 0
57 247 0
0 0 0
0 0 0
123 66 99
189 239 140
231 57 173
189 198 181
99 16 239
57 222 107
0 0 8
0 0 0
82 99 0
16 156 16
115 140 156
0 0 0
82 82 165
16 156 16
115 140 156
0 0 0
99 90 66
16 156 16
115 140 156
0 0 0
0 0 0
0 0 0
0 0 0
0 0 0
0 0 0
0 0 0
0 0 0
0 0 0
82 24 231
16 156 16
115 140 156
0 0 0
140 198 165
0 41 8
0 0 0
0 0 0
140 173 33
0 41 8
0 0 0
0 0 0
140 41 0
0 8 57
0 0 0
0 0 0
0 16 0
0 0 0
0 239 57
0 0 0
0 0 0
57 247 0
0 0 0
57 247 0
0 0 0
57 247 0
0 0 0
0 0 0
115 115 255
189 239 148
165 239 231
189 206 57
239 90 231
57 222 33
0 0 8
0 0 0
82 99 0
16 156 16
115 140 156
0 0 0
99 90 66
16 156 16
115 140 156
0 0 0
90 0 165
16 156 16
115 140 156
0 0 0
0 0 0
0 0 0
0 0 0
0 0 0
0 0 0
0 0 0
0 0 0
0 0 0
82 24 231
16 156 16
115 140 156
0 0 0
140 214 99
0 41 8
0 0 0
0 0 0
140 181 231
0 41 8
0 0 0
0 0 0
140 41 0
0 8 57
0 0 0
0 0 0
0 16 0
0 0 0
0 239 66
0 0 0
0 0 0
57 247 0
0 0 0
57 247 0
0 0 0
57 247 0
0 0 0
0 0 0
66 99 82
57 239 156
107 247 206
57 181 41
8 165 206
57 222 115
0 0 8
0 0 0
90 16 0
16 156 16
115 140 156
0 0 0
90 24 99
16 156 16
115 140 156
0 0 0
90 33 198
16 156 16
115 140 156
0 0 0
0 0 0
0 0 0
0 0 0
0 0 0
0 0 0
0 0 0
0 0 0
0 0 0
82 24 231
16 156 16
115 140 156
0 0 0
140 231 33
0 41 8
0 0 0
0 0 0
140 198 165
0 41 8
0 0 0
0 0 0
140 41 0
0 8 57
0 0 0
0 0 0
0 16 0
0 0 0
0 239 66
0 0 0
0 0 0
57 247 0
0 0 0
57 247 0
0 0 0
57 247 0
0 0 0
0 0 0
66 90 140
57 239 165
132 214 99
57 189 8
66 165 99
57 222 49
0 0 8
0 0 0
90 16 0
16 156 16
115 140 156
0 0 0
90 33 198
16 156 16
115 140 156
0 0 0
99 156 132
16 156 16
115 140 156
0 0 0
0 0 0
0 0 0
0 0 0
0 0 0
0 0 0
0 0 0
0 0 0
0 0 0
82 24 231
16 156 16
115 140 156
0 0 0
140 239 231
0 41 8
0 0 0
0 0 0
140 214 99
0 41 8
0 0 0
0 0 0
140 41 0
0 8 57
0 0 0
0 0 0
0 16 0
0 0 0
0 239 74
0 0 0
0 0 0
57 247 0
0 0 0
57 247 0
0 0 0
57 247 0
0 0 0
0 0 0
107 206 24
189 222 115
239 173 49
57 239 16
132 99 165
57 222 181
0 0 8
0 0 0
90 49 33
16 156 16
115 140 156
0 0 0
90 57 132
16 156 16
115 140 156
0 0 0
90 156 231
16 156 16
115 140 156
0 0 0
0 0 0
0 0 0
0 0 0
0 0 0
0 0 0
0 0 0
0 0 0
0 0 0
82 24 231
16 156 16
115 140 156
0 0 0
140 255 165
0 41 8
0 0 0
0 0 0
140 231 33
0 41 8
0 0 0
0 0 0
140 41 0
0 8 57
0 0 0
0 0 0
0 16 0
0 0 0
0 239 74
0 0 0
0 0 0
57 247 0
0 0 0
57 247 0
0 0 0
57 247 0
0 0 0
0 0 0
123 231 24
189 239 0
198 115 24
57 231 165
0 0 0
0 0 0
0 0 8
0 0 0
90 49 33
16 156 16
115 140 156
0 0 0
90 156 231
16 156 16
115 140 156
0 0 0
90 66 231
16 156 16
115 140 156
0 0 0
0 0 0
0 0 0
0 0 0
0 0 0
0 0 0
0 0 0
0 0 0
0 0 0
82 24 231
16 156 16
115 140 156
0 0 0
148 8 99
0 41 8
0 0 0
0 0 0
140 239 231
0 41 8
0 0 0
0 0 0
140 41 0
0 8 57
0 0 0
0 0 0
0 16 0
0 0 0
0 239 82
0 0 0
0 0 0
57 247 0
0 0 0
57 247 0
0 0 0
57 247 0
0 0 0
0 0 0
0 0 0
132 0 0
0 0 0
57 247 0
0 0 0
0 0 0
0 0 8
0 0 0
90 82 66
16 156 16
115 140 156
0 0 0
90 90 165
16 156 16
115 140 156
0 0 0
90 115 99
16 156 16
115 140 156
0 0 0
0 0 0
0 0 0
0 0 0
0 0 0
0 0 0
0 0 0
0 0 0
0 0 0
82 24 231
16 156 16
115 140 156
0 0 0
148 24 33
0 41 8
0 0 0
0 0 0
140 255 165
0 41 8
0 0 0
0 0 0
140 41 0
0 8 57
0 0 0
0 0 0
0 16 0
0 0 0
0 239 82
0 0 0
0 0 0
57 247 0
0 0 0
57 247 0
0 0 0
57 247 0
0 0 0
0 0 0
0 0 0
0 0 0
0 0 0
57 247 0
0 0 0
0 0 0
0 0 8
0 0 0
90 82 66
16 156 16
115 140 156
0 0 0
90 115 99
16 156 16
115 140 156
0 0 0
90 107 0
16 156 16
115 140 156
0 0 0
0 0 0
0 0 0
0 0 0
0 0 0
0 0 0
0 0 0
0 0 0
0 0 0
82 24 231
16 156 16
115 140 156
0 0 0
148 33 231
0 41 8
0 0 0
0 0 0
148 8 99
0 41 8
0 0 0
0 0 0
140 41 0
0 8 57
0 0 0
0 0 0
0 16 0
0 0 0
0 239 90
0 0 0
0 0 0
57 247 0
0 0 0
57 247 0
0 0 0
57 247 0
0 0 0
0 0 0
74 16 189
189 214 206
206 90 66
57 239 189
0 0 0
0 0 0
0 0 8
0 0 0
90 115 99
16 156 16
115 140 156
0 0 0
90 90 165
16 156 16
115 140 156
0 0 0
90 49 33
16 156 16
115 140 156
0 0 0
0 0 0
0 0 0
0 0 0
0 0 0
0 0 0
0 0 0
0 0 0
0 0 0
82 24 231
16 156 16
115 140 156
0 0 0
148 49 165
0 41 8
0 0 0
0 0 0
148 24 33
0 41 8
0 0 0
0 0 0
140 41 0
0 8 57
0 0 0
0 0 0
0 16 0
0 0 0
0 239 90
0 0 0
0 0 0
57 247 0
0 0 0
57 247 0
0 0 0
57 247 0
0 0 0
0 0 0
74 16 189
189 214 206
206 90 66
57 239 189
0 0 0
0 0 0
0 0 8
0 0 0
90 115 99
16 156 16
115 140 156
0 0 0
90 49 33
16 156 16
115 140 156
0 0 0
90 66 231
16 156 16
115 140 156
0 0 0
0 0 0
0 0 0
0 0 0
0 0 0
0 0 0
0 0 0
0 0 0
0 0 0
82 24 231
16 156 16
115 140 156
0 0 0
148 66 99
0 41 8
0 0 0
0 0 0
148 33 231
0 41 8
0 0 0
0 0 0
140 41 0
0 8 57
0 0 0
0 0 0
0 16 0
0 0 0
0 239 99
0 0 0
0 0 0
57 247 0
0 0 0
57 247 0
0 0 0
57 247 0
0 0 0
0 0 0
74 16 189
57 214 206
206 90 66
57 239 189
0 0 0
0 0 0
0 0 8
0 0 0
82 74 66
16 156 16
115 140 156
0 0 0
90 82 66
16 156 16
115 140 156
0 0 0
90 107 0
16 156 16
115 140 156
0 0 0
0 0 0
0 0 0
0 0 0
0 0 0
0 0 0
0 0 0
0 0 0
0 0 0
82 24 231
16 156 16
115 140 156
0 0 0
148 82 33
0 41 8
0 0 0
0 0 0
148 49 165
0 41 8
0 0 0
0 0 0
140 41 0
0 8 57
0 0 0
0 0 0
0 16 0
0 0 0
0 239 99
0 0 0
0 0 0
57 247 0
0 0 0
57 247 0
0 0 0
57 247 0
0 0 0
0 0 0
74 16 189
57 214 206
206 90 66
57 239 189
0 0 0
0 0 0
0 0 8
0 0 0
82 74 66
16 156 16
115 140 156
0 0 0
90 107 0
16 156 16
115 140 156
0 0 0
82 148 231
16 156 16
115 140 156
0 0 0
0 0 0
0 0 0
0 0 0
0 0 0
0 0 0
0 0 0
0 0 0
0 0 0
82 24 231
16 156 16
115 140 156
0 0 0
148 90 231
0 41 8
0 0 0
0 0 0
148 66 99
0 41 8
0 0 0
0 0 0
140 41 0
0 8 57
0 0 0
0 0 0
0 16 0
0 0 0
0 239 107
0 0 0
0 0 0
57 247 0
0 0 0
57 247 0
0 0 0
57 247 0
0 0 0
0 0 0
198 214 140
57 231 132
165 8 99
189 231 156
74 156 24
57 222 90
0 0 8
0 0 0
90 123 198
16 156 16
115 140 156
0 0 0
90 140 33
16 156 16
115 140 156
0 0 0
90 148 132
16 156 16
115 140 156
0 0 0
0 0 0
0 0 0
0 0 0
0 0 0
0 0 0
0 0 0
0 0 0
0 0 0
82 24 231
16 156 16
115 140 156
0 0 0
148 107 165
0 41 8
0 0 0
0 0 0
148 82 33
0 41 8
0 0 0
0 0 0
140 41 0
0 8 57
0 0 0
0 0 0
0 16 0
0 0 0
0 239 107
0 0 0
0 0 0
57 247 0
0 0 0
57 247 0
0 0 0
57 247 0
0 0 0
0 0 0
140 231 181
57 231 181
165 222 206
189 231 165
222 181 214
57 214 140
0 0 8
0 0 0
90 123 198
16 156 16
115 140 156
0 0 0
90 148 132
16 156 16
115 140 156
0 0 0
99 57 33
16 156 16
115 140 156
0 0 0
0 0 0
0 0 0
0 0 0
0 0 0
0 0 0
0 0 0
0 0 0
0 0 0
82 24 231
16 156 16
115 140 156
0 0 0
148 123 99
0 41 8
0 0 0
0 0 0
148 90 231
0 41 8
0 0 0
0 0 0
140 41 0
0 8 57
0 0 0
0 0 0
0 16 0
0 0 0
0 239 115
0 0 0
0 0 0
57 247 0
0 0 0
57 247 0
0 0 0
57 247 0
0 0 0
0 0 0
181 206 181
57 239 123
107 247 132
57 222 82
8 255 24
57 214 0
0 0 8
0 0 0
90 156 231
16 156 16
115 140 156
0 0 0
90 57 132
16 156 16
115 140 156
0 0 0
90 16 0
16 156 16
115 140 156
0 0 0
0 0 0
0 0 0
0 0 0
0 0 0
0 0 0
0 0 0
0 0 0
0 0 0
82 24 231
16 156 16
115 140 156
0 0 0
148 140 33
0 41 8
0 0 0
0 0 0
148 107 165
0 41 8
0 0 0
0 0 0
140 41 0
0 8 57
0 0 0
0 0 0
0 16 0
0 0 0
0 239 115
0 0 0
0 0 0
57 247 0
0 0 0
57 247 0
0 0 0
57 247 0
0 0 0
0 0 0
148 123 82
57 239 74
8 74 140
57 222 115
49 0 181
57 214 239
0 0 8
0 0 0
90 156 231
16 156 16
115 140 156
0 0 0
90 16 0
16 156 16
115 140 156
0 0 0
99 156 132
16 156 16
115 140 156
0 0 0
0 0 0
0 0 0
0 0 0
0 0 0
0 0 0
0 0 0
0 0 0
0 0 0
82 24 231
16 156 16
115 140 156
0 0 0
148 148 231
0 41 8
0 0 0
0 0 0
148 123 99
0 41 8
0 0 0
0 0 0
140 41 0
0 8 57
0 0 0
0 0 0
0 16 0
0 0 0
0 239 123
0 0 0
0 0 0
57 247 0
0 0 0
57 247 0
0 0 0
57 247 0
0 0 0
0 0 0
181 206 181
189 239 123
107 247 132
57 222 82
8 255 24
57 214 0
0 0 8
0 0 0
90 173 66
16 156 16
115 140 156
0 0 0
82 140 132
16 156 16
115 140 156
0 0 0
90 181 165
16 156 16
115 140 156
0 0 0
0 0 0
0 0 0
0 0 0
0 0 0
0 0 0
0 0 0
0 0 0
0 0 0
82 24 231
16 156 16
115 140 156
0 0 0
148 165 165
0 41 8
0 0 0
0 0 0
148 140 33
0 41 8
0 0 0
0 0 0
140 41 0
0 8 57
0 0 0
0 0 0
0 16 0
0 0 0
0 239 123
0 0 0
0 0 0
57 247 0
0 0 0
57 247 0
0 0 0
57 247 0
0 0 0
0 0 0
148 123 82
189 239 74
8 74 140
57 222 115
49 0 181
57 214 239
0 0 8
0 0 0
90 173 66
16 156 16
115 140 156
0 0 0
90 181 165
16 156 16
115 140 156
0 0 0
99 165 231
16 156 16
115 140 156
0 0 0
0 0 0
0 0 0
0 0 0
0 0 0
0 0 0
0 0 0
0 0 0
0 0 0
82 24 231
16 156 16
115 140 156
0 0 0
148 181 99
0 41 8
0 0 0
0 0 0
148 148 231
0 41 8
0 0 0
0 0 0
140 41 0
0 8 57
0 0 0
0 0 0
0 16 0
0 0 0
0 239 132
0 0 0
0 0 0
57 247 0
0 0 0
57 247 0
0 0 0
57 247 0
0 0 0
0 0 0
173 99 156
189 214 107
231 41 239
189 239 206
0 0 0
132 0 0
0 0 8
0 0 0
82 255 66
16 156 16
115 140 156
0 0 0
90 198 0
16 156 16
115 140 156
0 0 0
99 99 165
16 156 16
115 140 156
0 0 0
0 0 0
0 0 0
0 0 0
0 0 0
0 0 0
0 0 0
0 0 0
0 0 0
82 24 231
16 156 16
115 140 156
0 0 0
148 198 33
0 41 8
0 0 0
0 0 0
148 165 165
0 41 8
0 0 0
0 0 0
140 41 0
0 8 57
0 0 0
0 0 0
0 16 0
0 0 0
0 239 132
0 0 0
0 0 0
57 247 0
0 0 0
57 247 0
0 0 0
57 247 0
0 0 0
0 0 0
189 49 57
189 231 57
132 222 82
189 231 239
24 115 239
57 222 16
0 0 8
0 0 0
82 255 66
16 156 16
115 140 156
0 0 0
99 99 165
16 156 16
115 140 156
0 0 0
90 206 99
16 156 16
115 140 156
0 0 0
0 0 0
0 0 0
0 0 0
0 0 0
0 0 0
0 0 0
0 0 0
0 0 0
82 24 231
16 156 16
115 140 156
0 0 0
148 206 231
0 41 8
0 0 0
0 0 0
148 181 99
0 41 8
0 0 0
0 0 0
140 41 0
0 8 57
0 0 0
0 0 0
0 16 0
0 0 0
0 239 140
0 0 0
0 0 0
57 247 0
0 0 0
57 247 0
0 0 0
57 247 0
0 0 0
0 0 0
198 99 255
57 231 189
231 99 8
189 231 156
0 181 82
57 214 148
0 0 8
0 0 0
90 214 198
16 156 16
115 140 156
0 0 0
82 132 33
16 156 16
115 140 156
0 0 0
82 115 198
16 156 16
115 140 156
0 0 0
0 0 0
0 0 0
0 0 0
0 0 0
0 0 0
0 0 0
0 0 0
0 0 0
82 24 231
16 156 16
115 140 156
0 0 0
148 222 165
0 41 8
0 0 0
0 0 0
148 198 33
0 41 8
0 0 0
0 0 0
140 41 0
0 8 57
0 0 0
0 0 0
0 16 0
0 0 0
0 239 140
0 0 0
0 0 0
57 247 0
0 0 0
57 247 0
0 0 0
57 247 0
0 0 0
0 0 0
148 173 66
57 231 206
189 231 107
189 231 148
123 247 140
57 214 99
0 0 8
0 0 0
90 214 198
16 156 16
115 140 156
0 0 0
82 115 198
16 156 16
115 140 156
0 0 0
90 231 33
16 156 16
115 140 156
0 0 0
0 0 0
0 0 0
0 0 0
0 0 0
0 0 0
0 0 0
0 0 0
0 0 0
82 24 231
16 156 16
115 140 156
0 0 0
148 239 99
0 41 8
0 0 0
0 0 0
148 206 231
0 41 8
0 0 0
0 0 0
140 41 0
0 8 57
0 0 0
0 0 0
0 16 0
0 0 0
0 239 148
0 0 0
0 0 0
57 247 0
0 0 0
57 247 0
0 0 0
57 247 0
0 0 0
0 0 0
198 90 181
189 198 123
24 231 140
189 239 181
173 24 222
57 214 189
0 0 8
0 0 0
90 239 132
16 156 16
115 140 156
0 0 0
90 247 231
16 156 16
115 140 156
0 0 0
99 132 198
16 156 16
115 140 156
0 0 0
0 0 0
0 0 0
0 0 0
0 0 0
0 0 0
0 0 0
0 0 0
0 0 0
82 24 231
16 156 16
115 140 156
0 0 0
148 255 33
0 41 8
0 0 0
0 0 0
148 222 165
0 41 8
0 0 0
0 0 0
140 41 0
0 8 57
0 0 0
0 0 0
0 16 0
0 0 0
0 239 148
0 0 0
0 0 0
57 247 0
0 0 0
57 247 0
0 0 0
57 247 0
0 0 0
0 0 0
82 33 255
189 198 90
82 247 214
189 239 189
222 82 33
57 214 173
0 0 8
0 0 0
90 239 132
16 156 16
115 140 156
0 0 0
99 132 198
16 156 16
115 140 156
0 0 0
99 0 66
16 156 16
115 140 156
0 0 0
0 0 0
0 0 0
0 0 0
0 0 0
0 0 0
0 0 0
0 0 0
0 0 0
82 24 231
16 156 16
115 140 156
0 0 0
156 0 231
0 41 8
0 0 0
0 0 0
148 239 99
0 41 8
0 0 0
0 0 0
140 41 0
0 8 57
0 0 0
0 0 0
0 16 0
0 0 0
0 239 156
0 0 0
0 0 0
57 247 0
0 0 0
57 247 0
0 0 0
57 247 0
0 0 0
0 0 0
0 0 0
0 0 0
0 0 0
189 247 0
0 0 0
0 0 0
0 0 8
0 0 0
99 8 165
16 156 16
115 140 156
0 0 0
99 24 0
16 156 16
115 140 156
0 0 0
99 123 99
16 156 16
115 140 156
0 0 0
0 0 0
0 0 0
0 0 0
0 0 0
0 0 0
0 0 0
0 0 0
0 0 0
82 24 231
16 156 16
115 140 156
0 0 0
156 16 165
0 41 8
0 0 0
0 0 0
148 255 33
0 41 8
0 0 0
0 0 0
140 41 0
0 8 57
0 0 0
0 0 0
0 16 0
0 0 0
0 239 156
0 0 0
0 0 0
57 247 0
0 0 0
57 247 0
0 0 0
57 247 0
0 0 0
0 0 0
0 0 0
0 0 0
0 0 0
189 247 0
0 0 0
0 0 0
0 0 8
0 0 0
99 8 165
16 156 16
115 140 156
0 0 0
99 123 99
16 156 16
115 140 156
0 0 0
99 33 99
16 156 16
115 140 156
0 0 0
0 0 0
0 0 0
0 0 0
0 0 0
0 0 0
0 0 0
0 0 0
0 0 0
82 24 231
16 156 16
115 140 156
0 0 0
156 33 99
0 41 8
0 0 0
0 0 0
156 0 231
0 41 8
0 0 0
0 0 0
140 41 0
0 8 57
0 0 0
0 0 0
0 16 0
0 0 0
0 239 165
0 0 0
0 0 0
57 247 0
0 0 0
57 247 0
0 0 0
57 247 0
0 0 0
0 0 0
82 49 165
189 231 206
255 214 231
189 231 140
115 156 156
57 214 148
0 0 8
0 0 0
82 189 0
16 156 16
115 140 156
0 0 0
82 239 231
16 156 16
115 140 156
0 0 0
82 231 132
16 156 16
115 140 156
0 0 0
0 0 0
0 0 0
0 0 0
0 0 0
0 0 0
0 0 0
0 0 0
0 0 0
82 24 231
16 156 16
115 140 156
0 0 0
156 49 33
0 41 8
0 0 0
0 0 0
156 16 165
0 41 8
0 0 0
0 0 0
140 41 0
0 8 57
0 0 0
0 0 0
0 16 0
0 0 0
0 239 165
0 0 0
0 0 0
57 247 0
0 0 0
57 247 0
0 0 0
57 247 0
0 0 0
0 0 0
247 255 33
189 231 189
156 231 115
189 231 165
82 0 189
57 214 99
0 0 8
0 0 0
82 189 0
16 156 16
115 140 156
0 0 0
82 231 132
16 156 16
115 140 156
0 0 0
99 41 198
16 156 16
115 140 156
0 0 0
0 0 0
0 0 0
0 0 0
0 0 0
0 0 0
0 0 0
0 0 0
0 0 0
82 24 231
16 156 16
115 140 156
0 0 0
156 57 231
0 41 8
0 0 0
0 0 0
156 33 99
0 41 8
0 0 0
0 0 0
140 41 0
0 8 57
0 0 0
0 0 0
0 16 0
0 0 0
0 239 173
0 0 0
0 0 0
57 247 0
0 0 0
57 247 0
0 0 0
57 247 0
0 0 0
0 0 0
99 181 255
57 181 41
66 33 206
189 239 156
8 107 148
57 222 115
0 0 8
0 0 0
90 231 33
16 156 16
115 140 156
0 0 0
90 123 198
16 156 16
115 140 156
0 0 0
99 57 33
16 156 16
115 140 156
0 0 0
0 0 0
0 0 0
0 0 0
0 0 0
0 0 0
0 0 0
0 0 0
0 0 0
82 24 231
16 156 16
115 140 156
0 0 0
156 74 165
0 41 8
0 0 0
0 0 0
156 49 33
0 41 8
0 0 0
0 0 0
140 41 0
0 8 57
0 0 0
0 0 0
0 16 0
0 0 0
0 239 173
0 0 0
0 0 0
57 247 0
0 0 0
57 247 0
0 0 0
57 247 0
0 0 0
0 0 0
66 99 74
57 198 165
107 198 49
189 239 214
247 247 0
57 206 181
0 0 8
0 0 0
90 231 33
16 156 16
115 140 156
0 0 0
99 57 33
16 156 16
115 140 156
0 0 0
90 214 198
16 156 16
115 140 156
0 0 0
0 0 0
0 0 0
0 0 0
0 0 0
0 0 0
0 0 0
0 0 0
0 0 0
82 24 231
16 156 16
115 140 156
0 0 0
156 90 99
0 41 8
0 0 0
0 0 0
156 57 231
0 41 8
0 0 0
0 0 0
140 41 0
0 8 57
0 0 0
0 0 0
0 16 0
0 0 0
0 239 181
0 0 0
0 0 0
57 247 0
0 0 0
57 247 0
0 0 0
57 247 0
0 0 0
0 0 0
140 57 123
57 214 82
231 140 214
57 165 156
156 181 82
189 239 214
0 0 8
0 0 0
90 206 99
16 156 16
115 140 156
0 0 0
82 148 231
16 156 16
115 140 156
0 0 0
90 107 0
16 156 16
115 140 156
0 0 0
0 0 0
0 0 0
0 0 0
0 0 0
0 0 0
0 0 0
0 0 0
0 0 0
82 24 231
16 156 16
115 140 156
0 0 0
156 107 33
0 41 8
0 0 0
0 0 0
156 74 165
0 41 8
0 0 0
0 0 0
140 41 0
0 8 57
0 0 0
0 0 0
0 16 0
0 0 0
0 239 181
0 0 0
0 0 0
57 247 0
0 0 0
57 247 0
0 0 0
57 247 0
0 0 0
0 0 0
99 0 33
57 222 16
74 33 107
189 239 107
189 156 82
57 214 198
0 0 8
0 0 0
82 222 33
16 156 16
115 140 156
0 0 0
82 107 99
16 156 16
115 140 156
0 0 0
99 66 132
16 156 16
115 140 156
0 0 0
0 0 0
0 0 0
0 0 0
0 0 0
0 0 0
0 0 0
0 0 0
0 0 0
82 24 231
16 156 16
115 140 156
0 0 0
156 115 231
0 41 8
0 0 0
0 0 0
156 90 99
0 41 8
0 0 0
0 0 0
140 41 0
0 8 57
0 0 0
0 0 0
0 16 0
0 0 0
0 239 189
0 0 0
0 0 0
57 247 0
0 0 0
57 247 0
0 0 0
57 247 0
0 0 0
0 0 0
189 57 115
57 222 247
165 115 247
189 239 123
0 0 0
0 0 0
0 0 8
0 0 0
82 222 33
16 156 16
115 140 156
0 0 0
99 66 132
16 156 16
115 140 156
0 0 0
82 198 99
16 156 16
115 140 156
0 0 0
0 0 0
0 0 0
0 0 0
0 0 0
0 0 0
0 0 0
0 0 0
0 0 0
82 24 231
16 156 16
115 140 156
0 0 0
156 132 165
0 41 8
0 0 0
0 0 0
156 107 33
0 41 8
0 0 0
0 0 0
140 41 0
0 8 57
0 0 0
0 0 0
0 16 0
0 0 0
0 239 189
0 0 0
0 0 0
57 247 0
0 0 0
57 247 0
0 0 0
57 247 0
0 0 0
0 0 0
173 156 74
57 239 156
239 165 214
189 198 206
255 206 247
57 222 41
0 0 8
0 0 0
90 24 99
16 156 16
115 140 156
0 0 0
82 206 198
16 156 16
115 140 156
0 0 0
99 74 231
16 156 16
115 140 156
0 0 0
0 0 0
0 0 0
0 0 0
0 0 0
0 0 0
0 0 0
0 0 0
0 0 0
82 24 231
16 156 16
115 140 156
0 0 0
156 148 99
0 41 8
0 0 0
0 0 0
156 115 231
0 41 8
0 0 0
0 0 0
140 41 0
0 8 57
0 0 0
0 0 0
0 16 0
0 0 0
0 239 198
0 0 0
0 0 0
57 247 0
0 0 0
57 247 0
0 0 0
57 247 0
0 0 0
0 0 0
82 156 115
57 239 140
74 181 173
189 206 33
66 231 239
57 222 99
0 0 8
0 0 0
90 24 99
16 156 16
115 140 156
0 0 0
99 74 231
16 156 16
115 140 156
0 0 0
90 33 198
16 156 16
115 140 156
0 0 0
0 0 0
0 0 0
0 0 0
0 0 0
0 0 0
0 0 0
0 0 0
0 0 0
82 24 231
16 156 16
115 140 156
0 0 0
156 165 33
0 41 8
0 0 0
0 0 0
156 132 165
0 41 8
0 0 0
0 0 0
140 41 0
0 8 57
0 0 0
0 0 0
0 16 0
0 0 0
0 239 198
0 0 0
0 0 0
57 247 0
0 0 0
57 247 0
0 0 0
57 247 0
0 0 0
0 0 0
206 33 189
189 239 165
74 49 206
57 181 41
189 107 24
57 222 49
0 0 8
0 0 0
82 82 165
16 156 16
115 140 156
0 0 0
90 173 66
16 156 16
115 140 156
0 0 0
99 165 231
16 156 16
115 140 156
0 0 0
0 0 0
0 0 0
0 0 0
0 0 0
0 0 0
0 0 0
0 0 0
0 0 0
82 24 231
16 156 16
115 140 156
0 0 0
156 173 231
0 41 8
0 0 0
0 0 0
156 148 99
0 41 8
0 0 0
0 0 0
140 41 0
0 8 57
0 0 0
0 0 0
0 16 0
0 0 0
0 239 206
0 0 0
0 0 0
57 247 0
0 0 0
57 247 0
0 0 0
57 247 0
0 0 0
0 0 0
198 33 8
189 239 148
214 132 181
57 189 0
148 8 82
57 222 115
0 0 8
0 0 0
82 82 165
16 156 16
115 140 156
0 0 0
99 165 231
16 156 16
115 140 156
0 0 0
99 90 66
16 156 16
115 140 156
0 0 0
0 0 0
0 0 0
0 0 0
0 0 0
0 0 0
0 0 0
0 0 0
0 0 0
82 24 231
16 156 16
115 140 156
0 0 0
156 189 165
0 41 8
0 0 0
0 0 0
156 165 33
0 41 8
0 0 0
0 0 0
140 41 0
0 8 57
0 0 0
0 0 0
0 16 0
0 0 0
0 239 206
0 0 0
0 0 0
57 247 0
0 0 0
57 247 0
0 0 0
57 247 0
0 0 0
0 0 0
8 165 132
189 239 148
74 33 231
189 206 173
173 239 148
57 222 33
0 0 8
0 0 0
90 198 0
16 156 16
115 140 156
0 0 0
82 99 0
16 156 16
115 140 156
0 0 0
90 0 165
16 156 16
115 140 156
0 0 0
0 0 0
0 0 0
0 0 0
0 0 0
0 0 0
0 0 0
0 0 0
0 0 0
82 24 231
16 156 16
115 140 156
0 0 0
156 206 99
0 41 8
0 0 0
0 0 0
156 173 231
0 41 8
0 0 0
0 0 0
140 41 0
0 8 57
0 0 0
0 0 0
0 16 0
0 0 0
0 239 214
0 0 0
0 0 0
57 247 0
0 0 0
57 247 0
0 0 0
57 247 0
0 0 0
0 0 0
247 123 222
189 239 41
189 33 74
189 231 107
0 0 0
0 0 0
0 0 8
0 0 0
90 198 0
16 156 16
115 140 156
0 0 0
90 0 165
16 156 16
115 140 156
0 0 0
99 99 165
16 156 16
115 140 156
0 0 0
0 0 0
0 0 0
0 0 0
0 0 0
0 0 0
0 0 0
0 0 0
0 0 0
82 24 231
16 156 16
115 140 156
0 0 0
156 222 33
0 41 8
0 0 0
0 0 0
156 189 165
0 41 8
0 0 0
0 0 0
140 41 0
0 8 57
0 0 0
0 0 0
0 16 0
0 0 0
0 239 214
0 0 0
0 0 0
57 247 0
0 0 0
57 247 0
0 0 0
57 247 0
0 0 0
0 0 0
99 99 140
57 214 74
214 24 16
189 239 181
189 247 74
57 206 198
0 0 8
0 0 0
99 33 99
16 156 16
115 140 156
0 0 0
90 239 132
16 156 16
115 140 156
0 0 0
99 0 66
16 156 16
115 140 156
0 0 0
0 0 0
0 0 0
0 0 0
0 0 0
0 0 0
0 0 0
0 0 0
0 0 0
82 24 231
16 156 16
115 140 156
0 0 0
156 231 231
0 41 8
0 0 0
0 0 0
156 206 99
0 41 8
0 0 0
0 0 0
140 41 0
0 8 57
0 0 0
0 0 0
0 16 0
0 0 0
0 239 222
0 0 0
0 0 0
57 247 0
0 0 0
57 247 0
0 0 0
57 247 0
0 0 0
0 0 0
33 82 148
57 222 115
231 132 181
189 239 156
0 0 0
0 0 0
0 0 8
0 0 0
99 33 99
16 156 16
115 140 156
0 0 0
99 0 66
16 156 16
115 140 156
0 0 0
99 8 165
16 156 16
115 140 156
0 0 0
0 0 0
0 0 0
0 0 0
0 0 0
0 0 0
0 0 0
0 0 0
0 0 0
82 24 231
16 156 16
115 140 156
0 0 0
156 247 165
0 41 8
0 0 0
0 0 0
156 222 33
0 41 8
0 0 0
0 0 0
140 41 0
0 8 57
0 0 0
0 0 0
0 16 0
0 0 0
0 239 222
0 0 0
0 0 0
57 247 0
0 0 0
57 247 0
0 0 0
57 247 0
0 0 0
0 0 0
8 198 206
189 222 49
0 181 24
189 239 148
231 255 206
57 206 41
0 0 8
0 0 0
99 24 0
16 156 16
115 140 156
0 0 0
99 148 33
16 156 16
115 140 156
0 0 0
99 115 0
16 156 16
115 140 156
0 0 0
0 0 0
0 0 0
0 0 0
0 0 0
0 0 0
0 0 0
0 0 0
0 0 0
82 24 231
16 156 16
115 140 156
0 0 0
165 0 99
0 41 8
0 0 0
0 0 0
156 231 231
0 41 8
0 0 0
0 0 0
140 41 0
0 8 57
0 0 0
0 0 0
0 16 0
0 0 0
0 239 231
0 0 0
0 0 0
57 247 0
0 0 0
57 247 0
0 0 0
57 247 0
0 0 0
0 0 0
198 206 206
189 214 206
181 107 16
189 239 189
0 0 0
0 0 0
0 0 8
0 0 0
99 24 0
16 156 16
115 140 156
0 0 0
99 115 0
16 156 16
115 140 156
0 0 0
99 123 99
16 156 16
115 140 156
0 0 0
0 0 0
0 0 0
0 0 0
0 0 0
0 0 0
0 0 0
0 0 0
0 0 0
82 24 231
16 156 16
115 140 156
0 0 0
165 16 33
0 41 8
0 0 0
0 0 0
156 247 165
0 41 8
0 0 0
0 0 0
140 41 0
0 8 57
0 0 0
0 0 0
0 16 0
0 0 0
0 239 231
0 0 0
0 0 0
57 247 0
0 0 0
57 247 0
0 0 0
57 247 0
0 0 0
0 0 0
24 123 148
189 231 132
16 156 156
189 231 214
231 24 115
57 214 181
0 0 8
0 0 0
90 247 231
16 156 16
115 140 156
0 0 0
82 173 165
16 156 16
115 140 156
0 0 0
82 165 66
16 156 16
115 140 156
0 0 0
0 0 0
0 0 0
0 0 0
0 0 0
0 0 0
0 0 0
0 0 0
0 0 0
82 24 231
16 156 16
115 140 156
0 0 0
165 24 231
0 41 8
0 0 0
0 0 0
165 0 99
0 41 8
0 0 0
0 0 0
140 41 0
0 8 57
0 0 0
0 0 0
0 16 0
0 0 0
0 239 239
0 0 0
0 0 0
57 247 0
0 0 0
57 247 0
0 0 0
57 247 0
0 0 0
0 0 0
198 90 57
189 231 173
49 165 206
189 231 115
181 231 181
57 222 90
0 0 8
0 0 0
90 247 231
16 156 16
115 140 156
0 0 0
82 165 66
16 156 16
115 140 156
0 0 0
99 132 198
16 156 16
115 140 156
0 0 0
0 0 0
0 0 0
0 0 0
0 0 0
0 0 0
0 0 0
0 0 0
0 0 0
82 24 231
16 156 16
115 140 156
0 0 0
165 41 165
0 41 8
0 0 0
0 0 0
165 16 33
0 41 8
0 0 0
0 0 0
140 41 0
0 8 57
0 0 0
0 0 0
0 16 0
0 0 0
0 239 239
0 0 0
0 0 0
57 247 0
0 0 0
57 247 0
0 0 0
57 247 0
0 0 0
0 0 0
198 33 156
57 198 115
255 189 132
189 239 181
90 82 132
57 214 173
0 0 8
0 0 0
90 140 33
16 156 16
115 140 156
0 0 0
99 115 0
16 156 16
115 140 156
0 0 0
99 148 33
16 156 16
115 140 156
0 0 0
0 0 0
0 0 0
0 0 0
0 0 0
0 0 0
0 0 0
0 0 0
0 0 0
82 24 231
16 156 16
115 140 156
0 0 0
165 57 99
0 41 8
0 0 0
0 0 0
165 24 231
0 41 8
0 0 0
0 0 0
140 41 0
0 8 57
0 0 0
0 0 0
0 16 0
0 0 0
0 239 247
0 0 0
0 0 0
57 247 0
0 0 0
57 247 0
0 0 0
57 247 0
0 0 0
0 0 0
41 99 90
57 198 99
140 173 255
189 239 181
206 123 90
57 214 189
0 0 8
0 0 0
90 140 33
16 156 16
115 140 156
0 0 0
99 148 33
16 156 16
115 140 156
0 0 0
90 148 132
16 156 16
115 140 156
0 0 0
0 0 0
0 0 0
0 0 0
0 0 0
0 0 0
0 0 0
0 0 0
0 0 0
82 24 231
16 156 16
115 140 156
0 0 0
165 74 33
0 41 8
0 0 0
0 0 0
165 41 165
0 41 8
0 0 0
0 0 0
140 41 0
0 8 57
0 0 0
0 0 0
0 16 0
0 0 0
0 239 247
0 0 0
0 0 0
57 247 0
0 0 0
57 247 0
0 0 0
57 247 0
0 0 0
0 0 0
206 132 24
57 198 206
41 66 140
189 206 115
255 132 74
57 239 214
0 0 8
0 0 0
99 123 99
16 156 16
115 140 156
0 0 0
99 115 0
16 156 16
115 140 156
0 0 0
90 90 165
16 156 16
115 140 156
0 0 0
0 0 0
0 0 0
0 0 0
0 0 0
0 0 0
0 0 0
0 0 0
0 0 0
82 24 231
16 156 16
115 140 156
0 0 0
165 82 231
0 41 8
0 0 0
0 0 0
165 57 99
0 41 8
0 0 0
0 0 0
140 41 0
0 8 57
0 0 0
0 0 0
0 16 0
0 0 0
0 239 255
0 0 0
0 0 0
57 247 0
0 0 0
57 247 0
0 0 0
57 247 0
0 0 0
0 0 0
0 0 0
0 0 0
189 57 74
189 189 33
198 140 222
57 239 255
0 0 8
0 0 0
99 33 99
16 156 16
115 140 156
0 0 0
99 123 99
16 156 16
115 140 156
0 0 0
90 90 165
16 156 16
115 140 156
0 0 0
0 0 0
0 0 0
0 0 0
0 0 0
0 0 0
0 0 0
0 0 0
0 0 0
82 24 231
16 156 16
115 140 156
0 0 0
165 99 165
0 41 8
0 0 0
0 0 0
165 74 33
0 41 8
0 0 0
0 0 0
140 41 0
0 8 57
0 0 0
0 0 0
0 16 0
0 0 0
0 239 255
0 0 0
0 0 0
57 247 0
0 0 0
57 247 0
0 0 0
57 247 0
0 0 0
0 0 0
0 0 0
0 0 0
189 57 74
189 189 33
198 140 231
57 239 255
0 0 8
0 0 0
99 33 99
16 156 16
115 140 156
0 0 0
90 90 165
16 156 16
115 140 156
0 0 0
90 82 66
16 156 16
115 140 156
0 0 0
0 0 0
0 0 0
0 0 0
0 0 0
0 0 0
0 0 0
0 0 0
0 0 0
82 24 231
16 156 16
115 140 156
0 0 0
165 115 99
0 41 8
0 0 0
0 0 0
165 82 231
0 41 8
0 0 0
0 0 0
140 41 0
0 8 57
0 0 0
0 0 0
0 16 0
0 0 0
0 247 0
0 0 0
0 0 0
57 247 0
0 0 0
57 247 0
0 0 0
57 247 0
0 0 0
0 0 0
90 231 156
57 222 239
156 0 181
189 198 231
49 66 107
57 239 107
0 0 8
0 0 0
90 140 33
16 156 16
115 140 156
0 0 0
90 123 198
16 156 16
115 140 156
0 0 0
90 90 165
16 156 16
115 140 156
0 0 0
0 0 0
0 0 0
0 0 0
0 0 0
0 0 0
0 0 0
0 0 0
0 0 0
82 24 231
16 156 16
115 140 156
0 0 0
165 132 33
0 41 8
0 0 0
0 0 0
165 99 165
0 41 8
0 0 0
0 0 0
140 41 0
0 8 57
0 0 0
0 0 0
0 16 0
0 0 0
0 247 0
0 0 0
0 0 0
57 247 0
0 0 0
57 247 0
0 0 0
57 247 0
0 0 0
0 0 0
90 49 140
57 214 0
247 90 49
57 198 173
16 49 165
57 239 214
0 0 8
0 0 0
82 107 99
16 156 16
115 140 156
0 0 0
82 222 33
16 156 16
115 140 156
0 0 0
82 206 198
16 156 16
115 140 156
0 0 0
0 0 0
0 0 0
0 0 0
0 0 0
0 0 0
0 0 0
0 0 0
0 0 0
82 24 231
16 156 16
115 140 156
0 0 0
165 140 231
0 41 8
0 0 0
0 0 0
165 115 99
0 41 8
0 0 0
0 0 0
140 41 0
0 8 57
0 0 0
0 0 0
0 16 0
0 0 0
0 247 8
0 0 0
0 0 0
57 247 0
0 0 0
57 247 0
0 0 0
57 247 0
0 0 0
0 0 0
66 0 66
57 222 24
8 140 41
189 165 8
173 189 181
57 239 173
0 0 8
0 0 0
82 107 99
16 156 16
115 140 156
0 0 0
82 206 198
16 156 16
115 140 156
0 0 0
90 49 33
16 156 16
115 140 156
0 0 0
0 0 0
0 0 0
0 0 0
0 0 0
0 0 0
0 0 0
0 0 0
0 0 0
82 24 231
16 156 16
115 140 156
0 0 0
165 156 165
0 41 8
0 0 0
0 0 0
165 132 33
0 41 8
0 0 0
0 0 0
140 41 0
0 8 57
0 0 0
0 0 0
0 16 0
0 0 0
0 247 8
0 0 0
0 0 0
57 247 0
0 0 0
57 247 0
0 0 0
57 247 0
0 0 0
0 0 0
107 198 0
57 222 198
57 0 123
189 115 115
189 247 148
57 239 132
0 0 8
0 0 0
82 107 99
16 156 16
115 140 156
0 0 0
90 49 33
16 156 16
115 140 156
0 0 0
90 90 165
16 156 16
115 140 156
0 0 0
0 0 0
0 0 0
0 0 0
0 0 0
0 0 0
0 0 0
0 0 0
0 0 0
82 24 231
16 156 16
115 140 156
0 0 0
165 173 99
0 41 8
0 0 0
0 0 0
165 140 231
0 41 8
0 0 0
0 0 0
140 41 0
0 8 57
0 0 0
0 0 0
0 16 0
0 0 0
0 247 16
0 0 0
0 0 0
57 247 0
0 0 0
57 247 0
0 0 0
57 247 0
0 0 0
0 0 0
16 156 49
57 214 24
49 16 123
189 206 156
49 189 99
57 239 198
0 0 8
0 0 0
99 115 0
16 156 16
115 140 156
0 0 0
90 140 33
16 156 16
115 140 156
0 0 0
90 90 165
16 156 16
115 140 156
0 0 0
0 0 0
0 0 0
0 0 0
0 0 0
0 0 0
0 0 0
0 0 0
0 0 0
82 24 231
16 156 16
115 140 156
0 0 0
165 189 33
0 41 8
0 0 0
0 0 0
165 156 165
0 41 8
0 0 0
0 0 0
140 41 0
0 8 57
0 0 0
0 0 0
0 16 0
0 0 0
0 247 16
0 0 0
0 0 0
57 247 0
0 0 0
57 247 0
0 0 0
57 247 0
0 0 0
0 0 0
41 206 132
57 214 181
123 74 16
189 206 255
90 123 123
57 239 165
0 0 8
0 0 0
90 90 165
16 156 16
115 140 156
0 0 0
90 231 33
16 156 16
115 140 156
0 0 0
82 115 198
16 156 16
115 140 156
0 0 0
0 0 0
0 0 0
0 0 0
0 0 0
0 0 0
0 0 0
0 0 0
0 0 0
82 24 231
16 156 16
115 140 156
0 0 0
165 198 231
0 41 8
0 0 0
0 0 0
165 173 99
0 41 8
0 0 0
0 0 0
140 41 0
0 8 57
0 0 0
0 0 0
0 16 0
0 0 0
0 247 24
0 0 0
0 0 0
57 247 0
0 0 0
57 247 0
0 0 0
57 247 0
0 0 0
0 0 0
66 156 173
57 206 173
0 66 173
189 214 181
231 206 123
57 239 165
0 0 8
0 0 0
90 90 165
16 156 16
115 140 156
0 0 0
90 123 198
16 156 16
115 140 156
0 0 0
90 231 33
16 156 16
115 140 156
0 0 0
0 0 0
0 0 0
0 0 0
0 0 0
0 0 0
0 0 0
0 0 0
0 0 0
82 24 231
16 156 16
115 140 156
0 0 0
165 214 165
0 41 8
0 0 0
0 0 0
165 189 33
0 41 8
0 0 0
0 0 0
140 41 0
0 8 57
0 0 0
0 0 0
0 16 0
0 0 0
0 247 24
0 0 0
0 0 0
57 247 0
0 0 0
57 247 0
0 0 0
57 247 0
0 0 0
0 0 0
82 16 99
57 222 57
16 255 90
189 198 165
66 181 132
57 239 156
0 0 8
0 0 0
90 90 165
16 156 16
115 140 156
0 0 0
82 115 198
16 156 16
115 140 156
0 0 0
82 107 99
16 156 16
115 140 156
0 0 0
0 0 0
0 0 0
0 0 0
0 0 0
0 0 0
0 0 0
0 0 0
0 0 0
82 24 231
16 156 16
115 140 156
0 0 0
165 231 99
0 41 8
0 0 0
0 0 0
165 198 231
0 41 8
0 0 0
0 0 0
140 41 0
0 8 57
0 0 0
0 0 0
0 16 0
0 0 0
0 247 33
0 0 0
0 0 0
57 247 0
0 0 0
57 247 0
0 0 0
57 247 0
0 0 0
0 0 0
90 231 156
189 222 239
156 0 181
189 198 231
49 66 107
57 239 107
0 0 8
0 0 0
82 173 165
16 156 16
115 140 156
0 0 0
90 247 231
16 156 16
115 140 156
0 0 0
90 82 66
16 156 16
115 140 156
0 0 0
0 0 0
0 0 0
0 0 0
0 0 0
0 0 0
0 0 0
0 0 0
0 0 0
82 24 231
16 156 16
115 140 156
0 0 0
165 247 33
0 41 8
0 0 0
0 0 0
165 214 165
0 41 8
0 0 0
0 0 0
140 41 0
0 8 57
0 0 0
0 0 0
0 16 0
0 0 0
0 247 33
0 0 0
0 0 0
57 247 0
0 0 0
57 247 0
0 0 0
57 247 0
0 0 0
0 0 0
82 16 99
189 222 57
16 255 90
189 198 165
66 181 132
57 239 156
0 0 8
0 0 0
82 255 66
16 156 16
115 140 156
0 0 0
82 239 231
16 156 16
115 140 156
0 0 0
90 82 66
16 156 16
115 140 156
0 0 0
0 0 0
0 0 0
0 0 0
0 0 0
0 0 0
0 0 0
0 0 0
0 0 0
82 24 231
16 156 16
115 140 156
0 0 0
165 255 231
0 41 8
0 0 0
0 0 0
165 231 99
0 41 8
0 0 0
0 0 0
140 41 0
0 8 57
0 0 0
0 0 0
0 16 0
0 0 0
0 247 41
0 0 0
0 0 0
57 247 0
0 0 0
57 247 0
0 0 0
57 247 0
0 0 0
0 0 0
16 156 49
189 214 24
49 16 123
189 206 156
49 189 99
57 239 198
0 0 8
0 0 0
90 247 231
16 156 16
115 140 156
0 0 0
90 239 132
16 156 16
115 140 156
0 0 0
90 82 66
16 156 16
115 140 156
0 0 0
0 0 0
0 0 0
0 0 0
0 0 0
0 0 0
0 0 0
0 0 0
0 0 0
82 24 231
16 156 16
115 140 156
0 0 0
173 8 165
0 41 8
0 0 0
0 0 0
165 247 33
0 41 8
0 0 0
0 0 0
140 41 0
0 8 57
0 0 0
0 0 0
0 16 0
0 0 0
0 247 41
0 0 0
0 0 0
57 247 0
0 0 0
57 247 0
0 0 0
57 247 0
0 0 0
0 0 0
206 132 24
189 198 206
41 66 140
189 206 115
255 132 74
57 239 214
0 0 8
0 0 0
90 239 132
16 156 16
115 140 156
0 0 0
99 33 99
16 156 16
115 140 156
0 0 0
90 82 66
16 156 16
115 140 156
0 0 0
0 0 0
0 0 0
0 0 0
0 0 0
0 0 0
0 0 0
0 0 0
0 0 0
82 24 231
16 156 16
115 140 156
0 0 0
173 24 99
0 41 8
0 0 0
0 0 0
165 255 231
0 41 8
0 0 0
0 0 0
140 41 0
0 8 57
0 0 0
0 0 0
0 16 0
0 0 0
0 247 49
0 0 0
0 0 0
57 247 0
0 0 0
57 247 0
0 0 0
57 247 0
0 0 0
0 0 0
66 156 173
189 206 173
0 66 173
189 214 181
231 206 123
57 239 165
0 0 8
0 0 0
82 189 0
16 156 16
115 140 156
0 0 0
82 173 165
16 156 16
115 140 156
0 0 0
90 82 66
16 156 16
115 140 156
0 0 0
0 0 0
0 0 0
0 0 0
0 0 0
0 0 0
0 0 0
0 0 0
0 0 0
82 24 231
16 156 16
115 140 156
0 0 0
173 41 33
0 41 8
0 0 0
0 0 0
173 8 165
0 41 8
0 0 0
0 0 0
140 41 0
0 8 57
0 0 0
0 0 0
0 16 0
0 0 0
0 247 49
0 0 0
0 0 0
57 247 0
0 0 0
57 247 0
0 0 0
57 247 0
0 0 0
0 0 0
107 198 0
189 222 198
57 0 123
189 115 115
189 247 148
57 239 132
0 0 8
0 0 0
90 82 66
16 156 16
115 140 156
0 0 0
82 74 66
16 156 16
115 140 156
0 0 0
82 255 66
16 156 16
115 140 156
0 0 0
0 0 0
0 0 0
0 0 0
0 0 0
0 0 0
0 0 0
0 0 0
0 0 0
82 24 231
16 156 16
115 140 156
0 0 0
173 49 231
0 41 8
0 0 0
0 0 0
173 24 99
0 41 8
0 0 0
0 0 0
140 41 0
0 8 57
0 0 0
0 0 0
0 16 0
0 0 0
0 247 57
0 0 0
0 0 0
57 247 0
0 0 0
57 247 0
0 0 0
57 247 0
0 0 0
0 0 0
41 206 132
189 214 181
123 74 16
189 206 255
90 123 123
57 239 165
0 0 8
0 0 0
82 239 231
16 156 16
115 140 156
0 0 0
82 189 0
16 156 16
115 140 156
0 0 0
90 82 66
16 156 16
115 140 156
0 0 0
0 0 0
0 0 0
0 0 0
0 0 0
0 0 0
0 0 0
0 0 0
0 0 0
82 24 231
16 156 16
115 140 156
0 0 0
173 66 165
0 41 8
0 0 0
0 0 0
173 41 33
0 41 8
0 0 0
0 0 0
140 41 0
0 8 57
0 0 0
0 0 0
0 16 0
0 0 0
0 247 57
0 0 0
0 0 0
57 247 0
0 0 0
57 247 0
0 0 0
57 247 0
0 0 0
0 0 0
24 173 148
57 206 222
115 181 132
57 198 148
247 239 49
189 239 214
0 0 8
0 0 0
82 165 66
16 156 16
115 140 156
0 0 0
99 41 198
16 156 16
115 140 156
0 0 0
82 231 132
16 156 16
115 140 156
0 0 0
0 0 0
0 0 0
0 0 0
0 0 0
0 0 0
0 0 0
0 0 0
0 0 0
82 24 231
16 156 16
115 140 156
0 0 0
173 82 99
0 41 8
0 0 0
0 0 0
173 49 231
0 41 8
0 0 0
0 0 0
140 41 0
0 8 57
0 0 0
0 0 0
0 16 0
0 0 0
0 247 66
0 0 0
0 0 0
57 247 0
0 0 0
57 247 0
0 0 0
57 247 0
0 0 0
0 0 0
206 148 239
57 222 90
222 24 41
57 189 148
156 173 24
57 239 156
0 0 8
0 0 0
90 16 0
16 156 16
115 140 156
0 0 0
90 57 132
16 156 16
115 140 156
0 0 0
90 49 33
16 156 16
115 140 156
0 0 0
0 0 0
0 0 0
0 0 0
0 0 0
0 0 0
0 0 0
0 0 0
0 0 0
82 24 231
16 156 16
115 140 156
0 0 0
173 99 33
0 41 8
0 0 0
0 0 0
173 66 165
0 41 8
0 0 0
0 0 0
140 41 0
0 8 57
0 0 0
0 0 0
0 16 0
0 0 0
0 247 66
0 0 0
0 0 0
57 247 0
0 0 0
57 247 0
0 0 0
57 247 0
0 0 0
0 0 0
49 206 41
57 222 99
132 156 198
57 173 99
107 123 156
57 239 156
0 0 8
0 0 0
90 24 99
16 156 16
115 140 156
0 0 0
90 16 0
16 156 16
115 140 156
0 0 0
90 49 33
16 156 16
115 140 156
0 0 0
0 0 0
0 0 0
0 0 0
0 0 0
0 0 0
0 0 0
0 0 0
0 0 0
82 24 231
16 156 16
115 140 156
0 0 0
173 107 231
0 41 8
0 0 0
0 0 0
173 82 99
0 41 8
0 0 0
0 0 0
140 41 0
0 8 57
0 0 0
0 0 0
0 16 0
0 0 0
0 247 74
0 0 0
0 0 0
57 247 0
0 0 0
57 247 0
0 0 0
57 247 0
0 0 0
0 0 0
8 0 74
57 222 82
198 90 123
57 132 156
0 8 189
57 239 165
0 0 8
0 0 0
82 206 198
16 156 16
115 140 156
0 0 0
90 24 99
16 156 16
115 140 156
0 0 0
90 49 33
16 156 16
115 140 156
0 0 0
0 0 0
0 0 0
0 0 0
0 0 0
0 0 0
0 0 0
0 0 0
0 0 0
82 24 231
16 156 16
115 140 156
0 0 0
173 123 165
0 41 8
0 0 0
0 0 0
173 99 33
0 41 8
0 0 0
0 0 0
140 41 0
0 8 57
0 0 0
0 0 0
0 16 0
0 0 0
0 247 74
0 0 0
0 0 0
57 247 0
0 0 0
57 247 0
0 0 0
57 247 0
0 0 0
0 0 0
206 148 239
189 222 90
222 24 41
57 189 148
156 173 24
57 239 156
0 0 8
0 0 0
82 74 66
16 156 16
115 140 156
0 0 0
82 140 132
16 156 16
115 140 156
0 0 0
90 173 66
16 156 16
115 140 156
0 0 0
0 0 0
0 0 0
0 0 0
0 0 0
0 0 0
0 0 0
0 0 0
0 0 0
82 24 231
16 156 16
115 140 156
0 0 0
173 140 99
0 41 8
0 0 0
0 0 0
173 107 231
0 41 8
0 0 0
0 0 0
140 41 0
0 8 57
0 0 0
0 0 0
0 16 0
0 0 0
0 247 82
0 0 0
0 0 0
57 247 0
0 0 0
57 247 0
0 0 0
57 247 0
0 0 0
0 0 0
49 206 41
189 222 99
132 156 198
57 173 99
107 123 156
57 239 156
0 0 8
0 0 0
82 74 66
16 156 16
115 140 156
0 0 0
90 173 66
16 156 16
115 140 156
0 0 0
82 82 165
16 156 16
115 140 156
0 0 0
0 0 0
0 0 0
0 0 0
0 0 0
0 0 0
0 0 0
0 0 0
0 0 0
82 24 231
16 156 16
115 140 156
0 0 0
173 156 33
0 41 8
0 0 0
0 0 0
173 123 165
0 41 8
0 0 0
0 0 0
140 41 0
0 8 57
0 0 0
0 0 0
0 16 0
0 0 0
0 247 82
0 0 0
0 0 0
57 247 0
0 0 0
57 247 0
0 0 0
57 247 0
0 0 0
0 0 0
90 49 140
189 214 0
247 90 49
57 198 173
16 49 165
57 239 214
0 0 8
0 0 0
82 99 0
16 156 16
115 140 156
0 0 0
90 198 0
16 156 16
115 140 156
0 0 0
82 255 66
16 156 16
115 140 156
0 0 0
0 0 0
0 0 0
0 0 0
0 0 0
0 0 0
0 0 0
0 0 0
0 0 0
82 24 231
16 156 16
115 140 156
0 0 0
173 165 231
0 41 8
0 0 0
0 0 0
173 140 99
0 41 8
0 0 0
0 0 0
140 41 0
0 8 57
0 0 0
0 0 0
0 16 0
0 0 0
0 247 90
0 0 0
0 0 0
57 247 0
0 0 0
57 247 0
0 0 0
57 247 0
0 0 0
0 0 0
66 0 66
189 222 24
8 140 41
189 165 8
173 189 181
57 239 173
0 0 8
0 0 0
82 99 0
16 156 16
115 140 156
0 0 0
82 255 66
16 156 16
115 140 156
0 0 0
82 74 66
16 156 16
115 140 156
0 0 0
0 0 0
0 0 0
0 0 0
0 0 0
0 0 0
0 0 0
0 0 0
0 0 0
82 24 231
16 156 16
115 140 156
0 0 0
173 181 165
0 41 8
0 0 0
0 0 0
173 156 33
0 41 8
0 0 0
0 0 0
140 41 0
0 8 57
0 0 0
0 0 0
0 16 0
0 0 0
0 247 90
0 0 0
0 0 0
57 247 0
0 0 0
57 247 0
0 0 0
57 247 0
0 0 0
0 0 0
206 57 16
189 214 231
66 0 189
57 140 165
181 247 198
189 239 189
0 0 8
0 0 0
90 66 231
16 156 16
115 140 156
0 0 0
82 198 99
16 156 16
115 140 156
0 0 0
99 66 132
16 156 16
115 140 156
0 0 0
0 0 0
0 0 0
0 0 0
0 0 0
0 0 0
0 0 0
0 0 0
0 0 0
82 24 231
16 156 16
115 140 156
0 0 0
173 198 99
0 41 8
0 0 0
0 0 0
173 165 231
0 41 8
0 0 0
0 0 0
140 41 0
0 8 57
0 0 0
0 0 0
0 16 0
0 0 0
0 247 99
0 0 0
0 0 0
57 247 0
0 0 0
57 247 0
0 0 0
57 247 0
0 0 0
0 0 0
239 49 107
57 206 82
115 8 148
57 181 115
165 41 214
189 239 231
0 0 8
0 0 0
82 165 66
16 156 16
115 140 156
0 0 0
82 231 132
16 156 16
115 140 156
0 0 0
90 206 99
16 156 16
115 140 156
0 0 0
0 0 0
0 0 0
0 0 0
0 0 0
0 0 0
0 0 0
0 0 0
0 0 0
82 24 231
16 156 16
115 140 156
0 0 0
173 214 33
0 41 8
0 0 0
0 0 0
173 181 165
0 41 8
0 0 0
0 0 0
140 41 0
0 8 57
0 0 0
0 0 0
0 16 0
0 0 0
0 247 99
0 0 0
0 0 0
57 247 0
0 0 0
57 247 0
0 0 0
57 247 0
0 0 0
0 0 0
90 189 107
189 222 8
123 181 107
189 198 24
107 255 247
189 239 173
0 0 8
0 0 0
90 66 231
16 156 16
115 140 156
0 0 0
90 156 231
16 156 16
115 140 156
0 0 0
99 156 132
16 156 16
115 140 156
0 0 0
0 0 0
0 0 0
0 0 0
0 0 0
0 0 0
0 0 0
0 0 0
0 0 0
82 24 231
16 156 16
115 140 156
0 0 0
173 222 231
0 41 8
0 0 0
0 0 0
173 198 99
0 41 8
0 0 0
0 0 0
140 41 0
0 8 57
0 0 0
0 0 0
0 16 0
0 0 0
0 247 107
0 0 0
0 0 0
57 247 0
0 0 0
57 247 0
0 0 0
57 247 0
0 0 0
0 0 0
140 57 123
189 214 82
231 140 214
57 165 156
156 181 82
189 239 214
0 0 8
0 0 0
99 66 132
16 156 16
115 140 156
0 0 0
90 115 99
16 156 16
115 140 156
0 0 0
90 66 231
16 156 16
115 140 156
0 0 0
0 0 0
0 0 0
0 0 0
0 0 0
0 0 0
0 0 0
0 0 0
0 0 0
82 24 231
16 156 16
115 140 156
0 0 0
173 239 165
0 41 8
0 0 0
0 0 0
173 214 33
0 41 8
0 0 0
0 0 0
140 41 0
0 8 57
0 0 0
0 0 0
0 16 0
0 0 0
0 247 107
0 0 0
0 0 0
57 247 0
0 0 0
57 247 0
0 0 0
57 247 0
0 0 0
0 0 0
115 57 49
57 206 255
57 165 57
57 198 33
156 222 181
189 239 214
0 0 8
0 0 0
82 165 66
16 156 16
115 140 156
0 0 0
90 206 99
16 156 16
115 140 156
0 0 0
90 107 0
16 156 16
115 140 156
0 0 0
0 0 0
0 0 0
0 0 0
0 0 0
0 0 0
0 0 0
0 0 0
0 0 0
82 24 231
16 156 16
115 140 156
0 0 0
173 255 99
0 41 8
0 0 0
0 0 0
173 222 231
0 41 8
0 0 0
0 0 0
140 41 0
0 8 57
0 0 0
0 0 0
0 16 0
0 0 0
0 247 115
0 0 0
0 0 0
57 247 0
0 0 0
57 247 0
0 0 0
57 247 0
0 0 0
0 0 0
115 57 49
189 206 255
57 165 57
57 198 33
156 222 181
189 239 214
0 0 8
0 0 0
90 115 99
16 156 16
115 140 156
0 0 0
99 66 132
16 156 16
115 140 156
0 0 0
99 57 33
16 156 16
115 140 156
0 0 0
0 0 0
0 0 0
0 0 0
0 0 0
0 0 0
0 0 0
0 0 0
0 0 0
82 24 231
16 156 16
115 140 156
0 0 0
181 8 33
0 41 8
0 0 0
0 0 0
173 239 165
0 41 8
0 0 0
0 0 0
140 41 0
0 8 57
0 0 0
0 0 0
0 16 0
0 0 0
0 247 115
0 0 0
0 0 0
57 247 0
0 0 0
57 247 0
0 0 0
57 247 0
0 0 0
0 0 0
41 156 173
189 206 247
214 123 57
189 173 74
198 99 173
189 239 222
0 0 8
0 0 0
99 156 132
16 156 16
115 140 156
0 0 0
90 33 198
16 156 16
115 140 156
0 0 0
99 74 231
16 156 16
115 140 156
0 0 0
0 0 0
0 0 0
0 0 0
0 0 0
0 0 0
0 0 0
0 0 0
0 0 0
82 24 231
16 156 16
115 140 156
0 0 0
181 16 231
0 41 8
0 0 0
0 0 0
173 255 99
0 41 8
0 0 0
0 0 0
140 41 0
0 8 57
0 0 0
0 0 0
0 16 0
0 0 0
0 247 123
0 0 0
0 0 0
57 247 0
0 0 0
57 247 0
0 0 0
57 247 0
0 0 0
0 0 0
82 0 231
189 214 74
132 198 99
189 173 0
0 214 198
189 239 214
0 0 8
0 0 0
99 156 132
16 156 16
115 140 156
0 0 0
99 74 231
16 156 16
115 140 156
0 0 0
82 198 99
16 156 16
115 140 156
0 0 0
0 0 0
0 0 0
0 0 0
0 0 0
0 0 0
0 0 0
0 0 0
0 0 0
82 24 231
16 156 16
115 140 156
0 0 0
181 33 165
0 41 8
0 0 0
0 0 0
181 8 33
0 41 8
0 0 0
0 0 0
140 41 0
0 8 57
0 0 0
0 0 0
0 16 0
0 0 0
0 247 123
0 0 0
0 0 0
57 247 0
0 0 0
57 247 0
0 0 0
57 247 0
0 0 0
0 0 0
90 189 107
57 222 8
123 181 107
189 198 24
107 255 247
189 239 173
0 0 8
0 0 0
99 165 231
16 156 16
115 140 156
0 0 0
90 181 165
16 156 16
115 140 156
0 0 0
82 148 231
16 156 16
115 140 156
0 0 0
0 0 0
0 0 0
0 0 0
0 0 0
0 0 0
0 0 0
0 0 0
0 0 0
82 24 231
16 156 16
115 140 156
0 0 0
181 49 99
0 41 8
0 0 0
0 0 0
181 16 231
0 41 8
0 0 0
0 0 0
140 41 0
0 8 57
0 0 0
0 0 0
0 16 0
0 0 0
0 247 132
0 0 0
0 0 0
57 247 0
0 0 0
57 247 0
0 0 0
57 247 0
0 0 0
0 0 0
156 255 49
57 222 24
255 74 222
189 140 8
239 214 41
189 239 173
0 0 8
0 0 0
82 148 231
16 156 16
115 140 156
0 0 0
99 99 165
16 156 16
115 140 156
0 0 0
99 165 231
16 156 16
115 140 156
0 0 0
0 0 0
0 0 0
0 0 0
0 0 0
0 0 0
0 0 0
0 0 0
0 0 0
82 24 231
16 156 16
115 140 156
0 0 0
181 66 33
0 41 8
0 0 0
0 0 0
181 33 165
0 41 8
0 0 0
0 0 0
140 41 0
0 8 57
0 0 0
0 0 0
0 16 0
0 0 0
0 247 132
0 0 0
0 0 0
57 247 0
0 0 0
57 247 0
0 0 0
57 247 0
0 0 0
0 0 0
82 0 231
57 214 74
132 198 99
189 173 0
0 214 198
189 239 214
0 0 8
0 0 0
99 99 165
16 156 16
115 140 156
0 0 0
90 0 165
16 156 16
115 140 156
0 0 0
99 165 231
16 156 16
115 140 156
0 0 0
0 0 0
0 0 0
0 0 0
0 0 0
0 0 0
0 0 0
0 0 0
0 0 0
82 24 231
16 156 16
115 140 156
0 0 0
181 74 231
0 41 8
0 0 0
0 0 0
181 49 99
0 41 8
0 0 0
0 0 0
140 41 0
0 8 57
0 0 0
0 0 0
0 16 0
0 0 0
0 247 140
0 0 0
0 0 0
57 247 0
0 0 0
57 247 0
0 0 0
57 247 0
0 0 0
0 0 0
41 156 173
57 206 247
214 123 57
189 173 74
198 99 173
189 239 222
0 0 8
0 0 0
90 0 165
16 156 16
115 140 156
0 0 0
99 90 66
16 156 16
115 140 156
0 0 0
99 165 231
16 156 16
115 140 156
0 0 0
0 0 0
0 0 0
0 0 0
0 0 0
0 0 0
0 0 0
0 0 0
0 0 0
82 24 231
16 156 16
115 140 156
0 0 0
181 90 165
0 41 8
0 0 0
0 0 0
181 66 33
0 41 8
0 0 0
0 0 0
140 41 0
0 8 57
0 0 0
0 0 0
0 16 0
0 0 0
0 247 140
0 0 0
0 0 0
57 247 0
0 0 0
57 247 0
0 0 0
57 247 0
0 0 0
0 0 0
206 57 16
57 214 231
66 0 189
57 140 165
181 247 198
189 239 189
0 0 8
0 0 0
90 206 99
16 156 16
115 140 156
0 0 0
99 99 165
16 156 16
115 140 156
0 0 0
82 148 231
16 156 16
115 140 156
0 0 0
0 0 0
0 0 0
0 0 0
0 0 0
0 0 0
0 0 0
0 0 0
0 0 0
82 24 231
16 156 16
115 140 156
0 0 0
181 107 99
0 41 8
0 0 0
0 0 0
181 74 231
0 41 8
0 0 0
0 0 0
140 41 0
0 8 57
0 0 0
0 0 0
0 16 0
0 0 0
0 247 148
0 0 0
0 0 0
57 247 0
0 0 0
57 247 0
0 0 0
57 247 0
0 0 0
0 0 0
156 255 49
189 222 24
255 74 222
189 140 8
239 214 41
189 239 173
0 0 8
0 0 0
99 156 132
16 156 16
115 140 156
0 0 0
82 198 99
16 156 16
115 140 156
0 0 0
90 66 231
16 156 16
115 140 156
0 0 0
0 0 0
0 0 0
0 0 0
0 0 0
0 0 0
0 0 0
0 0 0
0 0 0
82 24 231
16 156 16
115 140 156
0 0 0
181 123 33
0 41 8
0 0 0
0 0 0
181 90 165
0 41 8
0 0 0
0 0 0
140 41 0
0 8 57
0 0 0
0 0 0
0 16 0
0 0 0
0 247 148
0 0 0
0 0 0
57 247 0
0 0 0
57 247 0
0 0 0
57 247 0
0 0 0
0 0 0
239 49 107
189 206 82
115 8 148
57 181 115
165 41 214
189 239 231
0 0 8
0 0 0
99 66 132
16 156 16
115 140 156
0 0 0
82 132 33
16 156 16
115 140 156
0 0 0
99 57 33
16 156 16
115 140 156
0 0 0
0 0 0
0 0 0
0 0 0
0 0 0
0 0 0
0 0 0
0 0 0
0 0 0
82 24 231
16 156 16
115 140 156
0 0 0
107 107 165
16 156 16
115 140 156
0 0 0
181 107 99
0 41 8
0 0 0
0 0 0
140 41 0
0 8 57
0 0 0
0 0 0
0 16 0
0 0 0
0 247 156
0 0 0
0 0 0
57 247 0
0 0 0
57 247 0
0 0 0
57 247 0
0 0 0
0 0 0
24 173 148
189 206 222
115 181 132
57 198 148
247 239 49
189 239 214
0 0 8
0 0 0
82 132 33
16 156 16
115 140 156
0 0 0
90 214 198
16 156 16
115 140 156
0 0 0
99 57 33
16 156 16
115 140 156
0 0 0
0 0 0
0 0 0
0 0 0
0 0 0
0 0 0
0 0 0
0 0 0
0 0 0
82 24 231
16 156 16
115 140 156
0 0 0
0 0 0
0 0 0
0 0 0
0 0 0
0 0 0
0 0 0
0 0 0
0 0 0
0 0 0
0 0 0
0 0 0
0 0 0
0 0 0
0 0 0
0 0 0
0 0 0
0 0 0
0 0 0
0 0 0
0 0 0
0 0 0
0 0 0
0 0 0
0 0 0
0 0 0
0 0 0
0 0 0
0 0 0
0 0 0
0 0 0
0 0 0
0 0 0
0 0 0
0 0 0
0 0 0
0 0 0
0 0 0
0 0 0
0 0 0
0 0 0
0 0 0
0 0 0
0 0 0
0 0 0
0 0 0
0 0 0
0 0 0
0 0 0
0 0 0
0 0 0
0 0 0
0 0 0
0 0 0
0 0 0
0 0 0
0 0 0
0 0 0
0 0 0
0 0 0
0 0 0
0 0 0
0 0 0
0 0 0
0 0 0
0 0 0
0 0 0
0 0 0
0 0 0
0 0 0
0 0 0
0 0 0
0 0 0
0 0 0
0 0 0
0 0 0
0 0 0
0 0 0
0 0 0
0 0 0
0 0 0
0 0 0
0 0 0
0 0 0
0 0 0
0 0 0
0 0 0
0 0 0
0 0 0
0 0 0
0 0 0
0 0 0
0 0 0
0 0 0
0 0 0
0 0 0
0 0 0
0 0 0
0 0 0
0 0 0
0 0 0
0 0 0
0 0 0
0 0 0
0 0 0
0 0 0
0 0 0
0 0 0
0 0 0
0 0 0
0 0 0
0 0 0
0 0 0
0 0 0
0 0 0
0 0 0
0 0 0
0 0 0
0 0 0
0 0 0
0 0 0
0 0 0
0 0 0
0 0 0
0 0 0
0 0 0
0 0 0
0 0 0
0 0 0
0 0 0
0 0 0
0 0 0
0 0 0
0 0 0
0 0 0
0 0 0
0 0 0
0 0 0
0 0 0
0 0 0
0 0 0
0 0 0
0 0 0
0 0 0
0 0 0
0 0 0
0 0 0
0 0 0
0 0 0
0 0 0
0 0 0
0 0 0
0 0 0
0 0 0
0 0 0
0 0 0
0 0 0
0 0 0
0 0 0
0 0 0
0 0 0
0 0 0
0 0 0
0 0 0
0 0 0
0 0 0
0 0 0
0 0 0
0 0 0
0 0 0
0 0 0
0 0 0
0 0 0
0 0 0
0 0 0
0 0 0
0 0 0
0 0 0
0 0 0
0 0 0
0 0 0
0 0 0
0 0 0
0 0 0
0 0 0
0 0 0
0 0 0
0 0 0
0 0 0
0 0 0
0 0 0
0 0 0
0 0 0
0 0 0
0 0 0
0 0 0
0 0 0
0 0 0
0 0 0
0 0 0
0 0 0
0 0 0
0 0 0
0 0 0
0 0 0
0 0 0
0 0 0
0 0 0
0 0 0
0 0 0
0 0 0
0 0 0
0 0 0
0 0 0
0 0 0
0 0 0
0 0 0
0 0 0
0 0 0
0 0 0
0 0 0
0 0 0
0 0 0
0 0 0
0 0 0
0 0 0
0 0 0
0 0 0
0 0 0
0 0 0
0 0 0
0 0 0
0 0 0
0 0 0
0 0 0
0 0 0
0 0 0
0 0 0
0 0 0
0 0 0
0 0 0
0 0 0
0 0 0
0 0 0
0 0 0
0 0 0
0 0 0
0 0 0
0 0 0
0 0 0
0 0 0
0 0 0
0 0 0
0 0 0
0 0 0
0 0 0
0 0 0
0 0 0
0 0 0
0 0 0
0 0 0
0 0 0
0 0 0
0 0 0
0 0 0
0 0 0
0 0 0
0 0 0
0 0 0
0 0 0
0 0 0
0 0 0
0 0 0
0 0 0
0 0 0
0 0 0
0 0 0
0 0 0
0 0 0
0 0 0
0 0 0
0 0 0
0 0 0
0 0 0
0 0 0
0 0 0
0 0 0
0 0 0
0 0 0
0 0 0
0 0 0
0 0 0
0 0 0
0 0 0
0 0 0
0 0 0
0 0 0
0 0 0
0 0 0
0 0 0
0 0 0
0 0 0
0 0 0
0 0 0
0 0 0
0 0 0
0 0 0
0 0 0
0 0 0
0 0 0
0 0 0
0 0 0
0 0 0
0 0 0
0 0 0
0 0 0
0 0 0
0 0 0
0 0 0
0 0 0
0 0 0
0 0 0
0 0 0
0 0 0
0 0 0
0 0 0
0 0 0
0 0 0
0 0 0
0 0 0
0 0 0
0 0 0
0 0 0
0 0 0
0 0 0
0 0 0
0 0 0
0 0 0
0 0 0
0 0 0
0 0 0
0 0 0
0 0 0
0 0 0
0 0 0
0 0 0
0 0 0
0 0 0
0 0 0
0 0 0
0 0 0
0 0 0
0 0 0
0 0 0
0 0 0
0 0 0
0 0 0
0 0 0
0 0 0
0 0 0
0 0 0
0 0 0
0 0 0
0 0 0
0 0 0
0 0 0
0 0 0
0 0 0
0 0 0
0 0 0
0 0 0
0 0 0
0 0 0
0 0 0
0 0 0
0 0 0
0 0 0
0 0 0
0 0 0
0 0 0
0 0 0
0 0 0
0 0 0
0 0 0
0 0 0
0 0 0
0 0 0
0 0 0
0 0 0
0 0 0
0 0 0
0 0 0
0 0 0
0 0 0
0 0 0
0 0 0
0 0 0
0 0 0
0 0 0
0 0 0
0 0 0
0 0 0
0 0 0
0 0 0
0 0 0
0 0 0
0 0 0
0 0 0
0 0 0
0 0 0
0 0 0
0 0 0
0 0 0
0 0 0
0 0 0
0 0 0
0 0 0
0 0 0
0 0 0
0 0 0
0 0 0
0 0 0
0 0 0
0 0 0
0 0 0
0 0 0
0 0 0
0 0 0
0 0 0
0 0 0
0 0 0
0 0 0
0 0 0
0 0 0
0 0 0
0 0 0
0 0 0
0 0 0
0 0 0
0 0 0
0 0 0
0 0 0
0 0 0
0 0 0
0 0 0
0 0 0
0 0 0
0 0 0
0 0 0
0 0 0
0 0 0
0 0 0
0 0 0
0 0 0
0 0 0
0 0 0
0 0 0
0 0 0
0 0 0
0 0 0
0 0 0
0 0 0
0 0 0
0 0 0
0 0 0
0 0 0
0 0 0
0 0 0
0 0 0
0 0 0
0 0 0
0 0 0
0 0 0
0 0 0
0 0 0
0 0 0
0 0 0
0 0 0
0 0 0
0 0 0
0 0 0
0 0 0
0 0 0
0 0 0
0 0 0
0 0 0
0 0 0
0 0 0
0 0 0
0 0 0
0 0 0
0 0 0
0 0 0
0 0 0
0 0 0
0 0 0
0 0 0
0 0 0
0 0 0
0 0 0
0 0 0
0 0 0
0 0 0
0 0 0
0 0 0
0 0 0
0 0 0
0 0 0
0 0 0
0 0 0
0 0 0
0 0 0
0 0 0
0 0 0
0 0 0
0 0 0
0 0 0
0 0 0
0 0 0
0 0 0
0 0 0
0 0 0
0 0 0
0 0 0
0 0 0
0 0 0
0 0 0
0 0 0
0 0 0
0 0 0
0 0 0
0 0 0
0 0 0
0 0 0
0 0 0
0 0 0
0 0 0
0 0 0
0 0 0
0 0 0
0 0 0
0 0 0
0 0 0
0 0 0
0 0 0
0 0 0
0 0 0
0 0 0
0 0 0
0 0 0
0 0 0
0 0 0
0 0 0
0 0 0
0 0 0
0 0 0
0 0 0
0 0 0
0 0 0
0 0 0
0 0 0
0 0 0
0 0 0
0 0 0
0 0 0
0 0 0
0 0 0
0 0 0
0 0 0
0 0 0
0 0 0
0 0 0
0 0 0
0 0 0
0 0 0
0 0 0
0 0 0
0 0 0
0 0 0
0 0 0
0 0 0
0 0 0
0 0 0
0 0 0
0 0 0
0 0 0
0 0 0
0 0 0
0 0 0
0 0 0
0 0 0
0 0 0
0 0 0
0 0 0
0 0 0
0 0 0
0 0 0
0 0 0
0 0 0
0 0 0
0 0 0
0 0 0
0 0 0
0 0 0
0 0 0
0 0 0
0 0 0
0 0 0
0 0 0
0 0 0
0 0 0
0 0 0
0 0 0
0 0 0
0 0 0
0 0 0
0 0 0
0 0 0
0 0 0
0 0 0
0 0 0
0 0 0
0 0 0
0 0 0
0 0 0
0 0 0
0 0 0
0 0 0
0 0 0
0 0 0
0 0 0
0 0 0
0 0 0
0 0 0
0 0 0
0 0 0
0 0 0
0 0 0
0 0 0
0 0 0
0 0 0
0 0 0
0 0 0
0 0 0
0 0 0
0 0 0
0 0 0
0 0 0
0 0 0
0 0 0
0 0 0
0 0 0
0 0 0
0 0 0
0 0 0
0 0 0
0 0 0
0 0 0
0 0 0
0 0 0
0 0 0
0 0 0
0 0 0
0 0 0
0 0 0
0 0 0
0 0 0
0 0 0
0 0 0
0 0 0
0 0 0
0 0 0
0 0 0
0 0 0
0 0 0
0 0 0
0 0 0
0 0 0
0 0 0
0 0 0
0 0 0
0 0 0
0 0 0
0 0 0
0 0 0
0 0 0
0 0 0
0 0 0
0 0 0
0 0 0
0 0 0
0 0 0
0 0 0
0 0 0
0 0 0
0 0 0
0 0 0
0 0 0
0 0 0
0 0 0
0 0 0
0 0 0
0 0 0
0 0 0
0 0 0
0 0 0
0 0 0
0 0 0
0 0 0
0 0 0
0 0 0
0 0 0
0 0 0
0 0 0
0 0 0
0 0 0
0 0 0
0 0 0
0 0 0
0 0 0
0 0 0
0 0 0
0 0 0
0 0 0
0 0 0
0 0 0
0 0 0
0 0 0
0 0 0
0 0 0
0 0 0
0 0 0
0 0 0
0 0 0
0 0 0
0 0 0
0 0 0
0 0 0
0 0 0
0 0 0
0 0 0
0 0 0
0 0 0
0 0 0
0 0 0
0 0 0
0 0 0
0 0 0
0 0 0
0 0 0
0 0 0
0 0 0
0 0 0
0 0 0
0 0 0
0 0 0
0 0 0
0 0 0
0 0 0
0 0 0
0 0 0
0 0 0
0 0 0
0 0 0
0 0 0
0 0 0
0 0 0
0 0 0
0 0 0
0 0 0
0 0 0
0 0 0
0 0 0
0 0 0
0 0 0
0 0 0
0 0 0
0 0 0
0 0 0
0 0 0
0 0 0
0 0 0
0 0 0
0 0 0
0 0 0
0 0 0
0 0 0
0 0 0
0 0 0
0 0 0
0 0 0
0 0 0
0 0 0
0 0 0
0 0 0
0 0 0
0 0 0
0 0 0
0 0 0
0 0 0
0 0 0
0 0 0
0 0 0
0 0 0
0 0 0
0 0 0
0 0 0
0 0 0
0 0 0
0 0 0
0 0 0
0 0 0
0 0 0
0 0 0
0 0 0
0 0 0
0 0 0
0 0 0
0 0 0
0 0 0
0 0 0
0 0 0
0 0 0
0 0 0
0 0 0
0 0 0
0 0 0
0 0 0
0 0 0
0 0 0
0 0 0
0 0 0
0 0 0
0 0 0
0 0 0
0 0 0
0 0 0
0 0 0
0 0 0
0 0 0
0 0 0
0 0 0
0 0 0
0 0 0
0 0 0
0 0 0
0 0 0
0 0 0
0 0 0
0 0 0
0 0 0
0 0 0
0 0 0
0 0 0
0 0 0
0 0 0
0 0 0
0 0 0
0 0 0
0 0 0
0 0 0
0 0 0
0 0 0
0 0 0
0 0 0
0 0 0
0 0 0
0 0 0
0 0 0
0 0 0
0 0 0
0 0 0
0 0 0
0 0 0
0 0 0
0 0 0
0 0 0
0 0 0
0 0 0
0 0 0
0 0 0
0 0 0
0 0 0
0 0 0
0 0 0
0 0 0
0 0 0
0 0 0
0 0 0
0 0 0
0 0 0
0 0 0
0 0 0
0 0 0
0 0 0
0 0 0
0 0 0
0 0 0
0 0 0
0 0 0
0 0 0
0 0 0
0 0 0
0 0 0
0 0 0
0 0 0
0 0 0
0 0 0
0 0 0
0 0 0
0 0 0
0 0 0
0 0 0
0 0 0
0 0 0
0 0 0
0 0 0
0 0 0
0 0 0
0 0 0
0 0 0
0 0 0
0 0 0
0 0 0
0 0 0
0 0 0
0 0 0
0 0 0
0 0 0
0 0 0
0 0 0
0 0 0
0 0 0
0 0 0
0 0 0
0 0 0
0 0 0
0 0 0
0 0 0
0 0 0
0 0 0
0 0 0
0 0 0
0 0 0
0 0 0
0 0 0
0 0 0
0 0 0
0 0 0
0 0 0
0 0 0
0 0 0
0 0 0
0 0 0
0 0 0
0 0 0
0 0 0
0 0 0
0 0 0
0 0 0
0 0 0
0 0 0
0 0 0
0 0 0
0 0 0
0 0 0
0 0 0
0 0 0
0 0 0
0 0 0
0 0 0
0 0 0
0 0 0
0 0 0
0 0 0
0 0 0
0 0 0
0 0 0
0 0 0
0 0 0
0 0 0
0 0 0
0 0 0
0 0 0
0 0 0
0 0 0
0 0 0
0 0 0
0 0 0
0 0 0
0 0 0
0 0 0
0 0 0
0 0 0
0 0 0
0 0 0
0 0 0
0 0 0
0 0 0
0 0 0
0 0 0
0 0 0
0 0 0
0 0 0
0 0 0
0 0 0
0 0 0
0 0 0
0 0 0
0 0 0
0 0 0
0 0 0
0 0 0
0 0 0
0 0 0
0 0 0
0 0 0
0 0 0
0 0 0
0 0 0
0 0 0
0 0 0
0 0 0
0 0 0
0 0 0
0 0 0
0 0 0
0 0 0
0 0 0
0 0 0
0 0 0
0 0 0
0 0 0
0 0 0
0 0 0
0 0 0
0 0 0
0 0 0
0 0 0
0 0 0
0 0 0
0 0 0
0 0 0
0 0 0
0 0 0
0 0 0
0 0 0
0 0 0
0 0 0
0 0 0
0 0 0
0 0 0
0 0 0
0 0 0
0 0 0
0 0 0
0 0 0
0 0 0
0 0 0
0 0 0
0 0 0
0 0 0
0 0 0
0 0 0
0 0 0
0 0 0
0 0 0
0 0 0
0 0 0
0 0 0
0 0 0
0 0 0
0 0 0
0 0 0
0 0 0
0 0 0
0 0 0
0 0 0
0 0 0
0 0 0
0 0 0
0 0 0
0 0 0
0 0 0
0 0 0
0 0 0
0 0 0
0 0 0
0 0 0
0 0 0
0 0 0
0 0 0
0 0 0
0 0 0
0 0 0
0 0 0
0 0 0
0 0 0
0 0 0
0 0 0
0 0 0
0 0 0
0 0 0
0 0 0
0 0 0
0 0 0
0 0 0
0 0 0
0 0 0
0 0 0
0 0 0
0 0 0
0 0 0
0 0 0
0 0 0
0 0 0
0 0 0
0 0 0
0 0 0
0 0 0
0 0 0
0 0 0
0 0 0
0 0 0
0 0 0
0 0 0
0 0 0
0 0 0
0 0 0
0 0 0
0 0 0
0 0 0
0 0 0
0 0 0
0 0 0
0 0 0
0 0 0
0 0 0
0 0 0
0 0 0
0 0 0
0 0 0
0 0 0
0 0 0
0 0 0
0 0 0
0 0 0
0 0 0
0 0 0
0 0 0
0 0 0
0 0 0
0 0 0
0 0 0
0 0 0
0 0 0
0 0 0
0 0 0
0 0 0
0 0 0
0 0 0
0 0 0
0 0 0
0 0 0
0 0 0
0 0 0
0 0 0
0 0 0
0 0 0
0 0 0
0 0 0
0 0 0
0 0 0
0 0 0
0 0 0
0 0 0
0 0 0
0 0 0
0 0 0
0 0 0
0 0 0
0 0 0
0 0 0
0 0 0
0 0 0
0 0 0
0 0 0
0 0 0
0 0 0
0 0 0
0 0 0
0 0 0
0 0 0
0 0 0
0 0 0
0 0 0
0 0 0
0 0 0
0 0 0
0 0 0
0 0 0
0 0 0
0 0 0
0 0 0
0 0 0
0 0 0
0 0 0
0 0 0
0 0 0
0 0 0
0 0 0
0 0 0
0 0 0
0 0 0
0 0 0
0 0 0
0 0 0
0 0 0
0 0 0
0 0 0
0 0 0
0 0 0
0 0 0
0 0 0
0 0 0
0 0 0
0 0 0
0 0 0
0 0 0
0 0 0
0 0 0
0 0 0
0 0 0
0 0 0
0 0 0
0 0 0
0 0 0
0 0 0
0 0 0
0 0 0
0 0 0
0 0 0
0 0 0
0 0 0
0 0 0
0 0 0
0 0 0
0 0 0
0 0 0
0 0 0
0 0 0
0 0 0
0 0 0
0 0 0
0 0 0
0 0 0
0 0 0
0 0 0
0 0 0
0 0 0
0 0 0
0 0 0
0 0 0
0 0 0
0 0 0
0 0 0
0 0 0
0 0 0
0 0 0
0 0 0
0 0 0
0 0 0
0 0 0
0 0 0
0 0 0
0 0 0
0 0 0
0 0 0
0 0 0
0 0 0
0 0 0
0 0 0
0 0 0
0 0 0
0 0 0
0 0 0
0 0 0
0 0 0
0 0 0
0 0 0
0 0 0
0 0 0
0 0 0
0 0 0
0 0 0
0 0 0
0 0 0
0 0 0
0 0 0
0 0 0
0 0 0
0 0 0
0 0 0
0 0 0
0 0 0
0 0 0
0 0 0
0 0 0
0 0 0
0 0 0
0 0 0
0 0 0
0 0 0
0 0 0
0 0 0
0 0 0
0 0 0
0 0 0
0 0 0
0 0 0
0 0 0
0 0 0
0 0 0
0 0 0
0 0 0
0 0 0
0 0 0
0 0 0
0 0 0
0 0 0
0 0 0
0 0 0
0 0 0
0 0 0
0 0 0
0 0 0
0 0 0
0 0 0
0 0 0
0 0 0
0 0 0
0 0 0
0 0 0
0 0 0
0 0 0
0 0 0
0 0 0
0 0 0
0 0 0
0 0 0
0 0 0
0 0 0
0 0 0
0 0 0
0 0 0
0 0 0
0 0 0
0 0 0
0 0 0
0 0 0
0 0 0
0 0 0
0 0 0
0 0 0
0 0 0
0 0 0
0 0 0
0 0 0
0 0 0
0 0 0
0 0 0
0 0 0
0 0 0
0 0 0
0 0 0
0 0 0
0 0 0
0 0 0
0 0 0
0 0 0
0 0 0
0 0 0
0 0 0
0 0 0
0 0 0
0 0 0
0 0 0
0 0 0
0 0 0
0 0 0
0 0 0
0 0 0
0 0 0
0 0 0
0 0 0
0 0 0
0 0 0
0 0 0
0 0 0
0 0 0
0 0 0
0 0 0
0 0 0
0 0 0
0 0 0
0 0 0
0 0 0
0 0 0
0 0 0
0 0 0
0 0 0
0 0 0
0 0 0
0 0 0
0 0 0
0 0 0
0 0 0
0 0 0
0 0 0
0 0 0
0 0 0
0 0 0
0 0 0
0 0 0
0 0 0
0 0 0
0 0 0
0 0 0
0 0 0
0 0 0
0 0 0
0 0 0
0 0 0
0 0 0
0 0 0
0 0 0
0 0 0
0 0 0
0 0 0
0 0 0
0 0 0
0 0 0
0 0 0
0 0 0
0 0 0
0 0 0
0 0 0
0 0 0
0 0 0
0 0 0
0 0 0
0 0 0
0 0 0
0 0 0
0 0 0
0 0 0
0 0 0
0 0 0
0 0 0
0 0 0
0 0 0
0 0 0
0 0 0
0 0 0
0 0 0
0 0 0
0 0 0
0 0 0
0 0 0
0 0 0
0 0 0
0 0 0
0 0 0
0 0 0
0 0 0
0 0 0
0 0 0
0 0 0
0 0 0
0 0 0
0 0 0
0 0 0
0 0 0
0 0 0
0 0 0
0 0 0
0 0 0
0 0 0
0 0 0
0 0 0
0 0 0
0 0 0
0 0 0
0 0 0
0 0 0
0 0 0
0 0 0
0 0 0
0 0 0
0 0 0
0 0 0
0 0 0
0 0 0
0 0 0
0 0 0
0 0 0
0 0 0
0 0 0
0 0 0
0 0 0
0 0 0
0 0 0
0 0 0
0 0 0
0 0 0
0 0 0
0 0 0
0 0 0
0 0 0
0 0 0
0 0 0
0 0 0
0 0 0
0 0 0
0 0 0
0 0 0
0 0 0
0 0 0
0 0 0
0 0 0
0 0 0
0 0 0
0 0 0
0 0 0
0 0 0
0 0 0
0 0 0
0 0 0
0 0 0
0 0 0
0 0 0
0 0 0
0 0 0
0 0 0
0 0 0
0 0 0
0 0 0
0 0 0
0 0 0
0 0 0
0 0 0
0 0 0
0 0 0
0 0 0
0 0 0
0 0 0
0 0 0
0 0 0
0 0 0
0 0 0
0 0 0
0 0 0
0 0 0
0 0 0
0 0 0
0 0 0
0 0 0
0 0 0
0 0 0
0 0 0
0 0 0
0 0 0
0 0 0
0 0 0
0 0 0
0 0 0
0 0 0
0 0 0
0 0 0
0 0 0
0 0 0
0 0 0
0 0 0
0 0 0
0 0 0
0 0 0
0 0 0
0 0 0
0 0 0
0 0 0
0 0 0
0 0 0
0 0 0
0 0 0
0 0 0
0 0 0
0 0 0
0 0 0
0 0 0
0 0 0
0 0 0
0 0 0
0 0 0
0 0 0
0 0 0
0 0 0
0 0 0
0 0 0
0 0 0
0 0 0
0 0 0
0 0 0
0 0 0
0 0 0
0 0 0
0 0 0
0 0 0
0 0 0
0 0 0
0 0 0
0 0 0
0 0 0
0 0 0
0 0 0
0 0 0
0 0 0
0 0 0
0 0 0
0 0 0
0 0 0
0 0 0
0 0 0
0 0 0
0 0 0
0 0 0
0 0 0
0 0 0
0 0 0
0 0 0
0 0 0
0 0 0
0 0 0
0 0 0
0 0 0
0 0 0
0 0 0
0 0 0
0 0 0
0 0 0
0 0 0
0 0 0
0 0 0
0 0 0
0 0 0
0 0 0
0 0 0
0 0 0
0 0 0
0 0 0
0 0 0
0 0 0
0 0 0
0 0 0
0 0 0
0 0 0
0 0 0
0 0 0
0 0 0
0 0 0
0 0 0
0 0 0
0 0 0
0 0 0
0 0 0
0 0 0
0 0 0
0 0 0
0 0 0
0 0 0
0 0 0
0 0 0
0 0 0
0 0 0
0 0 0
0 0 0
0 0 0
0 0 0
0 0 0
0 0 0
0 0 0
0 0 0
0 0 0
0 0 0
0 0 0
0 0 0
0 0 0
0 0 0
0 0 0
0 0 0
0 0 0
0 0 0
0 0 0
0 0 0
0 0 0
0 0 0
0 0 0
0 0 0
0 0 0
0 0 0
0 0 0
0 0 0
0 0 0
0 0 0
0 0 0
0 0 0
0 0 0
0 0 0
0 0 0
0 0 0
0 0 0
0 0 0
0 0 0
0 0 0
0 0 0
0 0 0
0 0 0
0 0 0
0 0 0
0 0 0
0 0 0
0 0 0
0 0 0
0 0 0
0 0 0
0 0 0
0 0 0
0 0 0
0 0 0
0 0 0
0 0 0
0 0 0
0 0 0
0 0 0
0 0 0
0 0 0
0 0 0
0 0 0
0 0 0
0 0 0
0 0 0
0 0 0
0 0 0
0 0 0
0 0 0
0 0 0
0 0 0
0 0 0
0 0 0
0 0 0
0 0 0
0 0 0
0 0 0
0 0 0
0 0 0
0 0 0
0 0 0
0 0 0
0 0 0
0 0 0
0 0 0
0 0 0
0 0 0
0 0 0
0 0 0
0 0 0
0 0 0
0 0 0
0 0 0
0 0 0
0 0 0
0 0 0
0 0 0
0 0 0
0 0 0
0 0 0
0 0 0
0 0 0
0 0 0
0 0 0
0 0 0
0 0 0
0 0 0
0 0 0
0 0 0
0 0 0
0 0 0
0 0 0
0 0 0
0 0 0
0 0 0
0 0 0
0 0 0
0 0 0
0 0 0
0 0 0
0 0 0
0 0 0
0 0 0
0 0 0
0 0 0
0 0 0
0 0 0
0 0 0
0 0 0
0 0 0
0 0 0
0 0 0
0 0 0
0 0 0
0 0 0
0 0 0
0 0 0
0 0 0
0 0 0
0 0 0
0 0 0
0 0 0
0 0 0
0 0 0
0 0 0
0 0 0
0 0 0
0 0 0
0 0 0
0 0 0
0 0 0
0 0 0
0 0 0
0 0 0
0 0 0
0 0 0
0 0 0
0 0 0
0 0 0
0 0 0
0 0 0
0 0 0
0 0 0
0 0 0
0 0 0
0 0 0
0 0 0
0 0 0
0 0 0
0 0 0
0 0 0
0 0 0
0 0 0
0 0 0
0 0 0
0 0 0
0 0 0
0 0 0
0 0 0
0 0 0
0 0 0
0 0 0
0 0 0
0 0 0
0 0 0
0 0 0
0 0 0
0 0 0
0 0 0
0 0 0
0 0 0
0 0 0
0 0 0
0 0 0
0 0 0
0 0 0
0 0 0
0 0 0
0 0 0
0 0 0
0 0 0
0 0 0
0 0 0
0 0 0
0 0 0
0 0 0
0 0 0
0 0 0
0 0 0
0 0 0
0 0 0
0 0 0
0 0 0
0 0 0
0 0 0
0 0 0
0 0 0
0 0 0
0 0 0
0 0 0
0 0 0
0 0 0
0 0 0
0 0 0
0 0 0
0 0 0
0 0 0
0 0 0
0 0 0
0 0 0
0 0 0
0 0 0
0 0 0
0 0 0
0 0 0
0 0 0
0 0 0
0 0 0
0 0 0
0 0 0
0 0 0
0 0 0
0 0 0
0 0 0
0 0 0
0 0 0
0 0 0
0 0 0
0 0 0
0 0 0
0 0 0
0 0 0
0 0 0
0 0 0
0 0 0
0 0 0
0 0 0
0 0 0
0 0 0
0 0 0
0 0 0
0 0 0
0 0 0
0 0 0
0 0 0
0 0 0
0 0 0
0 0 0
0 0 0
0 0 0
0 0 0
0 0 0
0 0 0
0 0 0
0 0 0
0 0 0
0 0 0
0 0 0
0 0 0
0 0 0
0 0 0
0 0 0
0 0 0
0 0 0
0 0 0
0 0 0
0 0 0
0 0 0
0 0 0
0 0 0
0 0 0
0 0 0
0 0 0
0 0 0
0 0 0
0 0 0
0 0 0
0 0 0
0 0 0
0 0 0
0 0 0
0 0 0
0 0 0
0 0 0
0 0 0
0 0 0
0 0 0
0 0 0
0 0 0
0 0 0
0 0 0
0 0 0
0 0 0
0 0 0
0 0 0
0 0 0
0 0 0
0 0 0
0 0 0
0 0 0
0 0 0
0 0 0
0 0 0
0 0 0
0 0 0
0 0 0
0 0 0
0 0 0
0 0 0
0 0 0
0 0 0
0 0 0
0 0 0
0 0 0
0 0 0
0 0 0
0 0 0
0 0 0
0 0 0
0 0 0
0 0 0
0 0 0
0 0 0
0 0 0
0 0 0
0 0 0
0 0 0
0 0 0
0 0 0
0 0 0
0 0 0
0 0 0
0 0 0
0 0 0
0 0 0
0 0 0
0 0 0
0 0 0
0 0 0
0 0 0
0 0 0
0 0 0
0 0 0
0 0 0
0 0 0
0 0 0
0 0 0
0 0 0
0 0 0
0 0 0
0 0 0
0 0 0
0 0 0
0 0 0
0 0 0
0 0 0
0 0 0
0 0 0
0 0 0
0 0 0
0 0 0
0 0 0
0 0 0
0 0 0
0 0 0
0 0 0
0 0 0
0 0 0
0 0 0
0 0 0
0 0 0
0 0 0
0 0 0
0 0 0
0 0 0
0 0 0
0 0 0
0 0 0
0 0 0
0 0 0
0 0 0
0 0 0
0 0 0
0 0 0
0 0 0
0 0 0
0 0 0
0 0 0
0 0 0
0 0 0
0 0 0
0 0 0
0 0 0
0 0 0
0 0 0
0 0 0
0 0 0
0 0 0
0 0 0
0 0 0
0 0 0
0 0 0
0 0 0
0 0 0
0 0 0
0 0 0
0 0 0
0 0 0
0 0 0
0 0 0
0 0 0
0 0 0
0 0 0
0 0 0
0 0 0
0 0 0
0 0 0
0 0 0
0 0 0
0 0 0
0 0 0
0 0 0
0 0 0
0 0 0
0 0 0
0 0 0
0 0 0
0 0 0
0 0 0
0 0 0
0 0 0
0 0 0
0 0 0
0 0 0
0 0 0
0 0 0
0 0 0
0 0 0
0 0 0
0 0 0
0 0 0
0 0 0
0 0 0
0 0 0
0 0 0
0 0 0
0 0 0
0 0 0
0 0 0
0 0 0
0 0 0
0 0 0
0 0 0
0 0 0
0 0 0
0 0 0
0 0 0
0 0 0
0 0 0
0 0 0
0 0 0
0 0 0
0 0 0
0 0 0
0 0 0
0 0 0
0 0 0
0 0 0
0 0 0
0 0 0
0 0 0
0 0 0
0 0 0
0 0 0
0 0 0
0 0 0
0 0 0
0 0 0
0 0 0
0 0 0
0 0 0
0 0 0
0 0 0
0 0 0
0 0 0
0 0 0
0 0 0
0 0 0
0 0 0
0 0 0
0 0 0
0 0 0
0 0 0
0 0 0
0 0 0
0 0 0
0 0 0
0 0 0
0 0 0
0 0 0
0 0 0
0 0 0
0 0 0
0 0 0
0 0 0
0 0 0
0 0 0
0 0 0
0 0 0
0 0 0
0 0 0
0 0 0
0 0 0
0 0 0
0 0 0
0 0 0
0 0 0
0 0 0
0 0 0
0 0 0
0 0 0
0 0 0
0 0 0
0 0 0
0 0 0
0 0 0
0 0 0
0 0 0
0 0 0
0 0 0
0 0 0
0 0 0
0 0 0
0 0 0
0 0 0
0 0 0
0 0 0
0 0 0
0 0 0
0 0 0
0 0 0
0 0 0
0 0 0
0 0 0
0 0 0
0 0 0
0 0 0
0 0 0
0 0 0
0 0 0
0 0 0
0 0 0
0 0 0
0 0 0
0 0 0
0 0 0
0 0 0
0 0 0
0 0 0
0 0 0
0 0 0
0 0 0
0 0 0
0 0 0
0 0 0
0 0 0
0 0 0
0 0 0
0 0 0
0 0 0
0 0 0
0 0 0
0 0 0
0 0 0
0 0 0
0 0 0
0 0 0
0 0 0
0 0 0
0 0 0
0 0 0
0 0 0
0 0 0
0 0 0
0 0 0
0 0 0
0 0 0
0 0 0
0 0 0
0 0 0
0 0 0
0 0 0
0 0 0
0 0 0
0 0 0
0 0 0
0 0 0
0 0 0
0 0 0
0 0 0
0 0 0
0 0 0
0 0 0
0 0 0
0 0 0
0 0 0
0 0 0
0 0 0
0 0 0
0 0 0
0 0 0
0 0 0
0 0 0
0 0 0
0 0 0
0 0 0
0 0 0
0 0 0
0 0 0
0 0 0
0 0 0
0 0 0
0 0 0
0 0 0
0 0 0
0 0 0
0 0 0
0 0 0
0 0 0
0 0 0
0 0 0
0 0 0
0 0 0
0 0 0
0 0 0
0 0 0
0 0 0
0 0 0
0 0 0
0 0 0
0 0 0
0 0 0
0 0 0
0 0 0
0 0 0
0 0 0
0 0 0
0 0 0
0 0 0
0 0 0
0 0 0
0 0 0
0 0 0
0 0 0
0 0 0
0 0 0
0 0 0
0 0 0
0 0 0
0 0 0
0 0 0
0 0 0
0 0 0
0 0 0
0 0 0
0 0 0
0 0 0
0 0 0
0 0 0
0 0 0
0 0 0
0 0 0
0 0 0
0 0 0
0 0 0
0 0 0
0 0 0
0 0 0
0 0 0
0 0 0
0 0 0
0 0 0
0 0 0
0 0 0
0 0 0
0 0 0
0 0 0
0 0 0
0 0 0
0 0 0
0 0 0
0 0 0
0 0 0
0 0 0
0 0 0
0 0 0
0 0 0
0 0 0
0 0 0
0 0 0
0 0 0
0 0 0
0 0 0
0 0 0
0 0 0
0 0 0
0 0 0
0 0 0
0 0 0
0 0 0
0 0 0
0 0 0
0 0 0
0 0 0
0 0 0
0 0 0
0 0 0
0 0 0
0 0 0
0 0 0
0 0 0
0 0 0
0 0 0
0 0 0
0 0 0
0 0 0
0 0 0
0 0 0
0 0 0
0 0 0
0 0 0
0 0 0
0 0 0
0 0 0
0 0 0
0 0 0
0 0 0
0 0 0
0 0 0
0 0 0
0 0 0
0 0 0
0 0 0
0 0 0
0 0 0
0 0 0
0 0 0
0 0 0
0 0 0
0 0 0
0 0 0
0 0 0
0 0 0
0 0 0
0 0 0
0 0 0
0 0 0
0 0 0
0 0 0
0 0 0
0 0 0
0 0 0
0 0 0
0 0 0
0 0 0
0 0 0
0 0 0
0 0 0
0 0 0
0 0 0
0 0 0
0 0 0
0 0 0
0 0 0
0 0 0
0 0 0
0 0 0
0 0 0
0 0 0
0 0 0
0 0 0
0 0 0
0 0 0
0 0 0
0 0 0
0 0 0
0 0 0
0 0 0
0 0 0
0 0 0
0 0 0
0 0 0
0 0 0
0 0 0
0 0 0
0 0 0
0 0 0
0 0 0
0 0 0
0 0 0
0 0 0
0 0 0
0 0 0
0 0 0
0 0 0
0 0 0
0 0 0
0 0 0
0 0 0
0 0 0
0 0 0
0 0 0
0 0 0
0 0 0
0 0 0
0 0 0
0 0 0
0 0 0
0 0 0
0 0 0
0 0 0
0 0 0
0 0 0
0 0 0
0 0 0
0 0 0
0 0 0
0 0 0
0 0 0
0 0 0
0 0 0
0 0 0
0 0 0
0 0 0
0 0 0
0 0 0
0 0 0
0 0 0
0 0 0
0 0 0
0 0 0
0 0 0
0 0 0
0 0 0
0 0 0
0 0 0
0 0 0
0 0 0
0 0 0
0 0 0
0 0 0
0 0 0
0 0 0
0 0 0
0 0 0
0 0 0
0 0 0
0 0 0
0 0 0
0 0 0
0 0 0
0 0 0
0 0 0
0 0 0
0 0 0
0 0 0
0 0 0
0 0 0
0 0 0
0 0 0
0 0 0
0 0 0
0 0 0
0 0 0
0 0 0
0 0 0
0 0 0
0 0 0
0 0 0
0 0 0
0 0 0
0 0 0
0 0 0
0 0 0
0 0 0
0 0 0
0 0 0
0 0 0
0 0 0
0 0 0
0 0 0
0 0 0
0 0 0
0 0 0
0 0 0
0 0 0
0 0 0
0 0 0
0 0 0
0 0 0
0 0 0
0 0 0
0 0 0
0 0 0
0 0 0
0 0 0
0 0 0
0 0 0
0 0 0
0 0 0
0 0 0
0 0 0
0 0 0
0 0 0
0 0 0
0 0 0
0 0 0
0 0 0
0 0 0
0 0 0
0 0 0
0 0 0
0 0 0
0 0 0
0 0 0
0 0 0
0 0 0
0 0 0
0 0 0
0 0 0
0 0 0
0 0 0
0 0 0
0 0 0
0 0 0
0 0 0
0 0 0
0 0 0
0 0 0
0 0 0
0 0 0
0 0 0
0 0 0
0 0 0
0 0 0
0 0 0
0 0 0
0 0 0
0 0 0
0 0 0
0 0 0
0 0 0
0 0 0
0 0 0
0 0 0
0 0 0
0 0 0
0 0 0
0 0 0
0 0 0
0 0 0
0 0 0
0 0 0
0 0 0
0 0 0
0 0 0
0 0 0
0 0 0
0 0 0
0 0 0
0 0 0
0 0 0
0 0 0
0 0 0
0 0 0
0 0 0
0 0 0
0 0 0
0 0 0
0 0 0
0 0 0
0 0 0
0 0 0
0 0 0
0 0 0
0 0 0
0 0 0
0 0 0
0 0 0
0 0 0
0 0 0
0 0 0
0 0 0
0 0 0
0 0 0
0 0 0
0 0 0
0 0 0
0 0 0
0 0 0
0 0 0
0 0 0
0 0 0
0 0 0
0 0 0
0 0 0
0 0 0
0 0 0
0 0 0
0 0 0
0 0 0
0 0 0
0 0 0
0 0 0
0 0 0
0 0 0
0 0 0
0 0 0
0 0 0
0 0 0
0 0 0
0 0 0
0 0 0
0 0 0
0 0 0
0 0 0
0 0 0
0 0 0
0 0 0
0 0 0
0 0 0
0 0 0
0 0 0
0 0 0
0 0 0
0 0 0
0 0 0
0 0 0
0 0 0
0 0 0
0 0 0
0 0 0
0 0 0
0 0 0
0 0 0
0 0 0
0 0 0
0 0 0
0 0 0
0 0 0
0 0 0
0 0 0
0 0 0
0 0 0
0 0 0
0 0 0
0 0 0
0 0 0
0 0 0
0 0 0
0 0 0
0 0 0
0 0 0
0 0 0
0 0 0
0 0 0
0 0 0
0 0 0
0 0 0
0 0 0
0 0 0
0 0 0
0 0 0
0 0 0
0 0 0
0 0 0
0 0 0
0 0 0
0 0 0
0 0 0
0 0 0
0 0 0
0 0 0
0 0 0
0 0 0
0 0 0
0 0 0
0 0 0
0 0 0
0 0 0
0 0 0
0 0 0
0 0 0
0 0 0
0 0 0
0 0 0
0 0 0
0 0 0
0 0 0
0 0 0
0 0 0
0 0 0
0 0 0
0 0 0
0 0 0
0 0 0
0 0 0
0 0 0
0 0 0
0 0 0
0 0 0
0 0 0
0 0 0
0 0 0
0 0 0
0 0 0
0 0 0
0 0 0
0 0 0
0 0 0
0 0 0
0 0 0
0 0 0
0 0 0
0 0 0
0 0 0
0 0 0
0 0 0
0 0 0
0 0 0
0 0 0
0 0 0
0 0 0
0 0 0
0 0 0
0 0 0
0 0 0
0 0 0
0 0 0
0 0 0
0 0 0
0 0 0
0 0 0
0 0 0
0 0 0
0 0 0
0 0 0
0 0 0
0 0 0
0 0 0
0 0 0
0 0 0
0 0 0
0 0 0
0 0 0
0 0 0
0 0 0
0 0 0
0 0 0
0 0 0
0 0 0
0 0 0
0 0 0
0 0 0
0 0 0
0 0 0
0 0 0
0 0 0
0 0 0
0 0 0
0 0 0
0 0 0
0 0 0
0 0 0
0 0 0
0 0 0
0 0 0
0 0 0
0 0 0
0 0 0
0 0 0
0 0 0
0 0 0
0 0 0
0 0 0
0 0 0
0 0 0
0 0 0
0 0 0
0 0 0
0 0 0
0 0 0
0 0 0
0 0 0
0 0 0
0 0 0
0 0 0
0 0 0
0 0 0
0 0 0
0 0 0
0 0 0
0 0 0
0 0 0
0 0 0
0 0 0
0 0 0
0 0 0
0 0 0
0 0 0
0 0 0
0 0 0
0 0 0
0 0 0
0 0 0
0 0 0
0 0 0
0 0 0
0 0 0
0 0 0
0 0 0
0 0 0
0 0 0
0 0 0
0 0 0
0 0 0
0 0 0
0 0 0
0 0 0
0 0 0
0 0 0
0 0 0
0 0 0
0 0 0
0 0 0
0 0 0
0 0 0
0 0 0
0 0 0
0 0 0
0 0 0
0 0 0
0 0 0
0 0 0
0 0 0
0 0 0
0 0 0
0 0 0
0 0 0
0 0 0
0 0 0
0 0 0
0 0 0
0 0 0
0 0 0
0 0 0
0 0 0
0 0 0
0 0 0
0 0 0
0 0 0
0 0 0
0 0 0
0 0 0
0 0 0
0 0 0
0 0 0
0 0 0
0 0 0
0 0 0
0 0 0
0 0 0
0 0 0
0 0 0
0 0 0
0 0 0
0 0 0
0 0 0
0 0 0
0 0 0
0 0 0
0 0 0
0 0 0
0 0 0
0 0 0
0 0 0
0 0 0
0 0 0
0 0 0
0 0 0
0 0 0
0 0 0
0 0 0
0 0 0
0 0 0
0 0 0
0 0 0
0 0 0
0 0 0
0 0 0
0 0 0
0 0 0
0 0 0
0 0 0
0 0 0
0 0 0
0 0 0
0 0 0
0 0 0
0 0 0
0 0 0
0 0 0
0 0 0
0 0 0
0 0 0
0 0 0
0 0 0
0 0 0
0 0 0
0 0 0
0 0 0
0 0 0
0 0 0
0 0 0
0 0 0
0 0 0
0 0 0
0 0 0
0 0 0
0 0 0
0 0 0
0 0 0
0 0 0
0 0 0
0 0 0
0 0 0
0 0 0
0 0 0
0 0 0
0 0 0
0 0 0
0 0 0
0 0 0
0 0 0
0 0 0
0 0 0
0 0 0
0 0 0
0 0 0
0 0 0
0 0 0
0 0 0
0 0 0
0 0 0
0 0 0
0 0 0
0 0 0
0 0 0
0 0 0
0 0 0
0 0 0
0 0 0
0 0 0
0 0 0
0 0 0
0 0 0
0 0 0
0 0 0
0 0 0
0 0 0
0 0 0
0 0 0
0 0 0
0 0 0
0 0 0
0 0 0
0 0 0
0 0 0
0 0 0
0 0 0
0 0 0
0 0 0
0 0 0
0 0 0
0 0 0
0 0 0
0 0 0
0 0 0
0 0 0
0 0 0
0 0 0
0 0 0
0 0 0
0 0 0
0 0 0
0 0 0
0 0 0
0 0 0
0 0 0
0 0 0
0 0 0
0 0 0
0 0 0
0 0 0
0 0 0
0 0 0
0 0 0
0 0 0
0 0 0
0 0 0
0 0 0
0 0 0
0 0 0
0 0 0
0 0 0
0 0 0
0 0 0
0 0 0
0 0 0
0 0 0
0 0 0
0 0 0
0 0 0
0 0 0
0 0 0
0 0 0
0 0 0
0 0 0
0 0 0
0 0 0
0 0 0
0 0 0
0 0 0
0 0 0
0 0 0
0 0 0
0 0 0
0 0 0
0 0 0
0 0 0
0 0 0
0 0 0
0 0 0
0 0 0
0 0 0
0 0 0
0 0 0
0 0 0
0 0 0
0 0 0
0 0 0
0 0 0
0 0 0
0 0 0
0 0 0
0 0 0
0 0 0
0 0 0
0 0 0
0 0 0
0 0 0
0 0 0
0 0 0
0 0 0
0 0 0
0 0 0
0 0 0
0 0 0
0 0 0
0 0 0
0 0 0
0 0 0
0 0 0
0 0 0
0 0 0
0 0 0
0 0 0
0 0 0
0 0 0
0 0 0
0 0 0
0 0 0
0 0 0
0 0 0
0 0 0
0 0 0
0 0 0
0 0 0
0 0 0
0 0 0
0 0 0
0 0 0
0 0 0
0 0 0
0 0 0
0 0 0
0 0 0
0 0 0
0 0 0
0 0 0
0 0 0
0 0 0
0 0 0
0 0 0
0 0 0
0 0 0
0 0 0
0 0 0
0 0 0
0 0 0
0 0 0
0 0 0
0 0 0
0 0 0
0 0 0
0 0 0
0 0 0
0 0 0
0 0 0
0 0 0
0 0 0
0 0 0
0 0 0
0 0 0
0 0 0
0 0 0
0 0 0
0 0 0
0 0 0
0 0 0
0 0 0
0 0 0
0 0 0
0 0 0
0 0 0
0 0 0
0 0 0
0 0 0
0 0 0
0 0 0
0 0 0
0 0 0
0 0 0
0 0 0
0 0 0
0 0 0
0 0 0
0 0 0
0 0 0
0 0 0
0 0 0
0 0 0
0 0 0
0 0 0
0 0 0
0 0 0
0 0 0
0 0 0
0 0 0
0 0 0
0 0 0
0 0 0
0 0 0
0 0 0
0 0 0
0 0 0
0 0 0
0 0 0
0 0 0
0 0 0
0 0 0
0 0 0
0 0 0
0 0 0
0 0 0
0 0 0
0 0 0
0 0 0
0 0 0
0 0 0
0 0 0
0 0 0
0 0 0
0 0 0
0 0 0
0 0 0
0 0 0
0 0 0
0 0 0
0 0 0
0 0 0
0 0 0
0 0 0
0 0 0
0 0 0
0 0 0
0 0 0
0 0 0
0 0 0
0 0 0
0 0 0
0 0 0
0 0 0
0 0 0
0 0 0
0 0 0
0 0 0
0 0 0
0 0 0
0 0 0
0 0 0
0 0 0
0 0 0
0 0 0
0 0 0
0 0 0
0 0 0
0 0 0
0 0 0
0 0 0
0 0 0
0 0 0
0 0 0
0 0 0
0 0 0
0 0 0
0 0 0
0 0 0
0 0 0
0 0 0
0 0 0
0 0 0
0 0 0
0 0 0
0 0 0
0 0 0
0 0 0
0 0 0
0 0 0
0 0 0
0 0 0
0 0 0
0 0 0
0 0 0
0 0 0
0 0 0
0 0 0
0 0 0
0 0 0
0 0 0
0 0 0
0 0 0
0 0 0
0 0 0
0 0 0
0 0 0
0 0 0
0 0 0
0 0 0
0 0 0
0 0 0
0 0 0
0 0 0
0 0 0
0 0 0
0 0 0
0 0 0
0 0 0
0 0 0
0 0 0
0 0 0
0 0 0
0 0 0
0 0 0
0 0 0
0 0 0
0 0 0
0 0 0
0 0 0
0 0 0
0 0 0
0 0 0
0 0 0
0 0 0
0 0 0
0 0 0
0 0 0
0 0 0
0 0 0
0 0 0
0 0 0
0 0 0
0 0 0
0 0 0
0 0 0
0 0 0
0 0 0
0 0 0
0 0 0
0 0 0
0 0 0
0 0 0
0 0 0
0 0 0
0 0 0
0 0 0
0 0 0
0 0 0
0 0 0
0 0 0
0 0 0
0 0 0
0 0 0
0 0 0
0 0 0
0 0 0
0 0 0
0 0 0
0 0 0
0 0 0
0 0 0
0 0 0
0 0 0
0 0 0
0 0 0
0 0 0
0 0 0
0 0 0
0 0 0
0 0 0
0 0 0
0 0 0
0 0 0
0 0 0
0 0 0
0 0 0
0 0 0
0 0 0
0 0 0
0 0 0
0 0 0
0 0 0
0 0 0
0 0 0
0 0 0
0 0 0
0 0 0
0 0 0
0 0 0
0 0 0
0 0 0
0 0 0
0 0 0
0 0 0
0 0 0
0 0 0
0 0 0
0 0 0
0 0 0
0 0 0
0 0 0
0 0 0
0 0 0
0 0 0
0 0 0
0 0 0
0 0 0
0 0 0
0 0 0
0 0 0
0 0 0
0 0 0
0 0 0
0 0 0
0 0 0
0 0 0
0 0 0
0 0 0
0 0 0
0 0 0
0 0 0
0 0 0
0 0 0
0 0 0
0 0 0
0 0 0
0 0 0
0 0 0
0 0 0
0 0 0
0 0 0
0 0 0
0 0 0
0 0 0
0 0 0
0 0 0
0 0 0
0 0 0
0 0 0
0 0 0
0 0 0
0 0 0
0 0 0
0 0 0
0 0 0
0 0 0
0 0 0
0 0 0
0 0 0
0 0 0
0 0 0
0 0 0
0 0 0
0 0 0
0 0 0
0 0 0
0 0 0
0 0 0
0 0 0
0 0 0
0 0 0
0 0 0
0 0 0
0 0 0
0 0 0
0 0 0
0 0 0
0 0 0
0 0 0
0 0 0
0 0 0
0 0 0
0 0 0
0 0 0
0 0 0
0 0 0
0 0 0
0 0 0
0 0 0
0 0 0
0 0 0
0 0 0
0 0 0
0 0 0
0 0 0
0 0 0
0 0 0
0 0 0
0 0 0
0 0 0
0 0 0
0 0 0
0 0 0
0 0 0
0 0 0
0 0 0
0 0 0
0 0 0
0 0 0
0 0 0
0 0 0
0 0 0
0 0 0
0 0 0
0 0 0
0 0 0
0 0 0
0 0 0
0 0 0
0 0 0
0 0 0
0 0 0
0 0 0
0 0 0
0 0 0
0 0 0
0 0 0
0 0 0
0 0 0
0 0 0
0 0 0
0 0 0
0 0 0
0 0 0
0 0 0
0 0 0
0 0 0
0 0 0
0 0 0
0 0 0
0 0 0
0 0 0
0 0 0
0 0 0
0 0 0
0 0 0
0 0 0
0 0 0
0 0 0
0 0 0
0 0 0
0 0 0
0 0 0
0 0 0
0 0 0
0 0 0
0 0 0
0 0 0
0 0 0
0 0 0
0 0 0
0 0 0
0 0 0
0 0 0
0 0 0
0 0 0
0 0 0
0 0 0
0 0 0
0 0 0
0 0 0
0 0 0
0 0 0
0 0 0
0 0 0
0 0 0
0 0 0
0 0 0
0 0 0
0 0 0
0 0 0
0 0 0
0 0 0
0 0 0
0 0 0
0 0 0
0 0 0
0 0 0
0 0 0
0 0 0
0 0 0
0 0 0
0 0 0
0 0 0
0 0 0
0 0 0
0 0 0
0 0 0
0 0 0
0 0 0
0 0 0
0 0 0
0 0 0
0 0 0
0 0 0
0 0 0
0 0 0
0 0 0
0 0 0
0 0 0
0 0 0
0 0 0
0 0 0
0 0 0
0 0 0
0 0 0
0 0 0
0 0 0
0 0 0
0 0 0
0 0 0
0 0 0
0 0 0
0 0 0
0 0 0
0 0 0
0 0 0
0 0 0
0 0 0
0 0 0
0 0 0
0 0 0
0 0 0
0 0 0
0 0 0
0 0 0
0 0 0
0 0 0
0 0 0
0 0 0
0 0 0
0 0 0
0 0 0
0 0 0
0 0 0
0 0 0
0 0 0
0 0 0
0 0 0
0 0 0
0 0 0
0 0 0
0 0 0
0 0 0
0 0 0
0 0 0
0 0 0
0 0 0
0 0 0
0 0 0
0 0 0
0 0 0
0 0 0
0 0 0
0 0 0
0 0 0
0 0 0
0 0 0
0 0 0
0 0 0
0 0 0
0 0 0
0 0 0
0 0 0
0 0 0
0 0 0
0 0 0
0 0 0
0 0 0
0 0 0
0 0 0
0 0 0
0 0 0
0 0 0
0 0 0
0 0 0
0 0 0
0 0 0
0 0 0
0 0 0
0 0 0
0 0 0
0 0 0
0 0 0
0 0 0
0 0 0
0 0 0
0 0 0
0 0 0
0 0 0
0 0 0
0 0 0
0 0 0
0 0 0
0 0 0
0 0 0
0 0 0
0 0 0
0 0 0
0 0 0
0 0 0
0 0 0
0 0 0
0 0 0
0 0 0
0 0 0
0 0 0
0 0 0
0 0 0
0 0 0
0 0 0
0 0 0
0 0 0
0 0 0
0 0 0
0 0 0
0 0 0
0 0 0
0 0 0
0 0 0
0 0 0
0 0 0
0 0 0
0 0 0
0 0 0
0 0 0
0 0 0
0 0 0
0 0 0
0 0 0
0 0 0
0 0 0
0 0 0
0 0 0
0 0 0
0 0 0
0 0 0
0 0 0
0 0 0
0 0 0
0 0 0
0 0 0
0 0 0
0 0 0
0 0 0
0 0 0
0 0 0
0 0 0
0 0 0
0 0 0
0 0 0
0 0 0
0 0 0
0 0 0
0 0 0
0 0 0
0 0 0
0 0 0
0 0 0
0 0 0
0 0 0
0 0 0
0 0 0
0 0 0
0 0 0
0 0 0
0 0 0
0 0 0
0 0 0
0 0 0
0 0 0
0 0 0
0 0 0
0 0 0
0 0 0
0 0 0
0 0 0
0 0 0
0 0 0
0 0 0
0 0 0
0 0 0
0 0 0
0 0 0
0 0 0
0 0 0
0 0 0
0 0 0
0 0 0
0 0 0
0 0 0
0 0 0
0 0 0
0 0 0
0 0 0
0 0 0
0 0 0
0 0 0
0 0 0
0 0 0
0 0 0
0 0 0
0 0 0
0 0 0
0 0 0
0 0 0
0 0 0
0 0 0
0 0 0
0 0 0
0 0 0
0 0 0
0 0 0
0 0 0
0 0 0
0 0 0
0 0 0
0 0 0
0 0 0
0 0 0
0 0 0
0 0 0
0 0 0
0 0 0
0 0 0
0 0 0
0 0 0
0 0 0
0 0 0
0 0 0
0 0 0
0 0 0
0 0 0
0 0 0
0 0 0
0 0 0
0 0 0
0 0 0
0 0 0
0 0 0
0 0 0
0 0 0
0 0 0
0 0 0
0 0 0
0 0 0
0 0 0
0 0 0
0 0 0
0 0 0
0 0 0
0 0 0
0 0 0
0 0 0
0 0 0
0 0 0
0 0 0
0 0 0
0 0 0
0 0 0
0 0 0
0 0 0
0 0 0
0 0 0
0 0 0
0 0 0
0 0 0
0 0 0
0 0 0
0 0 0
0 0 0
0 0 0
0 0 0
0 0 0
0 0 0
0 0 0
0 0 0
0 0 0
0 0 0
0 0 0
0 0 0
0 0 0
0 0 0
0 0 0
0 0 0
0 0 0
0 0 0
0 0 0
0 0 0
0 0 0
0 0 0
0 0 0
0 0 0
0 0 0
0 0 0
0 0 0
0 0 0
0 0 0
0 0 0
0 0 0
0 0 0
0 0 0
0 0 0
0 0 0
0 0 0
0 0 0
0 0 0
0 0 0
0 0 0
0 0 0
0 0 0
0 0 0
0 0 0
0 0 0
0 0 0
0 0 0
0 0 0
0 0 0
0 0 0
0 0 0
0 0 0
0 0 0
0 0 0
0 0 0
0 0 0
0 0 0
0 0 0
0 0 0
0 0 0
0 0 0
0 0 0
0 0 0
0 0 0
0 0 0
0 0 0
0 0 0
0 0 0
0 0 0
0 0 0
0 0 0
0 0 0
0 0 0
0 0 0
0 0 0
0 0 0
0 0 0
0 0 0
0 0 0
0 0 0
0 0 0
0 0 0
0 0 0
0 0 0
0 0 0
0 0 0
0 0 0
0 0 0
0 0 0
0 0 0
0 0 0
0 0 0
0 0 0
0 0 0
0 0 0
0 0 0
0 0 0
0 0 0
0 0 0
0 0 0
0 0 0
0 0 0
0 0 0
0 0 0
0 0 0
0 0 0
0 0 0
0 0 0
0 0 0
0 0 0
0 0 0
0 0 0
0 0 0
0 0 0
0 0 0
0 0 0
0 0 0
0 0 0
0 0 0
0 0 0
0 0 0
0 0 0
0 0 0
0 0 0
0 0 0
0 0 0
0 0 0
0 0 0
0 0 0
0 0 0
0 0 0
0 0 0
0 0 0
0 0 0
0 0 0
0 0 0
0 0 0
0 0 0
0 0 0
0 0 0
0 0 0
0 0 0
0 0 0
0 0 0
0 0 0
0 0 0
0 0 0
0 0 0
0 0 0
0 0 0
0 0 0
0 0 0
0 0 0
0 0 0
0 0 0
0 0 0
0 0 0
0 0 0
0 0 0
0 0 0
0 0 0
0 0 0
0 0 0
0 0 0
0 0 0
0 0 0
0 0 0
0 0 0
0 0 0
0 0 0
0 0 0
0 0 0
0 0 0
0 0 0
0 0 0
0 0 0
0 0 0
0 0 0
0 0 0
0 0 0
0 0 0
0 0 0
0 0 0
0 0 0
0 0 0
0 0 0
0 0 0
0 0 0
0 0 0
0 0 0
0 0 0
0 0 0
0 0 0
0 0 0
0 0 0
0 0 0
0 0 0
0 0 0
0 0 0
0 0 0
0 0 0
0 0 0
0 0 0
0 0 0
0 0 0
0 0 0
0 0 0
0 0 0
0 0 0
0 0 0
0 0 0
0 0 0
0 0 0
0 0 0
0 0 0
0 0 0
0 0 0
0 0 0
0 0 0
0 0 0
0 0 0
0 0 0
0 0 0
0 0 0
0 0 0
0 0 0
0 0 0
0 0 0
0 0 0
0 0 0
0 0 0
0 0 0
0 0 0
0 0 0
0 0 0
0 0 0
0 0 0
0 0 0
0 0 0
0 0 0
0 0 0
0 0 0
0 0 0
0 0 0
0 0 0
0 0 0
0 0 0
0 0 0
0 0 0
0 0 0
0 0 0
0 0 0
0 0 0
0 0 0
0 0 0
0 0 0
0 0 0
0 0 0
0 0 0
0 0 0
0 0 0
0 0 0
0 0 0
0 0 0
0 0 0
0 0 0
0 0 0
0 0 0
0 0 0
0 0 0
0 0 0
0 0 0
0 0 0
0 0 0
0 0 0
0 0 0
0 0 0
0 0 0
0 0 0
0 0 0
0 0 0
0 0 0
0 0 0
0 0 0
0 0 0
0 0 0
0 0 0
0 0 0
0 0 0
0 0 0
0 0 0
0 0 0
0 0 0
0 0 0
0 0 0
0 0 0
0 0 0
0 0 0
0 0 0
0 0 0
0 0 0
0 0 0
0 0 0
0 0 0
0 0 0
0 0 0
0 0 0
0 0 0
0 0 0
0 0 0
0 0 0
0 0 0
0 0 0
0 0 0
0 0 0
0 0 0
0 0 0
0 0 0
0 0 0
0 0 0
0 0 0
0 0 0
0 0 0
0 0 0
0 0 0
0 0 0
0 0 0
0 0 0
0 0 0
0 0 0
0 0 0
0 0 0
0 0 0
0 0 0
0 0 0
0 0 0
0 0 0
0 0 0
0 0 0
0 0 0
0 0 0
0 0 0
0 0 0
0 0 0
0 0 0
0 0 0
0 0 0
0 0 0
0 0 0
0 0 0
0 0 0
0 0 0
0 0 0
0 0 0
0 0 0
0 0 0
0 0 0
0 0 0
0 0 0
0 0 0
0 0 0
0 0 0
0 0 0
0 0 0
0 0 0
0 0 0
0 0 0
0 0 0
0 0 0
0 0 0
0 0 0
0 0 0
0 0 0
0 0 0
0 0 0
0 0 0
0 0 0
0 0 0
0 0 0
0 0 0
0 0 0
0 0 0
0 0 0
0 0 0
0 0 0
0 0 0
0 0 0
0 0 0
0 0 0
0 0 0
0 0 0
0 0 0
0 0 0
0 0 0
0 0 0
0 0 0
0 0 0
0 0 0
0 0 0
0 0 0
0 0 0
0 0 0
0 0 0
0 0 0
0 0 0
0 0 0
0 0 0
0 0 0
0 0 0
0 0 0
0 0 0
0 0 0
0 0 0
0 0 0
0 0 0
0 0 0
0 0 0
0 0 0
0 0 0
0 0 0
0 0 0
0 0 0
0 0 0
0 0 0
0 0 0
0 0 0
0 0 0
0 0 0
0 0 0
0 0 0
0 0 0
0 0 0
0 0 0
0 0 0
0 0 0
0 0 0
0 0 0
0 0 0
0 0 0
0 0 0
0 0 0
0 0 0
0 0 0
0 0 0
0 0 0
0 0 0
0 0 0
0 0 0
0 0 0
0 0 0
0 0 0
0 0 0
0 0 0
0 0 0
0 0 0
0 0 0
0 0 0
0 0 0
0 0 0
0 0 0
0 0 0
0 0 0
0 0 0
0 0 0
0 0 0
0 0 0
0 0 0
0 0 0
0 0 0
0 0 0
0 0 0
0 0 0
0 0 0
0 0 0
0 0 0
0 0 0
0 0 0
0 0 0
0 0 0
0 0 0
0 0 0
0 0 0
0 0 0
0 0 0
0 0 0
0 0 0
0 0 0
0 0 0
0 0 0
0 0 0
0 0 0
0 0 0
0 0 0
0 0 0
0 0 0
0 0 0
0 0 0
0 0 0
0 0 0
0 0 0
0 0 0
0 0 0
0 0 0
0 0 0
0 0 0
0 0 0
0 0 0
0 0 0
0 0 0
0 0 0
0 0 0
0 0 0
0 0 0
0 0 0
0 0 0
0 0 0
0 0 0
0 0 0
0 0 0
0 0 0
0 0 0
0 0 0
0 0 0
0 0 0
0 0 0
0 0 0
0 0 0
0 0 0
0 0 0
0 0 0
0 0 0
0 0 0
0 0 0
0 0 0
0 0 0
0 0 0
0 0 0
0 0 0
0 0 0
0 0 0
0 0 0
0 0 0
0 0 0
0 0 0
0 0 0
0 0 0
0 0 0
0 0 0
0 0 0
0 0 0
0 0 0
0 0 0
0 0 0
0 0 0
0 0 0
0 0 0
0 0 0
0 0 0
0 0 0
0 0 0
0 0 0
0 0 0
0 0 0
0 0 0
0 0 0
0 0 0
0 0 0
0 0 0
0 0 0
0 0 0
0 0 0
0 0 0
0 0 0
0 0 0
0 0 0
0 0 0
0 0 0
0 0 0
0 0 0
0 0 0
0 0 0
0 0 0
0 0 0
0 0 0
0 0 0
0 0 0
0 0 0
0 0 0
0 0 0
0 0 0
0 0 0
0 0 0
0 0 0
0 0 0
0 0 0
0 0 0
0 0 0
0 0 0
0 0 0
0 0 0
0 0 0
0 0 0
0 0 0
0 0 0
0 0 0
0 0 0
0 0 0
0 0 0
0 0 0
0 0 0
0 0 0
0 0 0
0 0 0
0 0 0
0 0 0
0 0 0
0 0 0
0 0 0
0 0 0
0 0 0
0 0 0
0 0 0
0 0 0
0 0 0
0 0 0
0 0 0
0 0 0
0 0 0
0 0 0
0 0 0
0 0 0
0 0 0
0 0 0
0 0 0
0 0 0
0 0 0
0 0 0
0 0 0
0 0 0
0 0 0
0 0 0
0 0 0
0 0 0
0 0 0
0 0 0
0 0 0
0 0 0
0 0 0
0 0 0
0 0 0
0 0 0
0 0 0
0 0 0
0 0 0
0 0 0
0 0 0
0 0 0
0 0 0
0 0 0
0 0 0
0 0 0
0 0 0
0 0 0
0 0 0
0 0 0
0 0 0
0 0 0
0 0 0
0 0 0
0 0 0
0 0 0
0 0 0
0 0 0
0 0 0
0 0 0
0 0 0
0 0 0
0 0 0
0 0 0
0 0 0
0 0 0
0 0 0
0 0 0
0 0 0
0 0 0
0 0 0
0 0 0
0 0 0
0 0 0
0 0 0
0 0 0
0 0 0
0 0 0
0 0 0
0 0 0
0 0 0
0 0 0
0 0 0
0 0 0
0 0 0
0 0 0
0 0 0
0 0 0
0 0 0
0 0 0
0 0 0
0 0 0
0 0 0
0 0 0
0 0 0
0 0 0
0 0 0
0 0 0
0 0 0
0 0 0
0 0 0
0 0 0
0 0 0
0 0 0
0 0 0
0 0 0
0 0 0
0 0 0
0 0 0
0 0 0
0 0 0
0 0 0
0 0 0
0 0 0
0 0 0
0 0 0
0 0 0
0 0 0
0 0 0
0 0 0
0 0 0
0 0 0
0 0 0
0 0 0
0 0 0
0 0 0
0 0 0
0 0 0
0 0 0
0 0 0
0 0 0
0 0 0
0 0 0
0 0 0
0 0 0
0 0 0
0 0 0
0 0 0
0 0 0
0 0 0
0 0 0
0 0 0
0 0 0
0 0 0
0 0 0
0 0 0
0 0 0
0 0 0
0 0 0
0 0 0
0 0 0
0 0 0
0 0 0
0 0 0
0 0 0
0 0 0
0 0 0
0 0 0
0 0 0
0 0 0
0 0 0
0 0 0
0 0 0
0 0 0
0 0 0
0 0 0
0 0 0
0 0 0
0 0 0
0 0 0
0 0 0
0 0 0
0 0 0
0 0 0
0 0 0
0 0 0
0 0 0
0 0 0
0 0 0
0 0 0
0 0 0
0 0 0
0 0 0
0 0 0
0 0 0
0 0 0
0 0 0
0 0 0
0 0 0
0 0 0
0 0 0
0 0 0
0 0 0
0 0 0
0 0 0
0 0 0
0 0 0
0 0 0
0 0 0
0 0 0
0 0 0
0 0 0
0 0 0
0 0 0
0 0 0
0 0 0
0 0 0
0 0 0
0 0 0
0 0 0
0 0 0
0 0 0
0 0 0
0 0 0
0 0 0
0 0 0
0 0 0
0 0 0
0 0 0
0 0 0
0 0 0
0 0 0
0 0 0
0 0 0
0 0 0
0 0 0
0 0 0
0 0 0
0 0 0
0 0 0
0 0 0
0 0 0
0 0 0
0 0 0
0 0 0
0 0 0
0 0 0
0 0 0
0 0 0
0 0 0
0 0 0
0 0 0
0 0 0
0 0 0
0 0 0
0 0 0
0 0 0
0 0 0
0 0 0
0 0 0
0 0 0
0 0 0
0 0 0
0 0 0
0 0 0
0 0 0
0 0 0
0 0 0
0 0 0
0 0 0
0 0 0
0 0 0
0 0 0
0 0 0
0 0 0
0 0 0
0 0 0
0 0 0
0 0 0
0 0 0
0 0 0
0 0 0
0 0 0
0 0 0
0 0 0
0 0 0
0 0 0
0 0 0
0 0 0
0 0 0
0 0 0
0 0 0
0 0 0
0 0 0
0 0 0
0 0 0
0 0 0
0 0 0
0 0 0
0 0 0
0 0 0
0 0 0
0 0 0
0 0 0
0 0 0
0 0 0
0 0 0
0 0 0
0 0 0
0 0 0
0 0 0
0 0 0
0 0 0
0 0 0
0 0 0
0 0 0
0 0 0
0 0 0
0 0 0
0 0 0
0 0 0
0 0 0
0 0 0
0 0 0
0 0 0
0 0 0
0 0 0
0 0 0
0 0 0
0 0 0
0 0 0
0 0 0
0 0 0
0 0 0
0 0 0
0 0 0
0 0 0
0 0 0
0 0 0
0 0 0
0 0 0
0 0 0
0 0 0
0 0 0
0 0 0
0 0 0
0 0 0
0 0 0
0 0 0
0 0 0
0 0 0
0 0 0
0 0 0
0 0 0
0 0 0
0 0 0
0 0 0
0 0 0
0 0 0
0 0 0
0 0 0
0 0 0
0 0 0
0 0 0
0 0 0
0 0 0
0 0 0
0 0 0
0 0 0
0 0 0
0 0 0
0 0 0
0 0 0
0 0 0
0 0 0
0 0 0
0 0 0
0 0 0
0 0 0
0 0 0
0 0 0
0 0 0
0 0 0
0 0 0
0 0 0
0 0 0
0 0 0
0 0 0
0 0 0
0 0 0
0 0 0
0 0 0
0 0 0
0 0 0
0 0 0
0 0 0
0 0 0
0 0 0
0 0 0
0 0 0
0 0 0
0 0 0
0 0 0
0 0 0
0 0 0
0 0 0
0 0 0
0 0 0
0 0 0
0 0 0
0 0 0
0 0 0
0 0 0
0 0 0
0 0 0
0 0 0
0 0 0
0 0 0
0 0 0
0 0 0
0 0 0
0 0 0
0 0 0
0 0 0
0 0 0
0 0 0
0 0 0
0 0 0
0 0 0
0 0 0
0 0 0
0 0 0
0 0 0
0 0 0
0 0 0
0 0 0
0 0 0
0 0 0
0 0 0
0 0 0
0 0 0
0 0 0
0 0 0
0 0 0
0 0 0
0 0 0
0 0 0
0 0 0
0 0 0
0 0 0
0 0 0
0 0 0
0 0 0
0 0 0
0 0 0
0 0 0
0 0 0
0 0 0
0 0 0
0 0 0
0 0 0
0 0 0
0 0 0
0 0 0
0 0 0
0 0 0
0 0 0
0 0 0
0 0 0
0 0 0
0 0 0
0 0 0
0 0 0
0 0 0
0 0 0
0 0 0
0 0 0
0 0 0
0 0 0
0 0 0
0 0 0
0 0 0
0 0 0
0 0 0
0 0 0
0 0 0
0 0 0
0 0 0
0 0 0
0 0 0
0 0 0
0 0 0
0 0 0
0 0 0
0 0 0
0 0 0
0 0 0
0 0 0
0 0 0
0 0 0
0 0 0
0 0 0
0 0 0
0 0 0
0 0 0
0 0 0
0 0 0
0 0 0
0 0 0
0 0 0
0 0 0
0 0 0
0 0 0
0 0 0
0 0 0
0 0 0
0 0 0
0 0 0
0 0 0
0 0 0
0 0 0
0 0 0
0 0 0
0 0 0
0 0 0
0 0 0
0 0 0
0 0 0
0 0 0
0 0 0
0 0 0
0 0 0
0 0 0
0 0 0
0 0 0
0 0 0
0 0 0
0 0 0
0 0 0
0 0 0
0 0 0
0 0 0
0 0 0
0 0 0
0 0 0
0 0 0
0 0 0
0 0 0
0 0 0
0 0 0
0 0 0
0 0 0
0 0 0
0 0 0
0 0 0
0 0 0
0 0 0
0 0 0
0 0 0
0 0 0
0 0 0
0 0 0
0 0 0
0 0 0
0 0 0
0 0 0
0 0 0
0 0 0
0 0 0
0 0 0
0 0 0
0 0 0
0 0 0
0 0 0
0 0 0
0 0 0
0 0 0
0 0 0
0 0 0
0 0 0
0 0 0
0 0 0
0 0 0
0 0 0
0 0 0
0 0 0
0 0 0
0 0 0
0 0 0
0 0 0
0 0 0
0 0 0
0 0 0
0 0 0
0 0 0
0 0 0
0 0 0
0 0 0
0 0 0
0 0 0
0 0 0
0 0 0
0 0 0
0 0 0
0 0 0
0 0 0
0 0 0
0 0 0
0 0 0
0 0 0
0 0 0
0 0 0
0 0 0
0 0 0
0 0 0
0 0 0
0 0 0
0 0 0
0 0 0
0 0 0
0 0 0
0 0 0
0 0 0
0 0 0
0 0 0
0 0 0
0 0 0
0 0 0
0 0 0
0 0 0
0 0 0
0 0 0
0 0 0
0 0 0
0 0 0
0 0 0
0 0 0
0 0 0
0 0 0
0 0 0
0 0 0
0 0 0
0 0 0
0 0 0
0 0 0
0 0 0
0 0 0
0 0 0
0 0 0
0 0 0
0 0 0
0 0 0
0 0 0
0 0 0
0 0 0
0 0 0
0 0 0
0 0 0
0 0 0
0 0 0
0 0 0
0 0 0
0 0 0
0 0 0
0 0 0
0 0 0
0 0 0
0 0 0
0 0 0
0 0 0
0 0 0
0 0 0
0 0 0
0 0 0
0 0 0
0 0 0
0 0 0
0 0 0
0 0 0
0 0 0
0 0 0
0 0 0
0 0 0
0 0 0
0 0 0
0 0 0
0 0 0
0 0 0
0 0 0
0 0 0
0 0 0
0 0 0
0 0 0
0 0 0
0 0 0
0 0 0
0 0 0
0 0 0
0 0 0
0 0 0
0 0 0
0 0 0
0 0 0
0 0 0
0 0 0
0 0 0
0 0 0
0 0 0
0 0 0
0 0 0
0 0 0
0 0 0
0 0 0
0 0 0
0 0 0
0 0 0
0 0 0
0 0 0
0 0 0
0 0 0
0 0 0
0 0 0
0 0 0
0 0 0
0 0 0
0 0 0
0 0 0
0 0 0
0 0 0
0 0 0
0 0 0
0 0 0
0 0 0
0 0 0
0 0 0
0 0 0
0 0 0
0 0 0
0 0 0
0 0 0
0 0 0
0 0 0
0 0 0
0 0 0
0 0 0
0 0 0
0 0 0
0 0 0
0 0 0
0 0 0
0 0 0
0 0 0
0 0 0
0 0 0
0 0 0
0 0 0
0 0 0
0 0 0
0 0 0
0 0 0
0 0 0
0 0 0
0 0 0
0 0 0
0 0 0
0 0 0
0 0 0
0 0 0
0 0 0
0 0 0
0 0 0
0 0 0
0 0 0
0 0 0
0 0 0
0 0 0
0 0 0
0 0 0
0 0 0
0 0 0
0 0 0
0 0 0
0 0 0
0 0 0
0 0 0
0 0 0
0 0 0
0 0 0
0 0 0
0 0 0
0 0 0
0 0 0
0 0 0
0 0 0
0 0 0
0 0 0
0 0 0
0 0 0
0 0 0
0 0 0
0 0 0
0 0 0
0 0 0
0 0 0
0 0 0
0 0 0
0 0 0
0 0 0
0 0 0
0 0 0
0 0 0
0 0 0
0 0 0
0 0 0
0 0 0
0 0 0
0 0 0
0 0 0
0 0 0
0 0 0
0 0 0
0 0 0
0 0 0
0 0 0
0 0 0
0 0 0
0 0 0
0 0 0
0 0 0
0 0 0
0 0 0
0 0 0
0 0 0
0 0 0
0 0 0
0 0 0
0 0 0
0 0 0
0 0 0
0 0 0
0 0 0
0 0 0
0 0 0
0 0 0
0 0 0
0 0 0
0 0 0
0 0 0
0 0 0
0 0 0
0 0 0
0 0 0
0 0 0
0 0 0
0 0 0
0 0 0
0 0 0
0 0 0
0 0 0
0 0 0
0 0 0
0 0 0
0 0 0
0 0 0
0 0 0
0 0 0
0 0 0
0 0 0
0 0 0
0 0 0
0 0 0
0 0 0
0 0 0
0 0 0
0 0 0
0 0 0
0 0 0
0 0 0
0 0 0
0 0 0
0 0 0
0 0 0
0 0 0
0 0 0
0 0 0
0 0 0
0 0 0
0 0 0
0 0 0
0 0 0
0 0 0
0 0 0
0 0 0
0 0 0
0 0 0
0 0 0
0 0 0
0 0 0
0 0 0
0 0 0
0 0 0
0 0 0
0 0 0
0 0 0
0 0 0
0 0 0
0 0 0
0 0 0
0 0 0
0 0 0
0 0 0
0 0 0
0 0 0
0 0 0
0 0 0
0 0 0
0 0 0
0 0 0
0 0 0
0 0 0
0 0 0
0 0 0
0 0 0
0 0 0
0 0 0
0 0 0
0 0 0
0 0 0
0 0 0
0 0 0
0 0 0
0 0 0
0 0 0
0 0 0
0 0 0
0 0 0
0 0 0
0 0 0
0 0 0
0 0 0
0 0 0
0 0 0
0 0 0
0 0 0
0 0 0
0 0 0
0 0 0
0 0 0
0 0 0
0 0 0
0 0 0
0 0 0
0 0 0
0 0 0
0 0 0
0 0 0
0 0 0
0 0 0
0 0 0
0 0 0
0 0 0
0 0 0
0 0 0
0 0 0
0 0 0
0 0 0
0 0 0
0 0 0
0 0 0
0 0 0
0 0 0
0 0 0
0 0 0
0 0 0
0 0 0
0 0 0
0 0 0
0 0 0
0 0 0
0 0 0
0 0 0
0 0 0
0 0 0
0 0 0
0 0 0
0 0 0
0 0 0
0 0 0
0 0 0
0 0 0
0 0 0
0 0 0
0 0 0
0 0 0
0 0 0
0 0 0
0 0 0
0 0 0
0 0 0
0 0 0
0 0 0
0 0 0
0 0 0
0 0 0
0 0 0
0 0 0
0 0 0
0 0 0
0 0 0
0 0 0
0 0 0
0 0 0
0 0 0
0 0 0
0 0 0
0 0 0
0 0 0
0 0 0
0 0 0
0 0 0
0 0 0
0 0 0
0 0 0
0 0 0
0 0 0
0 0 0
0 0 0
0 0 0
0 0 0
0 0 0
0 0 0
0 0 0
0 0 0
0 0 0
0 0 0
0 0 0
0 0 0
0 0 0
0 0 0
0 0 0
0 0 0
0 0 0
0 0 0
0 0 0
0 0 0
0 0 0
0 0 0
0 0 0
0 0 0
0 0 0
0 0 0
0 0 0
0 0 0
0 0 0
0 0 0
0 0 0
0 0 0
0 0 0
0 0 0
0 0 0
0 0 0
0 0 0
0 0 0
0 0 0
0 0 0
0 0 0
0 0 0
0 0 0
0 0 0
0 0 0
0 0 0
0 0 0
0 0 0
0 0 0
0 0 0
0 0 0
0 0 0
0 0 0
0 0 0
0 0 0
0 0 0
0 0 0
0 0 0
0 0 0
0 0 0
0 0 0
0 0 0
0 0 0
0 0 0
0 0 0
0 0 0
0 0 0
0 0 0
0 0 0
0 0 0
0 0 0
0 0 0
0 0 0
0 0 0
0 0 0
0 0 0
0 0 0
0 0 0
0 0 0
0 0 0
0 0 0
0 0 0
0 0 0
0 0 0
0 0 0
0 0 0
0 0 0
0 0 0
0 0 0
0 0 0
0 0 0
0 0 0
0 0 0
0 0 0
0 0 0
0 0 0
0 0 0
0 0 0
0 0 0
0 0 0
0 0 0
0 0 0
0 0 0
0 0 0
0 0 0
0 0 0
0 0 0
0 0 0
0 0 0
0 0 0
0 0 0
0 0 0
0 0 0
0 0 0
0 0 0
0 0 0
0 0 0
0 0 0
0 0 0
0 0 0
0 0 0
0 0 0
0 0 0
0 0 0
0 0 0
0 0 0
0 0 0
0 0 0
0 0 0
0 0 0
0 0 0
0 0 0
0 0 0
0 0 0
0 0 0
0 0 0
0 0 0
0 0 0
0 0 0
0 0 0
0 0 0
0 0 0
0 0 0
0 0 0
0 0 0
0 0 0
0 0 0
0 0 0
0 0 0
0 0 0
0 0 0
0 0 0
0 0 0
0 0 0
0 0 0
0 0 0
0 0 0
0 0 0
0 0 0
0 0 0
0 0 0
0 0 0
0 0 0
0 0 0
0 0 0
0 0 0
0 0 0
0 0 0
0 0 0
0 0 0
0 0 0
0 0 0
0 0 0
0 0 0
0 0 0
0 0 0
0 0 0
0 0 0
0 0 0
0 0 0
0 0 0
0 0 0
0 0 0
0 0 0
0 0 0
0 0 0
0 0 0
0 0 0
0 0 0
0 0 0
0 0 0
0 0 0
0 0 0
0 0 0
0 0 0
0 0 0
0 0 0
0 0 0
0 0 0
0 0 0
0 0 0
0 0 0
0 0 0
0 0 0
0 0 0
0 0 0
0 0 0
0 0 0
0 0 0
0 0 0
0 0 0
0 0 0
0 0 0
0 0 0
0 0 0
0 0 0
0 0 0
0 0 0
0 0 0
0 0 0
0 0 0
0 0 0
0 0 0
0 0 0
0 0 0
0 0 0
0 0 0
0 0 0
0 0 0
0 0 0
0 0 0
0 0 0
0 0 0
0 0 0
0 0 0
0 0 0
0 0 0
0 0 0
0 0 0
0 0 0
0 0 0
0 0 0
0 0 0
0 0 0
0 0 0
0 0 0
0 0 0
0 0 0
0 0 0
0 0 0
0 0 0
0 0 0
0 0 0
0 0 0
0 0 0
0 0 0
0 0 0
0 0 0
0 0 0
0 0 0
0 0 0
0 0 0
0 0 0
0 0 0
0 0 0
0 0 0
0 0 0
0 0 0
0 0 0
0 0 0
0 0 0
0 0 0
0 0 0
0 0 0
0 0 0
0 0 0
0 0 0
0 0 0
0 0 0
0 0 0
0 0 0
0 0 0
0 0 0
0 0 0
0 0 0
0 0 0
0 0 0
0 0 0
0 0 0
0 0 0
0 0 0
0 0 0
0 0 0
0 0 0
0 0 0
0 0 0
0 0 0
0 0 0
0 0 0
0 0 0
0 0 0
0 0 0
0 0 0
0 0 0
0 0 0
0 0 0
0 0 0
0 0 0
0 0 0
0 0 0
0 0 0
0 0 0
0 0 0
0 0 0
0 0 0
0 0 0
0 0 0
0 0 0
0 0 0
0 0 0
0 0 0
0 0 0
0 0 0
0 0 0
0 0 0
0 0 0
0 0 0
0 0 0
0 0 0
0 0 0
0 0 0
0 0 0
0 0 0
0 0 0
0 0 0
0 0 0
0 0 0
0 0 0
0 0 0
0 0 0
0 0 0
0 0 0
0 0 0
0 0 0
0 0 0
0 0 0
0 0 0
0 0 0
0 0 0
0 0 0
0 0 0
0 0 0
0 0 0
0 0 0
0 0 0
0 0 0
0 0 0
0 0 0
0 0 0
0 0 0
0 0 0
0 0 0
0 0 0
0 0 0
0 0 0
0 0 0
0 0 0
0 0 0
0 0 0
0 0 0
0 0 0
0 0 0
0 0 0
0 0 0
0 0 0
0 0 0
0 0 0
0 0 0
0 0 0
0 0 0
0 0 0
0 0 0
0 0 0
0 0 0
0 0 0
0 0 0
0 0 0
0 0 0
0 0 0
0 0 0
0 0 0
0 0 0
0 0 0
0 0 0
0 0 0
0 0 0
0 0 0
0 0 0
0 0 0
0 0 0
0 0 0
0 0 0
0 0 0
0 0 0
0 0 0
0 0 0
0 0 0
0 0 0
0 0 0
0 0 0
0 0 0
0 0 0
0 0 0
0 0 0
0 0 0
0 0 0
0 0 0
0 0 0
0 0 0
0 0 0
0 0 0
0 0 0
0 0 0
0 0 0
0 0 0
0 0 0
0 0 0
0 0 0
0 0 0
0 0 0
0 0 0
0 0 0
0 0 0
0 0 0
0 0 0
0 0 0
0 0 0
0 0 0
0 0 0
0 0 0
0 0 0
0 0 0
0 0 0
0 0 0
0 0 0
0 0 0
0 0 0
0 0 0
0 0 0
0 0 0
0 0 0
0 0 0
0 0 0
0 0 0
0 0 0
0 0 0
0 0 0
0 0 0
0 0 0
0 0 0
0 0 0
0 0 0
0 0 0
0 0 0
0 0 0
0 0 0
0 0 0
0 0 0
0 0 0
0 0 0
0 0 0
0 0 0
0 0 0
0 0 0
0 0 0
0 0 0
0 0 0
0 0 0
0 0 0
0 0 0
0 0 0
0 0 0
0 0 0
0 0 0
0 0 0
0 0 0
0 0 0
0 0 0
0 0 0
0 0 0
0 0 0
0 0 0
0 0 0
0 0 0
0 0 0
0 0 0
0 0 0
0 0 0
0 0 0
0 0 0
0 0 0
0 0 0
0 0 0
0 0 0
0 0 0
0 0 0
0 0 0
0 0 0
0 0 0
0 0 0
0 0 0
0 0 0
0 0 0
0 0 0
0 0 0
0 0 0
0 0 0
0 0 0
0 0 0
0 0 0
0 0 0
0 0 0
0 0 0
0 0 0
0 0 0
0 0 0
0 0 0
0 0 0
0 0 0
0 0 0
0 0 0
0 0 0
0 0 0
0 0 0
0 0 0
0 0 0
0 0 0
0 0 0
0 0 0
0 0 0
0 0 0
0 0 0
0 0 0
0 0 0
0 0 0
0 0 0
0 0 0
0 0 0
0 0 0
0 0 0
0 0 0
0 0 0
0 0 0
0 0 0
0 0 0
0 0 0
0 0 0
0 0 0
0 0 0
0 0 0
0 0 0
0 0 0
0 0 0
0 0 0
0 0 0
0 0 0
0 0 0
0 0 0
0 0 0
0 0 0
0 0 0
0 0 0
0 0 0
0 0 0
0 0 0
0 0 0
0 0 0
0 0 0
0 0 0
0 0 0
0 0 0
0 0 0
0 0 0
0 0 0
0 0 0
0 0 0
0 0 0
0 0 0
0 0 0
0 0 0
0 0 0
0 0 0
0 0 0
0 0 0
0 0 0
0 0 0
0 0 0
0 0 0
0 0 0
0 0 0
0 0 0
0 0 0
0 0 0
0 0 0
0 0 0
0 0 0
0 0 0
0 0 0
0 0 0
0 0 0
0 0 0
0 0 0
0 0 0
0 0 0
0 0 0
0 0 0
0 0 0
0 0 0
0 0 0
0 0 0
0 0 0
0 0 0
0 0 0
0 0 0
0 0 0
0 0 0
0 0 0
0 0 0
0 0 0
0 0 0
0 0 0
0 0 0
0 0 0
0 0 0
0 0 0
0 0 0
0 0 0
0 0 0
0 0 0
0 0 0
0 0 0
0 0 0
0 0 0
0 0 0
0 0 0
0 0 0
0 0 0
0 0 0
0 0 0
0 0 0
0 0 0
0 0 0
0 0 0
0 0 0
0 0 0
0 0 0
0 0 0
0 0 0
0 0 0
0 0 0
0 0 0
0 0 0
0 0 0
0 0 0
0 0 0
0 0 0
0 0 0
0 0 0
0 0 0
0 0 0
0 0 0
0 0 0
0 0 0
0 0 0
0 0 0
0 0 0
0 0 0
0 0 0
0 0 0
0 0 0
0 0 0
0 0 0
0 0 0
0 0 0
0 0 0
0 0 0
0 0 0
0 0 0
0 0 0
0 0 0
0 0 0
0 0 0
0 0 0
0 0 0
0 0 0
0 0 0
0 0 0
0 0 0
0 0 0
0 0 0
0 0 0
0 0 0
0 0 0
0 0 0
0 0 0
0 0 0
0 0 0
0 0 0
0 0 0
0 0 0
0 0 0
0 0 0
0 0 0
0 0 0
0 0 0
0 0 0
0 0 0
0 0 0
0 0 0
0 0 0
0 0 0
0 0 0
0 0 0
0 0 0
0 0 0
0 0 0
0 0 0
0 0 0
0 0 0
0 0 0
0 0 0
0 0 0
0 0 0
0 0 0
0 0 0
0 0 0
0 0 0
0 0 0
0 0 0
0 0 0
0 0 0
0 0 0
0 0 0
0 0 0
0 0 0
0 0 0
0 0 0
0 0 0
0 0 0
0 0 0
0 0 0
0 0 0
0 0 0
0 0 0
0 0 0
0 0 0
0 0 0
0 0 0
0 0 0
0 0 0
0 0 0
0 0 0
0 0 0
0 0 0
0 0 0
0 0 0
0 0 0
0 0 0
0 0 0
0 0 0
0 0 0
0 0 0
0 0 0
0 0 0
0 0 0
0 0 0
0 0 0
0 0 0
0 0 0
0 0 0
0 0 0
0 0 0
0 0 0
0 0 0
0 0 0
0 0 0
0 0 0
0 0 0
0 0 0
0 0 0
0 0 0
0 0 0
0 0 0
0 0 0
0 0 0
0 0 0
0 0 0
0 0 0
0 0 0
0 0 0
0 0 0
0 0 0
0 0 0
0 0 0
0 0 0
0 0 0
0 0 0
0 0 0
0 0 0
0 0 0
0 0 0
0 0 0
0 0 0
0 0 0
0 0 0
0 0 0
0 0 0
0 0 0
0 0 0
0 0 0
0 0 0
0 0 0
0 0 0
0 0 0
0 0 0
0 0 0
0 0 0
0 0 0
0 0 0
0 0 0
0 0 0
0 0 0
0 0 0
0 0 0
0 0 0
0 0 0
0 0 0
0 0 0
0 0 0
0 0 0
0 0 0
0 0 0
0 0 0
0 0 0
0 0 0
0 0 0
0 0 0
0 0 0
0 0 0
0 0 0
0 0 0
0 0 0
0 0 0
0 0 0
0 0 0
0 0 0
0 0 0
0 0 0
0 0 0
0 0 0
0 0 0
0 0 0
0 0 0
0 0 0
0 0 0
0 0 0
0 0 0
0 0 0
0 0 0
0 0 0
0 0 0
0 0 0
0 0 0
0 0 0
0 0 0
0 0 0
0 0 0
0 0 0
0 0 0
0 0 0
0 0 0
0 0 0
0 0 0
0 0 0
0 0 0
0 0 0
0 0 0
0 0 0
0 0 0
0 0 0
0 0 0
0 0 0
0 0 0
0 0 0
0 0 0
0 0 0
0 0 0
0 0 0
0 0 0
0 0 0
0 0 0
0 0 0
0 0 0
0 0 0
0 0 0
0 0 0
0 0 0
0 0 0
0 0 0
0 0 0
0 0 0
0 0 0
0 0 0
0 0 0
0 0 0
0 0 0
0 0 0
0 0 0
0 0 0
0 0 0
0 0 0
0 0 0
0 0 0
0 0 0
0 0 0
0 0 0
0 0 0
0 0 0
0 0 0
0 0 0
0 0 0
0 0 0
0 0 0
0 0 0
0 0 0
0 0 0
0 0 0
0 0 0
0 0 0
0 0 0
0 0 0
0 0 0
0 0 0
0 0 0
0 0 0
0 0 0
0 0 0
0 0 0
0 0 0
0 0 0
0 0 0
0 0 0
0 0 0
0 0 0
0 0 0
0 0 0
0 0 0
0 0 0
0 0 0
0 0 0
0 0 0
0 0 0
0 0 0
0 0 0
0 0 0
0 0 0
0 0 0
0 0 0
0 0 0
0 0 0
0 0 0
0 0 0
0 0 0
0 0 0
0 0 0
0 0 0
0 0 0
0 0 0
0 0 0
0 0 0
0 0 0
0 0 0
0 0 0
0 0 0
0 0 0
0 0 0
0 0 0
0 0 0
0 0 0
0 0 0
0 0 0
0 0 0
0 0 0
0 0 0
0 0 0
0 0 0
0 0 0
0 0 0
0 0 0
0 0 0
0 0 0
0 0 0
0 0 0
0 0 0
0 0 0
0 0 0
0 0 0
0 0 0
0 0 0
0 0 0
0 0 0
0 0 0
0 0 0
0 0 0
0 0 0
0 0 0
0 0 0
0 0 0
0 0 0
0 0 0
0 0 0
0 0 0
0 0 0
0 0 0
0 0 0
0 0 0
0 0 0
0 0 0
0 0 0
0 0 0
0 0 0
0 0 0
0 0 0
0 0 0
0 0 0
0 0 0
0 0 0
0 0 0
0 0 0
0 0 0
0 0 0
0 0 0
0 0 0
0 0 0
0 0 0
0 0 0
0 0 0
0 0 0
0 0 0
0 0 0
0 0 0
0 0 0
0 0 0
0 0 0
0 0 0
0 0 0
0 0 0
0 0 0
0 0 0
0 0 0
0 0 0
0 0 0
0 0 0
0 0 0
0 0 0
0 0 0
0 0 0
0 0 0
0 0 0
0 0 0
0 0 0
0 0 0
0 0 0
0 0 0
0 0 0
0 0 0
0 0 0
0 0 0
0 0 0
0 0 0
0 0 0
0 0 0
0 0 0
0 0 0
0 0 0
0 0 0
0 0 0
0 0 0
0 0 0
0 0 0
0 0 0
0 0 0
0 0 0
0 0 0
0 0 0
0 0 0
0 0 0
0 0 0
0 0 0
0 0 0
0 0 0
0 0 0
0 0 0
0 0 0
0 0 0
0 0 0
0 0 0
0 0 0
0 0 0
0 0 0
0 0 0
0 0 0
0 0 0
0 0 0
0 0 0
0 0 0
0 0 0
0 0 0
0 0 0
0 0 0
0 0 0
0 0 0
0 0 0
0 0 0
0 0 0
0 0 0
0 0 0
0 0 0
0 0 0
0 0 0
0 0 0
0 0 0
0 0 0
0 0 0
0 0 0
0 0 0
0 0 0
0 0 0
0 0 0
0 0 0
0 0 0
0 0 0
0 0 0
0 0 0
0 0 0
0 0 0
0 0 0
0 0 0
0 0 0
0 0 0
0 0 0
0 0 0
0 0 0
0 0 0
0 0 0
0 0 0
0 0 0
0 0 0
0 0 0
0 0 0
0 0 0
0 0 0
0 0 0
0 0 0
0 0 0
0 0 0
0 0 0
0 0 0
0 0 0
0 0 0
0 0 0
0 0 0
0 0 0
0 0 0
0 0 0
0 0 0
0 0 0
0 0 0
0 0 0
0 0 0
0 0 0
0 0 0
0 0 0
0 0 0
0 0 0
0 0 0
0 0 0
0 0 0
0 0 0
0 0 0
0 0 0
0 0 0
0 0 0
0 0 0
0 0 0
0 0 0
0 0 0
0 0 0
0 0 0
0 0 0
0 0 0
0 0 0
0 0 0
0 0 0
0 0 0
0 0 0
0 0 0
0 0 0
0 0 0
0 0 0
0 0 0
0 0 0
0 0 0
0 0 0
0 0 0
0 0 0
0 0 0
0 0 0
0 0 0
0 0 0
0 0 0
0 0 0
0 0 0
0 0 0
0 0 0
0 0 0
0 0 0
0 0 0
0 0 0
0 0 0
0 0 0
0 0 0
0 0 0
0 0 0
0 0 0
0 0 0
0 0 0
0 0 0
0 0 0
0 0 0
0 0 0
0 0 0
0 0 0
0 0 0
0 0 0
0 0 0
0 0 0
0 0 0
0 0 0
0 0 0
0 0 0
0 0 0
0 0 0
0 0 0
0 0 0
0 0 0
0 0 0
0 0 0
0 0 0
0 0 0
0 0 0
0 0 0
0 0 0
0 0 0
0 0 0
0 0 0
0 0 0
0 0 0
0 0 0
0 0 0
0 0 0
0 0 0
0 0 0
0 0 0
0 0 0
0 0 0
0 0 0
0 0 0
0 0 0
0 0 0
0 0 0
0 0 0
0 0 0
0 0 0
0 0 0
0 0 0
0 0 0
0 0 0
0 0 0
0 0 0
0 0 0
0 0 0
0 0 0
0 0 0
0 0 0
0 0 0
0 0 0
0 0 0
0 0 0
0 0 0
0 0 0
0 0 0
0 0 0
0 0 0
0 0 0
0 0 0
0 0 0
0 0 0
0 0 0
0 0 0
0 0 0
0 0 0
0 0 0
0 0 0
0 0 0
0 0 0
0 0 0
0 0 0
0 0 0
0 0 0
0 0 0
0 0 0
0 0 0
0 0 0
0 0 0
0 0 0
0 0 0
0 0 0
0 0 0
0 0 0
0 0 0
0 0 0
0 0 0
0 0 0
0 0 0
0 0 0
0 0 0
0 0 0
0 0 0
0 0 0
0 0 0
0 0 0
0 0 0
0 0 0
0 0 0
0 0 0
0 0 0
0 0 0
0 0 0
0 0 0
0 0 0
0 0 0
0 0 0
0 0 0
0 0 0
0 0 0
0 0 0
0 0 0
0 0 0
0 0 0
0 0 0
0 0 0
0 0 0
0 0 0
0 0 0
0 0 0
0 0 0
0 0 0
0 0 0
0 0 0
0 0 0
0 0 0
0 0 0
0 0 0
0 0 0
0 0 0
0 0 0
0 0 0
0 0 0
0 0 0
0 0 0
0 0 0
0 0 0
0 0 0
0 0 0
0 0 0
0 0 0
0 0 0
0 0 0
0 0 0
0 0 0
0 0 0
0 0 0
0 0 0
0 0 0
0 0 0
0 0 0
0 0 0
0 0 0
0 0 0
0 0 0
0 0 0
0 0 0
0 0 0
0 0 0
0 0 0
0 0 0
0 0 0
0 0 0
0 0 0
0 0 0
0 0 0
0 0 0
0 0 0
0 0 0
0 0 0
0 0 0
0 0 0
0 0 0
0 0 0
0 0 0
0 0 0
0 0 0
0 0 0
0 0 0
0 0 0
0 0 0
0 0 0
0 0 0
0 0 0
0 0 0
0 0 0
0 0 0
0 0 0
0 0 0
0 0 0
0 0 0
0 0 0
0 0 0
0 0 0
0 0 0
0 0 0
0 0 0
0 0 0
0 0 0
0 0 0
0 0 0
0 0 0
0 0 0
0 0 0
0 0 0
0 0 0
0 0 0
0 0 0
0 0 0
0 0 0
0 0 0
0 0 0
0 0 0
0 0 0
0 0 0
0 0 0
0 0 0
0 0 0
0 0 0
0 0 0
0 0 0
0 0 0
0 0 0
0 0 0
0 0 0
0 0 0
0 0 0
0 0 0
0 0 0
0 0 0
0 0 0
0 0 0
0 0 0
0 0 0
0 0 0
0 0 0
0 0 0
0 0 0
0 0 0
0 0 0
0 0 0
0 0 0
0 0 0
0 0 0
0 0 0
0 0 0
0 0 0
0 0 0
0 0 0
0 0 0
0 0 0
0 0 0
0 0 0
0 0 0
0 0 0
0 0 0
0 0 0
0 0 0
0 0 0
0 0 0
0 0 0
0 0 0
0 0 0
0 0 0
0 0 0
0 0 0
0 0 0
0 0 0
0 0 0
0 0 0
0 0 0
0 0 0
0 0 0
0 0 0
0 0 0
0 0 0
0 0 0
0 0 0
0 0 0
0 0 0
0 0 0
0 0 0
0 0 0
0 0 0
0 0 0
0 0 0
0 0 0
0 0 0
0 0 0
0 0 0
0 0 0
0 0 0
0 0 0
0 0 0
0 0 0
0 0 0
0 0 0
0 0 0
0 0 0
0 0 0
0 0 0
0 0 0
0 0 0
0 0 0
0 0 0
0 0 0
0 0 0
0 0 0
0 0 0
0 0 0
0 0 0
0 0 0
0 0 0
0 0 0
0 0 0
0 0 0
0 0 0
0 0 0
0 0 0
0 0 0
0 0 0
0 0 0
0 0 0
0 0 0
0 0 0
0 0 0
0 0 0
0 0 0
0 0 0
0 0 0
0 0 0
0 0 0
0 0 0
0 0 0
0 0 0
0 0 0
0 0 0
0 0 0
0 0 0
0 0 0
0 0 0
0 0 0
0 0 0
0 0 0
0 0 0
0 0 0
0 0 0
0 0 0
0 0 0
0 0 0
0 0 0
0 0 0
0 0 0
0 0 0
0 0 0
0 0 0
0 0 0
0 0 0
0 0 0
0 0 0
0 0 0
0 0 0
0 0 0
0 0 0
0 0 0
0 0 0
0 0 0
0 0 0
0 0 0
0 0 0
0 0 0
0 0 0
0 0 0
0 0 0
0 0 0
0 0 0
0 0 0
0 0 0
0 0 0
0 0 0
0 0 0
0 0 0
0 0 0
0 0 0
0 0 0
0 0 0
0 0 0
0 0 0
0 0 0
0 0 0
0 0 0
0 0 0
0 0 0
0 0 0
0 0 0
0 0 0
0 0 0
0 0 0
0 0 0
0 0 0
0 0 0
0 0 0
0 0 0
0 0 0
0 0 0
0 0 0
0 0 0
0 0 0
0 0 0
0 0 0
0 0 0
0 0 0
0 0 0
0 0 0
0 0 0
0 0 0
0 0 0
0 0 0
0 0 0
0 0 0
0 0 0
0 0 0
0 0 0
0 0 0
0 0 0
0 0 0
0 0 0
0 0 0
0 0 0
0 0 0
0 0 0
0 0 0
0 0 0
0 0 0
0 0 0
0 0 0
0 0 0
0 0 0
0 0 0
0 0 0
0 0 0
0 0 0
0 0 0
0 0 0
0 0 0
0 0 0
0 0 0
0 0 0
0 0 0
0 0 0
0 0 0
0 0 0
0 0 0
0 0 0
0 0 0
0 0 0
0 0 0
0 0 0
0 0 0
0 0 0
0 0 0
0 0 0
0 0 0
0 0 0
0 0 0
0 0 0
0 0 0
0 0 0
0 0 0
0 0 0
0 0 0
0 0 0
0 0 0
0 0 0
0 0 0
0 0 0
0 0 0
0 0 0
0 0 0
0 0 0
0 0 0
0 0 0
0 0 0
0 0 0
0 0 0
0 0 0
0 0 0
0 0 0
0 0 0
0 0 0
0 0 0
0 0 0
0 0 0
0 0 0
0 0 0
0 0 0
0 0 0
0 0 0
0 0 0
0 0 0
0 0 0
0 0 0
0 0 0
0 0 0
0 0 0
0 0 0
0 0 0
0 0 0
0 0 0
0 0 0
0 0 0
0 0 0
0 0 0
0 0 0
0 0 0
0 0 0
0 0 0
0 0 0
0 0 0
0 0 0
0 0 0
0 0 0
0 0 0
0 0 0
0 0 0
0 0 0
0 0 0
0 0 0
0 0 0
0 0 0
0 0 0
0 0 0
0 0 0
0 0 0
0 0 0
0 0 0
0 0 0
0 0 0
0 0 0
0 0 0
0 0 0
0 0 0
0 0 0
0 0 0
0 0 0
0 0 0
0 0 0
0 0 0
0 0 0
0 0 0
0 0 0
0 0 0
0 0 0
0 0 0
0 0 0
0 0 0
0 0 0
0 0 0
0 0 0
0 0 0
0 0 0
0 0 0
0 0 0
0 0 0
0 0 0
0 0 0
0 0 0
0 0 0
0 0 0
0 0 0
0 0 0
0 0 0
0 0 0
0 0 0
0 0 0
0 0 0
0 0 0
0 0 0
0 0 0
0 0 0
0 0 0
0 0 0
0 0 0
0 0 0
0 0 0
0 0 0
0 0 0
0 0 0
0 0 0
0 0 0
0 0 0
0 0 0
0 0 0
0 0 0
0 0 0
0 0 0
0 0 0
0 0 0
0 0 0
0 0 0
0 0 0
0 0 0
0 0 0
0 0 0
0 0 0
0 0 0
0 0 0
0 0 0
0 0 0
0 0 0
0 0 0
0 0 0
0 0 0
0 0 0
0 0 0
0 0 0
0 0 0
0 0 0
0 0 0
0 0 0
0 0 0
0 0 0
0 0 0
0 0 0
0 0 0
0 0 0
0 0 0
0 0 0
0 0 0
0 0 0
0 0 0
0 0 0
0 0 0
0 0 0
0 0 0
0 0 0
0 0 0
0 0 0
0 0 0
0 0 0
0 0 0
0 0 0
0 0 0
0 0 0
0 0 0
0 0 0
0 0 0
0 0 0
0 0 0
0 0 0
0 0 0
0 0 0
0 0 0
0 0 0
0 0 0
0 0 0
0 0 0
0 0 0
0 0 0
0 0 0
0 0 0
0 0 0
0 0 0
0 0 0
0 0 0
0 0 0
0 0 0
0 0 0
0 0 0
0 0 0
0 0 0
0 0 0
0 0 0
0 0 0
0 0 0
0 0 0
0 0 0
0 0 0
0 0 0
0 0 0
0 0 0
0 0 0
0 0 0
0 0 0
0 0 0
0 0 0
0 0 0
0 0 0
0 0 0
0 0 0
0 0 0
0 0 0
0 0 0
0 0 0
0 0 0
0 0 0
0 0 0
0 0 0
0 0 0
0 0 0
0 0 0
0 0 0
0 0 0
0 0 0
0 0 0
0 0 0
0 0 0
0 0 0
0 0 0
0 0 0
0 0 0
0 0 0
0 0 0
0 0 0
0 0 0
0 0 0
0 0 0
0 0 0
0 0 0
0 0 0
0 0 0
0 0 0
0 0 0
0 0 0
0 0 0
0 0 0
0 0 0
0 0 0
0 0 0
0 0 0
0 0 0
0 0 0
0 0 0
0 0 0
0 0 0
0 0 0
0 0 0
0 0 0
0 0 0
0 0 0
0 0 0
0 0 0
0 0 0
0 0 0
0 0 0
0 0 0
0 0 0
0 0 0
0 0 0
0 0 0
0 0 0
0 0 0
0 0 0
0 0 0
0 0 0
0 0 0
0 0 0
0 0 0
0 0 0
0 0 0
0 0 0
0 0 0
0 0 0
0 0 0
0 0 0
0 0 0
0 0 0
0 0 0
0 0 0
0 0 0
0 0 0
0 0 0
0 0 0
0 0 0
0 0 0
0 0 0
0 0 0
0 0 0
0 0 0
0 0 0
0 0 0
0 0 0
0 0 0
0 0 0
0 0 0
0 0 0
0 0 0
0 0 0
0 0 0
0 0 0
0 0 0
0 0 0
0 0 0
0 0 0
0 0 0
0 0 0
0 0 0
0 0 0
0 0 0
0 0 0
0 0 0
0 0 0
0 0 0
0 0 0
0 0 0
0 0 0
0 0 0
0 0 0
0 0 0
0 0 0
0 0 0
0 0 0
0 0 0
0 0 0
0 0 0
0 0 0
0 0 0
0 0 0
0 0 0
0 0 0
0 0 0
0 0 0
0 0 0
0 0 0
0 0 0
0 0 0
0 0 0
0 0 0
0 0 0
0 0 0
0 0 0
0 0 0
0 0 0
0 0 0
0 0 0
0 0 0
0 0 0
0 0 0
0 0 0
0 0 0
0 0 0
0 0 0
0 0 0
0 0 0
0 0 0
0 0 0
0 0 0
0 0 0
0 0 0
0 0 0
0 0 0
0 0 0
0 0 0
0 0 0
0 0 0
0 0 0
0 0 0
0 0 0
0 0 0
0 0 0
0 0 0
0 0 0
0 0 0
0 0 0
0 0 0
0 0 0
0 0 0
0 0 0
0 0 0
0 0 0
0 0 0
0 0 0
0 0 0
0 0 0
0 0 0
0 0 0
0 0 0
0 0 0
0 0 0
0 0 0
0 0 0
0 0 0
0 0 0
0 0 0
0 0 0
0 0 0
0 0 0
0 0 0
0 0 0
0 0 0
0 0 0
0 0 0
0 0 0
0 0 0
0 0 0
0 0 0
0 0 0
0 0 0
0 0 0
0 0 0
0 0 0
0 0 0
0 0 0
0 0 0
0 0 0
0 0 0
0 0 0
0 0 0
0 0 0
0 0 0
0 0 0
0 0 0
0 0 0
0 0 0
0 0 0
0 0 0
0 0 0
0 0 0
0 0 0
0 0 0
0 0 0
0 0 0
0 0 0
0 0 0
0 0 0
0 0 0
0 0 0
0 0 0
0 0 0
0 0 0
0 0 0
0 0 0
0 0 0
0 0 0
0 0 0
0 0 0
0 0 0
0 0 0
0 0 0
0 0 0
0 0 0
0 0 0
0 0 0
0 0 0
0 0 0
0 0 0
0 0 0
0 0 0
0 0 0
0 0 0
0 0 0
0 0 0
0 0 0
0 0 0
0 0 0
0 0 0
0 0 0
0 0 0
0 0 0
0 0 0
0 0 0
0 0 0
0 0 0
0 0 0
0 0 0
0 0 0
0 0 0
0 0 0
0 0 0
0 0 0
0 0 0
0 0 0
0 0 0
0 0 0
0 0 0
0 0 0
0 0 0
0 0 0
0 0 0
0 0 0
0 0 0
0 0 0
0 0 0
0 0 0
0 0 0
0 0 0
0 0 0
0 0 0
0 0 0
0 0 0
0 0 0
0 0 0
0 0 0
0 0 0
0 0 0
0 0 0
0 0 0
0 0 0
0 0 0
0 0 0
0 0 0
0 0 0
0 0 0
0 0 0
0 0 0
0 0 0
0 0 0
0 0 0
0 0 0
0 0 0
0 0 0
0 0 0
0 0 0
0 0 0
0 0 0
0 0 0
0 0 0
0 0 0
0 0 0
0 0 0
0 0 0
0 0 0
0 0 0
0 0 0
0 0 0
0 0 0
0 0 0
0 0 0
0 0 0
0 0 0
0 0 0
0 0 0
0 0 0
0 0 0
0 0 0
0 0 0
0 0 0
0 0 0
0 0 0
0 0 0
0 0 0
0 0 0
0 0 0
0 0 0
0 0 0
0 0 0
0 0 0
0 0 0
0 0 0
0 0 0
0 0 0
0 0 0
0 0 0
0 0 0
0 0 0
0 0 0
0 0 0
0 0 0
0 0 0
0 0 0
0 0 0
0 0 0
0 0 0
0 0 0
0 0 0
0 0 0
0 0 0
0 0 0
0 0 0
0 0 0
0 0 0
0 0 0
0 0 0
0 0 0
0 0 0
0 0 0
0 0 0
0 0 0
0 0 0
0 0 0
0 0 0
0 0 0
0 0 0
0 0 0
0 0 0
0 0 0
0 0 0
0 0 0
0 0 0
0 0 0
0 0 0
0 0 0
0 0 0
0 0 0
0 0 0
0 0 0
0 0 0
0 0 0
0 0 0
0 0 0
0 0 0
0 0 0
0 0 0
0 0 0
0 0 0
0 0 0
0 0 0
0 0 0
0 0 0
0 0 0
0 0 0
0 0 0
0 0 0
0 0 0
0 0 0
0 0 0
0 0 0
0 0 0
0 0 0
0 0 0
0 0 0
0 0 0
0 0 0
0 0 0
0 0 0
0 0 0
0 0 0
0 0 0
0 0 0
0 0 0
0 0 0
0 0 0
0 0 0
0 0 0
0 0 0
0 0 0
0 0 0
0 0 0
0 0 0
0 0 0
0 0 0
0 0 0
0 0 0
0 0 0
0 0 0
0 0 0
0 0 0
0 0 0
0 0 0
0 0 0
0 0 0
0 0 0
0 0 0
0 0 0
0 0 0
0 0 0
0 0 0
0 0 0
0 0 0
0 0 0
0 0 0
0 0 0
0 0 0
0 0 0
0 0 0
0 0 0
0 0 0
0 0 0
0 0 0
0 0 0
0 0 0
0 0 0
0 0 0
0 0 0
0 0 0
0 0 0
0 0 0
0 0 0
0 0 0
0 0 0
0 0 0
0 0 0
0 0 0
0 0 0
0 0 0
0 0 0
0 0 0
0 0 0
0 0 0
0 0 0
0 0 0
0 0 0
0 0 0
0 0 0
0 0 0
0 0 0
0 0 0
0 0 0
0 0 0
0 0 0
0 0 0
0 0 0
0 0 0
0 0 0
0 0 0
0 0 0
0 0 0
0 0 0
0 0 0
0 0 0
0 0 0
0 0 0
0 0 0
0 0 0
0 0 0
0 0 0
0 0 0
0 0 0
0 0 0
0 0 0
0 0 0
0 0 0
0 0 0
0 0 0
0 0 0
0 0 0
0 0 0
0 0 0
0 0 0
0 0 0
0 0 0
0 0 0
0 0 0
0 0 0
0 0 0
0 0 0
0 0 0
0 0 0
0 0 0
0 0 0
0 0 0
0 0 0
0 0 0
0 0 0
0 0 0
0 0 0
0 0 0
0 0 0
0 0 0
0 0 0
0 0 0
0 0 0
0 0 0
0 0 0
0 0 0
0 0 0
0 0 0
0 0 0
0 0 0
0 0 0
0 0 0
0 0 0
0 0 0
0 0 0
0 0 0
0 0 0
0 0 0
0 0 0
0 0 0
0 0 0
0 0 0
0 0 0
0 0 0
0 0 0
0 0 0
0 0 0
0 0 0
0 0 0
0 0 0
0 0 0
0 0 0
0 0 0
0 0 0
0 0 0
0 0 0
0 0 0
0 0 0
0 0 0
0 0 0
0 0 0
0 0 0
0 0 0
0 0 0
0 0 0
0 0 0
0 0 0
0 0 0
0 0 0
0 0 0
0 0 0
0 0 0
0 0 0
0 0 0
0 0 0
0 0 0
0 0 0
0 0 0
0 0 0
0 0 0
0 0 0
0 0 0
0 0 0
0 0 0
0 0 0
0 0 0
0 0 0
0 0 0
0 0 0
0 0 0
0 0 0
0 0 0
0 0 0
0 0 0
0 0 0
0 0 0
0 0 0
0 0 0
0 0 0
0 0 0
0 0 0
0 0 0
0 0 0
0 0 0
0 0 0
0 0 0
0 0 0
0 0 0
0 0 0
0 0 0
0 0 0
0 0 0
0 0 0
0 0 0
0 0 0
0 0 0
0 0 0
0 0 0
0 0 0
0 0 0
0 0 0
0 0 0
0 0 0
0 0 0
0 0 0
0 0 0
0 0 0
0 0 0
0 0 0
0 0 0
0 0 0
0 0 0
0 0 0
0 0 0
0 0 0
0 0 0
0 0 0
0 0 0
0 0 0
0 0 0
0 0 0
0 0 0
0 0 0
0 0 0
0 0 0
0 0 0
0 0 0
0 0 0
0 0 0
0 0 0
0 0 0
0 0 0
0 0 0
0 0 0
0 0 0
0 0 0
0 0 0
0 0 0
0 0 0
0 0 0
0 0 0
0 0 0
0 0 0
0 0 0
0 0 0
0 0 0
0 0 0
0 0 0
0 0 0
0 0 0
0 0 0
0 0 0
0 0 0
0 0 0
0 0 0
0 0 0
0 0 0
0 0 0
0 0 0
0 0 0
0 0 0
0 0 0
0 0 0
0 0 0
0 0 0
0 0 0
0 0 0
0 0 0
0 0 0
0 0 0
0 0 0
0 0 0
0 0 0
0 0 0
0 0 0
0 0 0
0 0 0
0 0 0
0 0 0
0 0 0
0 0 0
0 0 0
0 0 0
0 0 0
0 0 0
0 0 0
0 0 0
0 0 0
0 0 0
0 0 0
0 0 0
0 0 0
0 0 0
0 0 0
0 0 0
0 0 0
0 0 0
0 0 0
0 0 0
0 0 0
0 0 0
0 0 0
0 0 0
0 0 0
0 0 0
0 0 0
0 0 0
0 0 0
0 0 0
0 0 0
0 0 0
0 0 0
0 0 0
0 0 0
0 0 0
0 0 0
0 0 0
0 0 0
0 0 0
0 0 0
0 0 0
0 0 0
0 0 0
0 0 0
0 0 0
0 0 0
0 0 0
0 0 0
0 0 0
0 0 0
0 0 0
0 0 0
0 0 0
0 0 0
0 0 0
0 0 0
0 0 0
0 0 0
0 0 0
0 0 0
0 0 0
0 0 0
0 0 0
0 0 0
0 0 0
0 0 0
0 0 0
0 0 0
0 0 0
0 0 0
0 0 0
0 0 0
0 0 0
0 0 0
0 0 0
0 0 0
0 0 0
0 0 0
0 0 0
0 0 0
0 0 0
0 0 0
0 0 0
0 0 0
0 0 0
0 0 0
0 0 0
0 0 0
0 0 0
0 0 0
0 0 0
0 0 0
0 0 0
0 0 0
0 0 0
0 0 0
0 0 0
0 0 0
0 0 0
0 0 0
0 0 0
0 0 0
0 0 0
0 0 0
0 0 0
0 0 0
0 0 0
0 0 0
0 0 0
0 0 0
0 0 0
0 0 0
0 0 0
0 0 0
0 0 0
0 0 0
0 0 0
0 0 0
0 0 0
0 0 0
0 0 0
0 0 0
0 0 0
0 0 0
0 0 0
0 0 0
0 0 0
0 0 0
0 0 0
0 0 0
0 0 0
0 0 0
0 0 0
0 0 0
0 0 0
0 0 0
0 0 0
0 0 0
0 0 0
0 0 0
0 0 0
0 0 0
0 0 0
0 0 0
0 0 0
0 0 0
0 0 0
0 0 0
0 0 0
0 0 0
0 0 0
0 0 0
0 0 0
0 0 0
0 0 0
0 0 0
0 0 0
0 0 0
0 0 0
0 0 0
0 0 0
0 0 0
0 0 0
0 0 0
0 0 0
0 0 0
0 0 0
0 0 0
0 0 0
0 0 0
0 0 0
0 0 0
0 0 0
0 0 0
0 0 0
0 0 0
0 0 0
0 0 0
0 0 0
0 0 0
0 0 0
0 0 0
0 0 0
0 0 0
0 0 0
0 0 0
0 0 0
0 0 0
0 0 0
0 0 0
0 0 0
0 0 0
0 0 0
0 0 0
0 0 0
0 0 0
0 0 0
0 0 0
0 0 0
0 0 0
0 0 0
0 0 0
0 0 0
0 0 0
0 0 0
0 0 0
0 0 0
0 0 0
0 0 0
0 0 0
0 0 0
0 0 0
0 0 0
0 0 0
0 0 0
0 0 0
0 0 0
0 0 0
0 0 0
0 0 0
0 0 0
0 0 0
0 0 0
0 0 0
0 0 0
0 0 0
0 0 0
0 0 0
0 0 0
0 0 0
0 0 0
0 0 0
0 0 0
0 0 0
0 0 0
0 0 0
0 0 0
0 0 0
0 0 0
0 0 0
0 0 0
0 0 0
0 0 0
0 0 0
0 0 0
0 0 0
0 0 0
0 0 0
0 0 0
0 0 0
0 0 0
0 0 0
0 0 0
0 0 0
0 0 0
0 0 0
0 0 0
0 0 0
0 0 0
0 0 0
0 0 0
0 0 0
0 0 0
0 0 0
0 0 0
0 0 0
0 0 0
0 0 0
0 0 0
0 0 0
0 0 0
0 0 0
0 0 0
0 0 0
0 0 0
0 0 0
0 0 0
0 0 0
0 0 0
0 0 0
0 0 0
0 0 0
0 0 0
0 0 0
0 0 0
0 0 0
0 0 0
0 0 0
0 0 0
0 0 0
0 0 0
0 0 0
0 0 0
0 0 0
0 0 0
0 0 0
0 0 0
0 0 0
0 0 0
0 0 0
0 0 0
0 0 0
0 0 0
0 0 0
0 0 0
0 0 0
0 0 0
0 0 0
0 0 0
0 0 0
0 0 0
0 0 0
0 0 0
0 0 0
0 0 0
0 0 0
0 0 0
0 0 0
0 0 0
0 0 0
0 0 0
0 0 0
0 0 0
0 0 0
0 0 0
0 0 0
0 0 0
0 0 0
0 0 0
0 0 0
0 0 0
0 0 0
0 0 0
0 0 0
0 0 0
0 0 0
0 0 0
0 0 0
0 0 0
0 0 0
0 0 0
0 0 0
0 0 0
0 0 0
0 0 0
0 0 0
0 0 0
0 0 0
0 0 0
0 0 0
0 0 0
0 0 0
0 0 0
0 0 0
0 0 0
0 0 0
0 0 0
0 0 0
0 0 0
0 0 0
0 0 0
0 0 0
0 0 0
0 0 0
0 0 0
0 0 0
0 0 0
0 0 0
0 0 0
0 0 0
0 0 0
0 0 0
0 0 0
0 0 0
0 0 0
0 0 0
0 0 0
0 0 0
0 0 0
0 0 0
0 0 0
0 0 0
0 0 0
0 0 0
0 0 0
0 0 0
0 0 0
0 0 0
0 0 0
0 0 0
0 0 0
0 0 0
0 0 0
0 0 0
0 0 0
0 0 0
0 0 0
0 0 0
0 0 0
0 0 0
0 0 0
0 0 0
0 0 0
0 0 0
0 0 0
0 0 0
0 0 0
0 0 0
0 0 0
0 0 0
0 0 0
0 0 0
0 0 0
0 0 0
0 0 0
0 0 0
0 0 0
0 0 0
0 0 0
0 0 0
0 0 0
0 0 0
0 0 0
0 0 0
0 0 0
0 0 0
0 0 0
0 0 0
0 0 0
0 0 0
0 0 0
0 0 0
0 0 0
0 0 0
0 0 0
0 0 0
0 0 0
0 0 0
0 0 0
0 0 0
0 0 0
0 0 0
0 0 0
0 0 0
0 0 0
0 0 0
0 0 0
0 0 0
0 0 0
0 0 0
0 0 0
0 0 0
0 0 0
0 0 0
0 0 0
0 0 0
0 0 0
0 0 0
0 0 0
0 0 0
0 0 0
0 0 0
0 0 0
0 0 0
0 0 0
0 0 0
0 0 0
0 0 0
0 0 0
0 0 0
0 0 0
0 0 0
0 0 0
0 0 0
0 0 0
0 0 0
0 0 0
0 0 0
0 0 0
0 0 0
0 0 0
0 0 0
0 0 0
0 0 0
0 0 0
0 0 0
0 0 0
0 0 0
0 0 0
0 0 0
0 0 0
0 0 0
0 0 0
0 0 0
0 0 0
0 0 0
0 0 0
0 0 0
0 0 0
0 0 0
0 0 0
0 0 0
0 0 0
0 0 0
0 0 0
0 0 0
0 0 0
0 0 0
0 0 0
0 0 0
0 0 0
0 0 0
0 0 0
0 0 0
0 0 0
0 0 0
0 0 0
0 0 0
0 0 0
0 0 0
0 0 0
0 0 0
0 0 0
0 0 0
0 0 0
0 0 0
0 0 0
0 0 0
0 0 0
0 0 0
0 0 0
0 0 0
0 0 0
0 0 0
0 0 0
0 0 0
0 0 0
0 0 0
0 0 0
0 0 0
0 0 0
0 0 0
0 0 0
0 0 0
0 0 0
0 0 0
0 0 0
0 0 0
0 0 0
0 0 0
0 0 0
0 0 0
0 0 0
0 0 0
0 0 0
0 0 0
0 0 0
0 0 0
0 0 0
0 0 0
0 0 0
0 0 0
0 0 0
0 0 0
0 0 0
0 0 0
0 0 0
0 0 0
0 0 0
0 0 0
0 0 0
0 0 0
0 0 0
0 0 0
0 0 0
0 0 0
0 0 0
0 0 0
0 0 0
0 0 0
0 0 0
0 0 0
0 0 0
0 0 0
0 0 0
0 0 0
0 0 0
0 0 0
0 0 0
0 0 0
0 0 0
0 0 0
0 0 0
0 0 0
0 0 0
0 0 0
0 0 0
0 0 0
0 0 0
0 0 0
0 0 0
0 0 0
0 0 0
0 0 0
0 0 0
0 0 0
0 0 0
0 0 0
0 0 0
0 0 0
0 0 0
0 0 0
0 0 0
0 0 0
0 0 0
0 0 0
0 0 0
0 0 0
0 0 0
0 0 0
0 0 0
0 0 0
0 0 0
0 0 0
0 0 0
0 0 0
0 0 0
0 0 0
0 0 0
0 0 0
0 0 0
0 0 0
0 0 0
0 0 0
0 0 0
0 0 0
0 0 0
0 0 0
0 0 0
0 0 0
0 0 0
0 0 0
0 0 0
0 0 0
0 0 0
0 0 0
0 0 0
0 0 0
0 0 0
0 0 0
0 0 0
0 0 0
0 0 0
0 0 0
0 0 0
0 0 0
0 0 0
0 0 0
0 0 0
0 0 0
0 0 0
0 0 0
0 0 0
0 0 0
0 0 0
0 0 0
0 0 0
0 0 0
0 0 0
0 0 0
0 0 0
0 0 0
0 0 0
0 0 0
0 0 0
0 0 0
0 0 0
0 0 0
0 0 0
0 0 0
0 0 0
0 0 0
0 0 0
0 0 0
0 0 0
0 0 0
0 0 0
0 0 0
0 0 0
0 0 0
0 0 0
0 0 0
0 0 0
0 0 0
0 0 0
0 0 0
0 0 0
0 0 0
0 0 0
0 0 0
0 0 0
0 0 0
0 0 0
0 0 0
0 0 0
0 0 0
0 0 0
0 0 0
0 0 0
0 0 0
0 0 0
0 0 0
0 0 0
0 0 0
0 0 0
0 0 0
0 0 0
0 0 0
0 0 0
0 0 0
0 0 0
0 0 0
0 0 0
0 0 0
0 0 0
0 0 0
0 0 0
0 0 0
0 0 0
0 0 0
0 0 0
0 0 0
0 0 0
0 0 0
0 0 0
0 0 0
0 0 0
0 0 0
0 0 0
0 0 0
0 0 0
0 0 0
0 0 0
0 0 0
0 0 0
0 0 0
0 0 0
0 0 0
0 0 0
0 0 0
0 0 0
0 0 0
0 0 0
0 0 0
0 0 0
0 0 0
0 0 0
0 0 0
0 0 0
0 0 0
0 0 0
0 0 0
0 0 0
0 0 0
0 0 0
0 0 0
0 0 0
0 0 0
0 0 0
0 0 0
0 0 0
0 0 0
0 0 0
0 0 0
0 0 0
0 0 0
0 0 0
0 0 0
0 0 0
0 0 0
0 0 0
0 0 0
0 0 0
0 0 0
0 0 0
0 0 0
0 0 0
0 0 0
0 0 0
0 0 0
0 0 0
0 0 0
0 0 0
0 0 0
0 0 0
0 0 0
0 0 0
0 0 0
0 0 0
0 0 0
0 0 0
0 0 0
0 0 0
0 0 0
0 0 0
0 0 0
0 0 0
0 0 0
0 0 0
0 0 0
0 0 0
0 0 0
0 0 0
0 0 0
0 0 0
0 0 0
0 0 0
0 0 0
0 0 0
0 0 0
0 0 0
0 0 0
0 0 0
0 0 0
0 0 0
0 0 0
0 0 0
0 0 0
0 0 0
0 0 0
0 0 0
0 0 0
0 0 0
0 0 0
0 0 0
0 0 0
0 0 0
0 0 0
0 0 0
0 0 0
0 0 0
0 0 0
0 0 0
0 0 0
0 0 0
0 0 0
0 0 0
0 0 0
0 0 0
0 0 0
0 0 0
0 0 0
0 0 0
0 0 0
0 0 0
0 0 0
0 0 0
0 0 0
0 0 0
0 0 0
0 0 0
0 0 0
0 0 0
0 0 0
0 0 0
0 0 0
0 0 0
0 0 0
0 0 0
0 0 0
0 0 0
0 0 0
0 0 0
0 0 0
0 0 0
0 0 0
0 0 0
0 0 0
0 0 0
0 0 0
0 0 0
0 0 0
0 0 0
0 0 0
0 0 0
0 0 0
0 0 0
0 0 0
0 0 0
0 0 0
0 0 0
0 0 0
0 0 0
0 0 0
0 0 0
0 0 0
0 0 0
0 0 0
0 0 0
0 0 0
0 0 0
0 0 0
0 0 0
0 0 0
0 0 0
0 0 0
0 0 0
0 0 0
0 0 0
0 0 0
0 0 0
0 0 0
0 0 0
0 0 0
0 0 0
0 0 0
0 0 0
0 0 0
0 0 0
0 0 0
0 0 0
0 0 0
0 0 0
0 0 0
0 0 0
0 0 0
0 0 0
0 0 0
0 0 0
0 0 0
0 0 0
0 0 0
0 0 0
0 0 0
0 0 0
0 0 0
0 0 0
0 0 0
0 0 0
0 0 0
0 0 0
0 0 0
0 0 0
0 0 0
0 0 0
0 0 0
0 0 0
0 0 0
0 0 0
0 0 0
0 0 0
0 0 0
0 0 0
0 0 0
0 0 0
0 0 0
0 0 0
0 0 0
0 0 0
0 0 0
0 0 0
0 0 0
0 0 0
0 0 0
0 0 0
0 0 0
0 0 0
0 0 0
0 0 0
0 0 0
0 0 0
0 0 0
0 0 0
0 0 0
0 0 0
0 0 0
0 0 0
0 0 0
0 0 0
0 0 0
0 0 0
0 0 0
0 0 0
0 0 0
0 0 0
0 0 0
0 0 0
0 0 0
0 0 0
0 0 0
0 0 0
0 0 0
0 0 0
0 0 0
0 0 0
0 0 0
0 0 0
0 0 0
0 0 0
0 0 0
0 0 0
0 0 0
0 0 0
0 0 0
0 0 0
0 0 0
0 0 0
0 0 0
0 0 0
0 0 0
0 0 0
0 0 0
0 0 0
0 0 0
0 0 0
0 0 0
0 0 0
0 0 0
0 0 0
0 0 0
0 0 0
0 0 0
0 0 0
0 0 0
0 0 0
0 0 0
0 0 0
0 0 0
0 0 0
0 0 0
0 0 0
0 0 0
0 0 0
0 0 0
0 0 0
0 0 0
0 0 0
0 0 0
0 0 0
0 0 0
0 0 0
0 0 0
0 0 0
0 0 0
0 0 0
0 0 0
0 0 0
0 0 0
0 0 0
0 0 0
0 0 0
0 0 0
0 0 0
0 0 0
0 0 0
0 0 0
0 0 0
0 0 0
0 0 0
0 0 0
0 0 0
0 0 0
0 0 0
0 0 0
0 0 0
0 0 0
0 0 0
0 0 0
0 0 0
0 0 0
0 0 0
0 0 0
0 0 0
0 0 0
0 0 0
0 0 0
0 0 0
0 0 0
0 0 0
0 0 0
0 0 0
0 0 0
0 0 0
0 0 0
0 0 0
0 0 0
0 0 0
0 0 0
0 0 0
0 0 0
0 0 0
0 0 0
0 0 0
0 0 0
0 0 0
0 0 0
0 0 0
0 0 0
0 0 0
0 0 0
0 0 0
0 0 0
0 0 0
0 0 0
0 0 0
0 0 0
0 0 0
0 0 0
0 0 0
0 0 0
0 0 0
0 0 0
0 0 0
0 0 0
0 0 0
0 0 0
0 0 0
0 0 0
0 0 0
0 0 0
0 0 0
0 0 0
0 0 0
0 0 0
0 0 0
0 0 0
0 0 0
0 0 0
0 0 0
0 0 0
0 0 0
0 0 0
0 0 0
0 0 0
0 0 0
0 0 0
0 0 0
0 0 0
0 0 0
0 0 0
0 0 0
0 0 0
0 0 0
0 0 0
0 0 0
0 0 0
0 0 0
0 0 0
0 0 0
0 0 0
0 0 0
0 0 0
0 0 0
0 0 0
0 0 0
0 0 0
0 0 0
0 0 0
0 0 0
0 0 0
0 0 0
0 0 0
0 0 0
0 0 0
0 0 0
0 0 0
0 0 0
0 0 0
0 0 0
0 0 0
0 0 0
0 0 0
0 0 0
0 0 0
0 0 0
0 0 0
0 0 0
0 0 0
0 0 0
0 0 0
0 0 0
0 0 0
0 0 0
0 0 0
0 0 0
0 0 0
0 0 0
0 0 0
0 0 0
0 0 0
0 0 0
0 0 0
0 0 0
0 0 0
0 0 0
0 0 0
0 0 0
0 0 0
0 0 0
0 0 0
0 0 0
0 0 0
0 0 0
0 0 0
0 0 0
0 0 0
0 0 0
0 0 0
0 0 0
0 0 0
0 0 0
0 0 0
0 0 0
0 0 0
0 0 0
0 0 0
0 0 0
0 0 0
0 0 0
0 0 0
0 0 0
0 0 0
0 0 0
0 0 0
0 0 0
0 0 0
0 0 0
0 0 0
0 0 0
0 0 0
0 0 0
0 0 0
0 0 0
0 0 0
0 0 0
0 0 0
0 0 0
0 0 0
0 0 0
0 0 0
0 0 0
0 0 0
0 0 0
0 0 0
0 0 0
0 0 0
0 0 0
0 0 0
0 0 0
0 0 0
0 0 0
0 0 0
0 0 0
0 0 0
0 0 0
0 0 0
0 0 0
0 0 0
0 0 0
0 0 0
0 0 0
0 0 0
0 0 0
0 0 0
0 0 0
0 0 0
0 0 0
0 0 0
0 0 0
0 0 0
0 0 0
0 0 0
0 0 0
0 0 0
0 0 0
0 0 0
0 0 0
0 0 0
0 0 0
0 0 0
0 0 0
0 0 0
0 0 0
0 0 0
0 0 0
0 0 0
0 0 0
0 0 0
0 0 0
0 0 0
0 0 0
0 0 0
0 0 0
0 0 0
0 0 0
0 0 0
0 0 0
0 0 0
0 0 0
0 0 0
0 0 0
0 0 0
0 0 0
0 0 0
0 0 0
0 0 0
0 0 0
0 0 0
0 0 0
0 0 0
0 0 0
0 0 0
0 0 0
0 0 0
0 0 0
0 0 0
0 0 0
0 0 0
0 0 0
0 0 0
0 0 0
0 0 0
0 0 0
0 0 0
0 0 0
0 0 0
0 0 0
0 0 0
0 0 0
0 0 0
0 0 0
0 0 0
0 0 0
0 0 0
0 0 0
0 0 0
0 0 0
0 0 0
0 0 0
0 0 0
0 0 0
0 0 0
0 0 0
0 0 0
0 0 0
0 0 0
0 0 0
0 0 0
0 0 0
0 0 0
0 0 0
0 0 0
0 0 0
0 0 0
0 0 0
0 0 0
0 0 0
0 0 0
0 0 0
0 0 0
0 0 0
0 0 0
0 0 0
0 0 0
0 0 0
0 0 0
0 0 0
0 0 0
0 0 0
0 0 0
0 0 0
0 0 0
0 0 0
0 0 0
0 0 0
0 0 0
0 0 0
0 0 0
0 0 0
0 0 0
0 0 0
0 0 0
0 0 0
0 0 0
0 0 0
0 0 0
0 0 0
0 0 0
0 0 0
0 0 0
0 0 0
0 0 0
0 0 0
0 0 0
0 0 0
0 0 0
0 0 0
0 0 0
0 0 0
0 0 0
0 0 0
0 0 0
0 0 0
0 0 0
0 0 0
0 0 0
0 0 0
0 0 0
0 0 0
0 0 0
0 0 0
0 0 0
0 0 0
0 0 0
0 0 0
0 0 0
0 0 0
0 0 0
0 0 0
0 0 0
0 0 0
0 0 0
0 0 0
0 0 0
0 0 0
0 0 0
0 0 0
0 0 0
0 0 0
0 0 0
0 0 0
0 0 0
0 0 0
0 0 0
0 0 0
0 0 0
0 0 0
0 0 0
0 0 0
0 0 0
0 0 0
0 0 0
0 0 0
0 0 0
0 0 0
0 0 0
0 0 0
0 0 0
0 0 0
0 0 0
0 0 0
0 0 0
0 0 0
0 0 0
0 0 0
0 0 0
0 0 0
0 0 0
0 0 0
0 0 0
0 0 0
0 0 0
0 0 0
0 0 0
0 0 0
0 0 0
0 0 0
0 0 0
0 0 0
0 0 0
0 0 0
0 0 0
0 0 0
0 0 0
0 0 0
0 0 0
0 0 0
0 0 0
0 0 0
0 0 0
0 0 0
0 0 0
0 0 0
0 0 0
0 0 0
0 0 0
0 0 0
0 0 0
0 0 0
0 0 0
0 0 0
0 0 0
0 0 0
0 0 0
0 0 0
0 0 0
0 0 0
0 0 0
0 0 0
0 0 0
0 0 0
0 0 0
0 0 0
0 0 0
0 0 0
0 0 0
0 0 0
0 0 0
0 0 0
0 0 0
0 0 0
0 0 0
0 0 0
0 0 0
0 0 0
0 0 0
0 0 0
0 0 0
0 0 0
0 0 0
0 0 0
0 0 0
0 0 0
0 0 0
0 0 0
0 0 0
0 0 0
0 0 0
0 0 0
0 0 0
0 0 0
0 0 0
0 0 0
0 0 0
0 0 0
0 0 0
0 0 0
0 0 0
0 0 0
0 0 0
0 0 0
0 0 0
0 0 0
0 0 0
0 0 0
0 0 0
0 0 0
0 0 0
0 0 0
0 0 0
0 0 0
0 0 0
0 0 0
0 0 0
0 0 0
0 0 0
0 0 0
0 0 0
0 0 0
0 0 0
0 0 0
0 0 0
0 0 0
0 0 0
0 0 0
0 0 0
0 0 0
0 0 0
0 0 0
0 0 0
0 0 0
0 0 0
0 0 0
0 0 0
0 0 0
0 0 0
0 0 0
0 0 0
0 0 0
0 0 0
0 0 0
0 0 0
0 0 0
0 0 0
0 0 0
0 0 0
0 0 0
0 0 0
0 0 0
0 0 0
0 0 0
0 0 0
0 0 0
0 0 0
0 0 0
0 0 0
0 0 0
0 0 0
0 0 0
0 0 0
0 0 0
0 0 0
0 0 0
0 0 0
0 0 0
0 0 0
0 0 0
0 0 0
0 0 0
0 0 0
0 0 0
0 0 0
0 0 0
0 0 0
0 0 0
0 0 0
0 0 0
0 0 0
0 0 0
0 0 0
0 0 0
0 0 0
0 0 0
0 0 0
0 0 0
0 0 0
0 0 0
0 0 0
0 0 0
0 0 0
0 0 0
0 0 0
0 0 0
0 0 0
0 0 0
0 0 0
0 0 0
0 0 0
0 0 0
0 0 0
0 0 0
0 0 0
0 0 0
0 0 0
0 0 0
0 0 0
0 0 0
0 0 0
0 0 0
0 0 0
0 0 0
0 0 0
0 0 0
0 0 0
0 0 0
0 0 0
0 0 0
0 0 0
0 0 0
0 0 0
0 0 0
0 0 0
0 0 0
0 0 0
0 0 0
0 0 0
0 0 0
0 0 0
0 0 0
0 0 0
0 0 0
0 0 0
0 0 0
0 0 0
0 0 0
0 0 0
0 0 0
0 0 0
0 0 0
0 0 0
0 0 0
0 0 0
0 0 0
0 0 0
0 0 0
0 0 0
0 0 0
0 0 0
0 0 0
0 0 0
0 0 0
0 0 0
0 0 0
0 0 0
0 0 0
0 0 0
0 0 0
0 0 0
0 0 0
0 0 0
0 0 0
0 0 0
0 0 0
0 0 0
0 0 0
0 0 0
0 0 0
0 0 0
0 0 0
0 0 0
0 0 0
0 0 0
0 0 0
0 0 0
0 0 0
0 0 0
0 0 0
0 0 0
0 0 0
0 0 0
0 0 0
0 0 0
0 0 0
0 0 0
0 0 0
0 0 0
0 0 0
0 0 0
0 0 0
0 0 0
0 0 0
0 0 0
0 0 0
0 0 0
0 0 0
0 0 0
0 0 0
0 0 0
0 0 0
0 0 0
0 0 0
0 0 0
0 0 0
0 0 0
0 0 0
0 0 0
0 0 0
0 0 0
0 0 0
0 0 0
0 0 0
0 0 0
0 0 0
0 0 0
0 0 0
0 0 0
0 0 0
0 0 0
0 0 0
0 0 0
0 0 0
0 0 0
0 0 0
0 0 0
0 0 0
0 0 0
0 0 0
0 0 0
0 0 0
0 0 0
0 0 0
0 0 0
0 0 0
0 0 0
0 0 0
0 0 0
0 0 0
0 0 0
0 0 0
0 0 0
0 0 0
0 0 0
0 0 0
0 0 0
0 0 0
0 0 0
0 0 0
0 0 0
0 0 0
0 0 0
0 0 0
0 0 0
0 0 0
0 0 0
0 0 0
0 0 0
0 0 0
0 0 0
0 0 0
0 0 0
0 0 0
0 0 0
0 0 0
0 0 0
0 0 0
0 0 0
0 0 0
0 0 0
0 0 0
0 0 0
0 0 0
0 0 0
0 0 0
0 0 0
0 0 0
0 0 0
0 0 0
0 0 0
0 0 0
0 0 0
0 0 0
0 0 0
0 0 0
0 0 0
0 0 0
0 0 0
0 0 0
0 0 0
0 0 0
0 0 0
0 0 0
0 0 0
0 0 0
0 0 0
0 0 0
0 0 0
0 0 0
0 0 0
0 0 0
0 0 0
0 0 0
0 0 0
0 0 0
0 0 0
0 0 0
0 0 0
0 0 0
0 0 0
0 0 0
0 0 0
0 0 0
0 0 0
0 0 0
0 0 0
0 0 0
0 0 0
0 0 0
0 0 0
0 0 0
0 0 0
0 0 0
0 0 0
0 0 0
0 0 0
0 0 0
0 0 0
0 0 0
0 0 0
0 0 0
0 0 0
0 0 0
0 0 0
0 0 0
0 0 0
0 0 0
0 0 0
0 0 0
0 0 0
0 0 0
0 0 0
0 0 0
0 0 0
0 0 0
0 0 0
0 0 0
0 0 0
0 0 0
0 0 0
0 0 0
0 0 0
0 0 0
0 0 0
0 0 0
0 0 0
0 0 0
0 0 0
0 0 0
0 0 0
0 0 0
0 0 0
0 0 0
0 0 0
0 0 0
0 0 0
0 0 0
0 0 0
0 0 0
0 0 0
0 0 0
0 0 0
0 0 0
0 0 0
0 0 0
0 0 0
0 0 0
0 0 0
0 0 0
0 0 0
0 0 0
0 0 0
0 0 0
0 0 0
0 0 0
0 0 0
0 0 0
0 0 0
0 0 0
0 0 0
0 0 0
0 0 0
0 0 0
0 0 0
0 0 0
0 0 0
0 0 0
0 0 0
0 0 0
0 0 0
0 0 0
0 0 0
0 0 0
0 0 0
0 0 0
0 0 0
0 0 0
0 0 0
0 0 0
0 0 0
0 0 0
0 0 0
0 0 0
0 0 0
0 0 0
0 0 0
0 0 0
0 0 0
0 0 0
0 0 0
0 0 0
0 0 0
0 0 0
0 0 0
0 0 0
0 0 0
0 0 0
0 0 0
0 0 0
0 0 0
0 0 0
0 0 0
0 0 0
0 0 0
0 0 0
0 0 0
0 0 0
0 0 0
0 0 0
0 0 0
0 0 0
0 0 0
0 0 0
0 0 0
0 0 0
0 0 0
0 0 0
0 0 0
0 0 0
0 0 0
0 0 0
0 0 0
0 0 0
0 0 0
0 0 0
0 0 0
0 0 0
0 0 0
0 0 0
0 0 0
0 0 0
0 0 0
0 0 0
0 0 0
0 0 0
0 0 0
0 0 0
0 0 0
0 0 0
0 0 0
0 0 0
0 0 0
0 0 0
0 0 0
0 0 0
0 0 0
0 0 0
0 0 0
0 0 0
0 0 0
0 0 0
0 0 0
0 0 0
0 0 0
0 0 0
0 0 0
0 0 0
0 0 0
0 0 0
0 0 0
0 0 0
0 0 0
0 0 0
0 0 0
0 0 0
0 0 0
0 0 0
0 0 0
0 0 0
0 0 0
0 0 0
0 0 0
0 0 0
0 0 0
0 0 0
0 0 0
0 0 0
0 0 0
0 0 0
0 0 0
0 0 0
0 0 0
0 0 0
0 0 0
0 0 0
0 0 0
0 0 0
0 0 0
0 0 0
0 0 0
0 0 0
0 0 0
0 0 0
0 0 0
0 0 0
0 0 0
0 0 0
0 0 0
0 0 0
0 0 0
0 0 0
0 0 0
0 0 0
0 0 0
0 0 0
0 0 0
0 0 0
0 0 0
0 0 0
0 0 0
0 0 0
0 0 0
0 0 0
0 0 0
0 0 0
0 0 0
0 0 0
0 0 0
0 0 0
0 0 0
0 0 0
0 0 0
0 0 0
0 0 0
0 0 0
0 0 0
0 0 0
0 0 0
0 0 0
0 0 0
0 0 0
0 0 0
0 0 0
0 0 0
0 0 0
0 0 0
0 0 0
0 0 0
0 0 0
0 0 0
0 0 0
0 0 0
0 0 0
0 0 0
0 0 0
0 0 0
0 0 0
0 0 0
0 0 0
0 0 0
0 0 0
0 0 0
0 0 0
0 0 0
0 0 0
0 0 0
0 0 0
0 0 0
0 0 0
0 0 0
0 0 0
0 0 0
0 0 0
0 0 0
0 0 0
0 0 0
0 0 0
0 0 0
0 0 0
0 0 0
0 0 0
0 0 0
0 0 0
0 0 0
0 0 0
0 0 0
0 0 0
0 0 0
0 0 0
0 0 0
0 0 0
0 0 0
0 0 0
0 0 0
0 0 0
0 0 0
0 0 0
0 0 0
0 0 0
0 0 0
0 0 0
0 0 0
0 0 0
0 0 0
0 0 0
0 0 0
0 0 0
0 0 0
0 0 0
0 0 0
0 0 0
0 0 0
0 0 0
0 0 0
0 0 0
0 0 0
0 0 0
0 0 0
0 0 0
0 0 0
0 0 0
0 0 0
0 0 0
0 0 0
0 0 0
0 0 0
0 0 0
0 0 0
0 0 0
0 0 0
0 0 0
0 0 0
0 0 0
0 0 0
0 0 0
0 0 0
0 0 0
0 0 0
0 0 0
0 0 0
0 0 0
0 0 0
0 0 0
0 0 0
0 0 0
0 0 0
0 0 0
0 0 0
0 0 0
0 0 0
0 0 0
0 0 0
0 0 0
0 0 0
0 0 0
0 0 0
0 0 0
0 0 0
0 0 0
0 0 0
0 0 0
0 0 0
0 0 0
0 0 0
0 0 0
0 0 0
0 0 0
0 0 0
0 0 0
0 0 0
0 0 0
0 0 0
0 0 0
0 0 0
0 0 0
0 0 0
0 0 0
0 0 0
0 0 0
0 0 0
0 0 0
0 0 0
0 0 0
0 0 0
0 0 0
0 0 0
0 0 0
0 0 0
0 0 0
0 0 0
0 0 0
0 0 0
0 0 0
0 0 0
0 0 0
0 0 0
0 0 0
0 0 0
0 0 0
0 0 0
0 0 0
0 0 0
0 0 0
0 0 0
0 0 0
0 0 0
0 0 0
0 0 0
0 0 0
0 0 0
0 0 0
0 0 0
0 0 0
0 0 0
0 0 0
0 0 0
0 0 0
0 0 0
0 0 0
0 0 0
0 0 0
0 0 0
0 0 0
0 0 0
0 0 0
0 0 0
0 0 0
0 0 0
0 0 0
0 0 0
0 0 0
0 0 0
0 0 0
0 0 0
0 0 0
0 0 0
0 0 0
0 0 0
0 0 0
0 0 0
0 0 0
0 0 0
0 0 0
0 0 0
0 0 0
0 0 0
0 0 0
0 0 0
0 0 0
0 0 0
0 0 0
0 0 0
0 0 0
0 0 0
0 0 0
0 0 0
0 0 0
0 0 0
0 0 0
0 0 0
0 0 0
0 0 0
0 0 0
0 0 0
0 0 0
0 0 0
0 0 0
0 0 0
0 0 0
0 0 0
0 0 0
0 0 0
0 0 0
0 0 0
0 0 0
0 0 0
0 0 0
0 0 0
0 0 0
0 0 0
0 0 0
0 0 0
0 0 0
0 0 0
0 0 0
0 0 0
0 0 0
0 0 0
0 0 0
0 0 0
0 0 0
0 0 0
0 0 0
0 0 0
0 0 0
0 0 0
0 0 0
0 0 0
0 0 0
0 0 0
0 0 0
0 0 0
0 0 0
0 0 0
0 0 0
0 0 0
0 0 0
0 0 0
0 0 0
0 0 0
0 0 0
0 0 0
0 0 0
0 0 0
0 0 0
0 0 0
0 0 0
0 0 0
0 0 0
0 0 0
0 0 0
0 0 0
0 0 0
0 0 0
0 0 0
0 0 0
0 0 0
0 0 0
0 0 0
0 0 0
0 0 0
0 0 0
0 0 0
0 0 0
0 0 0
0 0 0
0 0 0
0 0 0
0 0 0
0 0 0
0 0 0
0 0 0
0 0 0
0 0 0
0 0 0
0 0 0
0 0 0
0 0 0
0 0 0
0 0 0
0 0 0
0 0 0
0 0 0
0 0 0
0 0 0
0 0 0
0 0 0
0 0 0
0 0 0
0 0 0
0 0 0
0 0 0
0 0 0
0 0 0
0 0 0
0 0 0
0 0 0
0 0 0
0 0 0
0 0 0
0 0 0
0 0 0
0 0 0
0 0 0
0 0 0
0 0 0
0 0 0
0 0 0
0 0 0
0 0 0
0 0 0
0 0 0
0 0 0
0 0 0
0 0 0
0 0 0
0 0 0
0 0 0
0 0 0
0 0 0
0 0 0
0 0 0
0 0 0
0 0 0
0 0 0
0 0 0
0 0 0
0 0 0
0 0 0
0 0 0
0 0 0
0 0 0
0 0 0
0 0 0
0 0 0
0 0 0
0 0 0
0 0 0
0 0 0
0 0 0
0 0 0
0 0 0
0 0 0
0 0 0
0 0 0
0 0 0
0 0 0
0 0 0
0 0 0
0 0 0
0 0 0
0 0 0
0 0 0
0 0 0
0 0 0
0 0 0
0 0 0
0 0 0
0 0 0
0 0 0
0 0 0
0 0 0
0 0 0
0 0 0
0 0 0
0 0 0
0 0 0
0 0 0
0 0 0
0 0 0
0 0 0
0 0 0
0 0 0
0 0 0
0 0 0
0 0 0
0 0 0
0 0 0
0 0 0
0 0 0
0 0 0
0 0 0
0 0 0
0 0 0
0 0 0
0 0 0
0 0 0
0 0 0
0 0 0
0 0 0
0 0 0
0 0 0
0 0 0
0 0 0
0 0 0
0 0 0
0 0 0
0 0 0
0 0 0
0 0 0
0 0 0
0 0 0
0 0 0
0 0 0
0 0 0
0 0 0
0 0 0
0 0 0
0 0 0
0 0 0
0 0 0
0 0 0
0 0 0
0 0 0
0 0 0
0 0 0
0 0 0
0 0 0
0 0 0
0 0 0
0 0 0
0 0 0
0 0 0
0 0 0
0 0 0
0 0 0
0 0 0
0 0 0
0 0 0
0 0 0
0 0 0
0 0 0
0 0 0
0 0 0
0 0 0
0 0 0
0 0 0
0 0 0
0 0 0
0 0 0
0 0 0
0 0 0
0 0 0
0 0 0
0 0 0
0 0 0
0 0 0
0 0 0
0 0 0
0 0 0
0 0 0
0 0 0
0 0 0
0 0 0
0 0 0
0 0 0
0 0 0
0 0 0
0 0 0
0 0 0
0 0 0
0 0 0
0 0 0
0 0 0
0 0 0
0 0 0
0 0 0
0 0 0
0 0 0
0 0 0
0 0 0
0 0 0
0 0 0
0 0 0
0 0 0
0 0 0
0 0 0
0 0 0
0 0 0
0 0 0
0 0 0
0 0 0
0 0 0
0 0 0
0 0 0
0 0 0
0 0 0
0 0 0
0 0 0
0 0 0
0 0 0
0 0 0
0 0 0
0 0 0
0 0 0
0 0 0
0 0 0
0 0 0
0 0 0
0 0 0
0 0 0
0 0 0
0 0 0
0 0 0
0 0 0
0 0 0
0 0 0
0 0 0
0 0 0
0 0 0
0 0 0
0 0 0
0 0 0
0 0 0
0 0 0
0 0 0
0 0 0
0 0 0
0 0 0
0 0 0
0 0 0
0 0 0
0 0 0
0 0 0
0 0 0
0 0 0
0 0 0
0 0 0
0 0 0
0 0 0
0 0 0
0 0 0
0 0 0
0 0 0
0 0 0
0 0 0
0 0 0
0 0 0
0 0 0
0 0 0
0 0 0
0 0 0
0 0 0
0 0 0
0 0 0
0 0 0
0 0 0
0 0 0
0 0 0
0 0 0
0 0 0
0 0 0
0 0 0
0 0 0
0 0 0
0 0 0
0 0 0
0 0 0
0 0 0
0 0 0
0 0 0
0 0 0
0 0 0
0 0 0
0 0 0
0 0 0
0 0 0
0 0 0
0 0 0
0 0 0
0 0 0
0 0 0
0 0 0
0 0 0
0 0 0
0 0 0
0 0 0
0 0 0
0 0 0
0 0 0
0 0 0
0 0 0
0 0 0
0 0 0
0 0 0
0 0 0
0 0 0
0 0 0
0 0 0
0 0 0
0 0 0
0 0 0
0 0 0
0 0 0
0 0 0
0 0 0
0 0 0
0 0 0
0 0 0
0 0 0
0 0 0
0 0 0
0 0 0
0 0 0
0 0 0
0 0 0
0 0 0
0 0 0
0 0 0
0 0 0
0 0 0
0 0 0
0 0 0
0 0 0
0 0 0
0 0 0
0 0 0
0 0 0
0 0 0
0 0 0
0 0 0
0 0 0
0 0 0
0 0 0
0 0 0
0 0 0
0 0 0
0 0 0
0 0 0
0 0 0
0 0 0
0 0 0
0 0 0
0 0 0
0 0 0
0 0 0
0 0 0
0 0 0
0 0 0
0 0 0
0 0 0
0 0 0
0 0 0
0 0 0
0 0 0
0 0 0
0 0 0
0 0 0
0 0 0
0 0 0
0 0 0
0 0 0
0 0 0
0 0 0
0 0 0
0 0 0
0 0 0
0 0 0
0 0 0
0 0 0
0 0 0
0 0 0
0 0 0
0 0 0
0 0 0
0 0 0
0 0 0
0 0 0
0 0 0
0 0 0
0 0 0
0 0 0
0 0 0
0 0 0
0 0 0
0 0 0
0 0 0
0 0 0
0 0 0
0 0 0
0 0 0
0 0 0
0 0 0
0 0 0
0 0 0
0 0 0
0 0 0
0 0 0
0 0 0
0 0 0
0 0 0
0 0 0
0 0 0
0 0 0
0 0 0
0 0 0
0 0 0
0 0 0
0 0 0
0 0 0
0 0 0
0 0 0
0 0 0
0 0 0
0 0 0
0 0 0
0 0 0
0 0 0
0 0 0
0 0 0
0 0 0
0 0 0
0 0 0
0 0 0
0 0 0
0 0 0
0 0 0
0 0 0
0 0 0
0 0 0
0 0 0
0 0 0
0 0 0
0 0 0
0 0 0
0 0 0
0 0 0
0 0 0
0 0 0
0 0 0
0 0 0
0 0 0
0 0 0
0 0 0
0 0 0
0 0 0
0 0 0
0 0 0
0 0 0
0 0 0
0 0 0
0 0 0
0 0 0
0 0 0
0 0 0
0 0 0
0 0 0
0 0 0
0 0 0
0 0 0
0 0 0
0 0 0
0 0 0
0 0 0
0 0 0
0 0 0
0 0 0
0 0 0
0 0 0
0 0 0
0 0 0
0 0 0
0 0 0
0 0 0
0 0 0
0 0 0
0 0 0
0 0 0
0 0 0
0 0 0
0 0 0
0 0 0
0 0 0
0 0 0
0 0 0
0 0 0
0 0 0
0 0 0
0 0 0
0 0 0
0 0 0
0 0 0
0 0 0
0 0 0
0 0 0
0 0 0
0 0 0
0 0 0
0 0 0
0 0 0
0 0 0
0 0 0
0 0 0
0 0 0
0 0 0
0 0 0
0 0 0
0 0 0
0 0 0
0 0 0
0 0 0
0 0 0
0 0 0
0 0 0
0 0 0
0 0 0
0 0 0
0 0 0
0 0 0
0 0 0
0 0 0
0 0 0
0 0 0
0 0 0
0 0 0
0 0 0
0 0 0
0 0 0
0 0 0
0 0 0
0 0 0
0 0 0
0 0 0
0 0 0
0 0 0
0 0 0
0 0 0
0 0 0
0 0 0
0 0 0
0 0 0
0 0 0
0 0 0
0 0 0
0 0 0
0 0 0
0 0 0
0 0 0
0 0 0
0 0 0
0 0 0
0 0 0
0 0 0
0 0 0
0 0 0
0 0 0
0 0 0
0 0 0
0 0 0
0 0 0
0 0 0
0 0 0
0 0 0
0 0 0
0 0 0
0 0 0
0 0 0
0 0 0
0 0 0
0 0 0
0 0 0
0 0 0
0 0 0
0 0 0
0 0 0
0 0 0
0 0 0
0 0 0
0 0 0
0 0 0
0 0 0
0 0 0
0 0 0
0 0 0
0 0 0
0 0 0
0 0 0
0 0 0
0 0 0
0 0 0
0 0 0
0 0 0
0 0 0
0 0 0
0 0 0
0 0 0
0 0 0
0 0 0
0 0 0
0 0 0
0 0 0
0 0 0
0 0 0
0 0 0
0 0 0
0 0 0
0 0 0
0 0 0
0 0 0
0 0 0
0 0 0
0 0 0
0 0 0
0 0 0
0 0 0
0 0 0
0 0 0
0 0 0
0 0 0
0 0 0
0 0 0
0 0 0
0 0 0
0 0 0
0 0 0
0 0 0
0 0 0
0 0 0
0 0 0
0 0 0
0 0 0
0 0 0
0 0 0
0 0 0
0 0 0
0 0 0
0 0 0
0 0 0
0 0 0
0 0 0
0 0 0
0 0 0
0 0 0
0 0 0
0 0 0
0 0 0
0 0 0
0 0 0
0 0 0
0 0 0
0 0 0
0 0 0
0 0 0
0 0 0
0 0 0
0 0 0
0 0 0
0 0 0
0 0 0
0 0 0
0 0 0
0 0 0
0 0 0
0 0 0
0 0 0
0 0 0
0 0 0
0 0 0
0 0 0
0 0 0
0 0 0
0 0 0
0 0 0
0 0 0
0 0 0
0 0 0
0 0 0
0 0 0
0 0 0
0 0 0
0 0 0
0 0 0
0 0 0
0 0 0
0 0 0
0 0 0
0 0 0
0 0 0
0 0 0
0 0 0
0 0 0
0 0 0
0 0 0
0 0 0
0 0 0
0 0 0
0 0 0
0 0 0
0 0 0
0 0 0
0 0 0
0 0 0
0 0 0
0 0 0
0 0 0
0 0 0
0 0 0
0 0 0
0 0 0
0 0 0
0 0 0
0 0 0
0 0 0
0 0 0
0 0 0
0 0 0
0 0 0
0 0 0
0 0 0
0 0 0
0 0 0
0 0 0
0 0 0
0 0 0
0 0 0
0 0 0
0 0 0
0 0 0
0 0 0
0 0 0
0 0 0
0 0 0
0 0 0
0 0 0
0 0 0
0 0 0
0 0 0
0 0 0
0 0 0
0 0 0
0 0 0
0 0 0
0 0 0
0 0 0
0 0 0
0 0 0
0 0 0
0 0 0
0 0 0
0 0 0
0 0 0
0 0 0
0 0 0
0 0 0
0 0 0
0 0 0
0 0 0
0 0 0
0 0 0
0 0 0
0 0 0
0 0 0
0 0 0
0 0 0
0 0 0
0 0 0
0 0 0
0 0 0
0 0 0
0 0 0
0 0 0
0 0 0
0 0 0
0 0 0
0 0 0
0 0 0
0 0 0
0 0 0
0 0 0
0 0 0
0 0 0
0 0 0
0 0 0
0 0 0
0 0 0
0 0 0
0 0 0
0 0 0
0 0 0
0 0 0
0 0 0
0 0 0
0 0 0
0 0 0
0 0 0
0 0 0
0 0 0
0 0 0
0 0 0
0 0 0
0 0 0
0 0 0
0 0 0
0 0 0
0 0 0
0 0 0
0 0 0
0 0 0
0 0 0
0 0 0
0 0 0
0 0 0
0 0 0
0 0 0
0 0 0
0 0 0
0 0 0
0 0 0
0 0 0
0 0 0
0 0 0
0 0 0
0 0 0
0 0 0
0 0 0
0 0 0
0 0 0
0 0 0
0 0 0
0 0 0
0 0 0
0 0 0
0 0 0
0 0 0
0 0 0
0 0 0
0 0 0
0 0 0
0 0 0
0 0 0
0 0 0
0 0 0
0 0 0
0 0 0
0 0 0
0 0 0
0 0 0
0 0 0
0 0 0
0 0 0
0 0 0
0 0 0
0 0 0
0 0 0
0 0 0
0 0 0
0 0 0
0 0 0
0 0 0
0 0 0
0 0 0
0 0 0
0 0 0
0 0 0
0 0 0
0 0 0
0 0 0
0 0 0
0 0 0
0 0 0
0 0 0
0 0 0
0 0 0
0 0 0
0 0 0
0 0 0
0 0 0
0 0 0
0 0 0
0 0 0
0 0 0
0 0 0
0 0 0
0 0 0
0 0 0
0 0 0
0 0 0
0 0 0
0 0 0
0 0 0
0 0 0
0 0 0
0 0 0
0 0 0
0 0 0
0 0 0
0 0 0
0 0 0
0 0 0
0 0 0
0 0 0
0 0 0
0 0 0
0 0 0
0 0 0
0 0 0
0 0 0
0 0 0
0 0 0
0 0 0
0 0 0
0 0 0
0 0 0
0 0 0
0 0 0
0 0 0
0 0 0
0 0 0
0 0 0
0 0 0
0 0 0
0 0 0
0 0 0
0 0 0
0 0 0
0 0 0
0 0 0
0 0 0
0 0 0
0 0 0
0 0 0
0 0 0
0 0 0
0 0 0
0 0 0
0 0 0
0 0 0
0 0 0
0 0 0
0 0 0
0 0 0
0 0 0
0 0 0
0 0 0
0 0 0
0 0 0
0 0 0
0 0 0
0 0 0
0 0 0
0 0 0
0 0 0
0 0 0
0 0 0
0 0 0
0 0 0
0 0 0
0 0 0
0 0 0
0 0 0
0 0 0
0 0 0
0 0 0
0 0 0
0 0 0
0 0 0
0 0 0
0 0 0
0 0 0
0 0 0
0 0 0
0 0 0
0 0 0
0 0 0
0 0 0
0 0 0
0 0 0
0 0 0
0 0 0
0 0 0
0 0 0
0 0 0
0 0 0
0 0 0
0 0 0
0 0 0
0 0 0
0 0 0
0 0 0
0 0 0
0 0 0
0 0 0
0 0 0
0 0 0
0 0 0
0 0 0
0 0 0
0 0 0
0 0 0
0 0 0
0 0 0
0 0 0
0 0 0
0 0 0
0 0 0
0 0 0
0 0 0
0 0 0
0 0 0
0 0 0
0 0 0
0 0 0
0 0 0
0 0 0
0 0 0
0 0 0
0 0 0
0 0 0
0 0 0
0 0 0
0 0 0
0 0 0
0 0 0
0 0 0
0 0 0
0 0 0
0 0 0
0 0 0
0 0 0
0 0 0
0 0 0
0 0 0
0 0 0
0 0 0
0 0 0
0 0 0
0 0 0
0 0 0
0 0 0
0 0 0
0 0 0
0 0 0
0 0 0
0 0 0
0 0 0
0 0 0
0 0 0
0 0 0
0 0 0
0 0 0
0 0 0
0 0 0
0 0 0
0 0 0
0 0 0
0 0 0
0 0 0
0 0 0
0 0 0
0 0 0
0 0 0
0 0 0
0 0 0
0 0 0
0 0 0
0 0 0
0 0 0
0 0 0
0 0 0
0 0 0
0 0 0
0 0 0
0 0 0
0 0 0
0 0 0
0 0 0
0 0 0
0 0 0
0 0 0
0 0 0
0 0 0
0 0 0
0 0 0
0 0 0
0 0 0
0 0 0
0 0 0
0 0 0
0 0 0
0 0 0
0 0 0
0 0 0
0 0 0
0 0 0
0 0 0
0 0 0
0 0 0
0 0 0
0 0 0
0 0 0
0 0 0
0 0 0
0 0 0
0 0 0
0 0 0
0 0 0
0 0 0
0 0 0
0 0 0
0 0 0
0 0 0
0 0 0
0 0 0
0 0 0
0 0 0
0 0 0
0 0 0
0 0 0
0 0 0
0 0 0
0 0 0
0 0 0
0 0 0
0 0 0
0 0 0
0 0 0
0 0 0
0 0 0
0 0 0
0 0 0
0 0 0
0 0 0
0 0 0
0 0 0
0 0 0
0 0 0
0 0 0
0 0 0
0 0 0
0 0 0
0 0 0
0 0 0
0 0 0
0 0 0
0 0 0
0 0 0
0 0 0
0 0 0
0 0 0
0 0 0
0 0 0
0 0 0
0 0 0
0 0 0
0 0 0
0 0 0
0 0 0
0 0 0
0 0 0
0 0 0
0 0 0
0 0 0
0 0 0
0 0 0
0 0 0
0 0 0
0 0 0
0 0 0
0 0 0
0 0 0
0 0 0
0 0 0
0 0 0
0 0 0
0 0 0
0 0 0
0 0 0
0 0 0
0 0 0
0 0 0
0 0 0
0 0 0
0 0 0
0 0 0
0 0 0
0 0 0
0 0 0
0 0 0
0 0 0
0 0 0
0 0 0
0 0 0
0 0 0
0 0 0
0 0 0
0 0 0
0 0 0
0 0 0
0 0 0
0 0 0
0 0 0
0 0 0
0 0 0
0 0 0
0 0 0
0 0 0
0 0 0
0 0 0
0 0 0
0 0 0
0 0 0
0 0 0
0 0 0
0 0 0
0 0 0
0 0 0
0 0 0
0 0 0
0 0 0
0 0 0
0 0 0
0 0 0
0 0 0
0 0 0
0 0 0
0 0 0
0 0 0
0 0 0
0 0 0
0 0 0
0 0 0
0 0 0
0 0 0
0 0 0
0 0 0
0 0 0
0 0 0
0 0 0
0 0 0
0 0 0
0 0 0
0 0 0
0 0 0
0 0 0
0 0 0
0 0 0
0 0 0
0 0 0
0 0 0
0 0 0
0 0 0
0 0 0
0 0 0
0 0 0
0 0 0
0 0 0
0 0 0
0 0 0
0 0 0
0 0 0
0 0 0
0 0 0
0 0 0
0 0 0
0 0 0
0 0 0
0 0 0
0 0 0
0 0 0
0 0 0
0 0 0
0 0 0
0 0 0
0 0 0
0 0 0
0 0 0
0 0 0
0 0 0
0 0 0
0 0 0
0 0 0
0 0 0
0 0 0
0 0 0
0 0 0
0 0 0
0 0 0
0 0 0
0 0 0
0 0 0
0 0 0
0 0 0
0 0 0
0 0 0
0 0 0
0 0 0
0 0 0
0 0 0
0 0 0
0 0 0
0 0 0
0 0 0
0 0 0
0 0 0
0 0 0
0 0 0
0 0 0
0 0 0
0 0 0
0 0 0
0 0 0
0 0 0
0 0 0
0 0 0
0 0 0
0 0 0
0 0 0
0 0 0
0 0 0
0 0 0
0 0 0
0 0 0
0 0 0
0 0 0
0 0 0
0 0 0
0 0 0
0 0 0
0 0 0
0 0 0
0 0 0
0 0 0
0 0 0
0 0 0
0 0 0
0 0 0
0 0 0
0 0 0
0 0 0
0 0 0
0 0 0
0 0 0
0 0 0
0 0 0
0 0 0
0 0 0
0 0 0
0 0 0
0 0 0
0 0 0
0 0 0
0 0 0
0 0 0
0 0 0
0 0 0
0 0 0
0 0 0
0 0 0
0 0 0
0 0 0
0 0 0
0 0 0
0 0 0
0 0 0
0 0 0
0 0 0
0 0 0
0 0 0
0 0 0
0 0 0
0 0 0
0 0 0
0 0 0
0 0 0
0 0 0
0 0 0
0 0 0
0 0 0
0 0 0
0 0 0
0 0 0
0 0 0
0 0 0
0 0 0
0 0 0
0 0 0
0 0 0
0 0 0
0 0 0
0 0 0
0 0 0
0 0 0
0 0 0
0 0 0
0 0 0
0 0 0
0 0 0
0 0 0
0 0 0
0 0 0
0 0 0
0 0 0
0 0 0
0 0 0
0 0 0
0 0 0
0 0 0
0 0 0
0 0 0
0 0 0
0 0 0
0 0 0
0 0 0
0 0 0
0 0 0
0 0 0
0 0 0
0 0 0
0 0 0
0 0 0
0 0 0
0 0 0
0 0 0
0 0 0
0 0 0
0 0 0
0 0 0
0 0 0
0 0 0
0 0 0
0 0 0
0 0 0
0 0 0
0 0 0
0 0 0
0 0 0
0 0 0
0 0 0
0 0 0
0 0 0
0 0 0
0 0 0
0 0 0
0 0 0
0 0 0
0 0 0
0 0 0
0 0 0
0 0 0
0 0 0
0 0 0
0 0 0
0 0 0
0 0 0
0 0 0
0 0 0
0 0 0
0 0 0
0 0 0
0 0 0
0 0 0
0 0 0
0 0 0
0 0 0
0 0 0
0 0 0
0 0 0
0 0 0
0 0 0
0 0 0
0 0 0
0 0 0
0 0 0
0 0 0
0 0 0
0 0 0
0 0 0
0 0 0
0 0 0
0 0 0
0 0 0
0 0 0
0 0 0
0 0 0
0 0 0
0 0 0
0 0 0
0 0 0
0 0 0
0 0 0
0 0 0
0 0 0
0 0 0
0 0 0
0 0 0
0 0 0
0 0 0
0 0 0
0 0 0
0 0 0
0 0 0
0 0 0
0 0 0
0 0 0
0 0 0
0 0 0
0 0 0
0 0 0
0 0 0
0 0 0
0 0 0
0 0 0
0 0 0
0 0 0
0 0 0
0 0 0
0 0 0
0 0 0
0 0 0
0 0 0
0 0 0
0 0 0
0 0 0
0 0 0
0 0 0
0 0 0
0 0 0
0 0 0
0 0 0
0 0 0
0 0 0
0 0 0
0 0 0
0 0 0
0 0 0
0 0 0
0 0 0
0 0 0
0 0 0
0 0 0
0 0 0
0 0 0
0 0 0
0 0 0
0 0 0
0 0 0
0 0 0
0 0 0
0 0 0
0 0 0
0 0 0
0 0 0
0 0 0
0 0 0
0 0 0
0 0 0
0 0 0
0 0 0
0 0 0
0 0 0
0 0 0
0 0 0
0 0 0
0 0 0
0 0 0
0 0 0
0 0 0
0 0 0
0 0 0
0 0 0
0 0 0
0 0 0
0 0 0
0 0 0
0 0 0
0 0 0
0 0 0
0 0 0
0 0 0
0 0 0
0 0 0
0 0 0
0 0 0
0 0 0
0 0 0
0 0 0
0 0 0
0 0 0
0 0 0
0 0 0
0 0 0
0 0 0
0 0 0
0 0 0
0 0 0
0 0 0
0 0 0
0 0 0
0 0 0
0 0 0
0 0 0
0 0 0
0 0 0
0 0 0
0 0 0
0 0 0
0 0 0
0 0 0
0 0 0
0 0 0
0 0 0
0 0 0
0 0 0
0 0 0
0 0 0
0 0 0
0 0 0
0 0 0
0 0 0
0 0 0
0 0 0
0 0 0
0 0 0
0 0 0
0 0 0
0 0 0
0 0 0
0 0 0
0 0 0
0 0 0
0 0 0
0 0 0
0 0 0
0 0 0
0 0 0
0 0 0
0 0 0
0 0 0
0 0 0
0 0 0
0 0 0
0 0 0
0 0 0
0 0 0
0 0 0
0 0 0
0 0 0
0 0 0
0 0 0
0 0 0
0 0 0
0 0 0
0 0 0
0 0 0
0 0 0
0 0 0
0 0 0
0 0 0
0 0 0
0 0 0
0 0 0
0 0 0
0 0 0
0 0 0
0 0 0
0 0 0
0 0 0
0 0 0
0 0 0
0 0 0
0 0 0
0 0 0
0 0 0
0 0 0
0 0 0
0 0 0
0 0 0
0 0 0
0 0 0
0 0 0
0 0 0
0 0 0
0 0 0
0 0 0
0 0 0
0 0 0
0 0 0
0 0 0
0 0 0
0 0 0
0 0 0
0 0 0
0 0 0
0 0 0
0 0 0
0 0 0
0 0 0
0 0 0
0 0 0
0 0 0
0 0 0
0 0 0
0 0 0
0 0 0
0 0 0
0 0 0
0 0 0
0 0 0
0 0 0
0 0 0
0 0 0
0 0 0
0 0 0
0 0 0
0 0 0
0 0 0
0 0 0
0 0 0
0 0 0
0 0 0
0 0 0
0 0 0
0 0 0
0 0 0
0 0 0
0 0 0
0 0 0
0 0 0
0 0 0
0 0 0
0 0 0
0 0 0
0 0 0
0 0 0
0 0 0
0 0 0
0 0 0
0 0 0
0 0 0
0 0 0
0 0 0
0 0 0
0 0 0
0 0 0
0 0 0
0 0 0
0 0 0
0 0 0
0 0 0
0 0 0
0 0 0
0 0 0
0 0 0
0 0 0
0 0 0
0 0 0
0 0 0
0 0 0
0 0 0
0 0 0
0 0 0
0 0 0
0 0 0
0 0 0
0 0 0
0 0 0
0 0 0
0 0 0
0 0 0
0 0 0
0 0 0
0 0 0
0 0 0
0 0 0
0 0 0
0 0 0
0 0 0
0 0 0
0 0 0
0 0 0
0 0 0
0 0 0
0 0 0
0 0 0
0 0 0
0 0 0
0 0 0
0 0 0
0 0 0
0 0 0
0 0 0
0 0 0
0 0 0
0 0 0
0 0 0
0 0 0
0 0 0
0 0 0
0 0 0
0 0 0
0 0 0
0 0 0
0 0 0
0 0 0
0 0 0
0 0 0
0 0 0
0 0 0
0 0 0
0 0 0
0 0 0
0 0 0
0 0 0
0 0 0
0 0 0
0 0 0
0 0 0
0 0 0
0 0 0
0 0 0
0 0 0
0 0 0
0 0 0
0 0 0
0 0 0
0 0 0
0 0 0
0 0 0
0 0 0
0 0 0
0 0 0
0 0 0
0 0 0
0 0 0
0 0 0
0 0 0
0 0 0
0 0 0
0 0 0
0 0 0
0 0 0
0 0 0
0 0 0
0 0 0
0 0 0
0 0 0
0 0 0
0 0 0
0 0 0
0 0 0
0 0 0
0 0 0
0 0 0
0 0 0
0 0 0
0 0 0
0 0 0
0 0 0
0 0 0
0 0 0
0 0 0
0 0 0
0 0 0
0 0 0
0 0 0
0 0 0
0 0 0
0 0 0
0 0 0
0 0 0
0 0 0
0 0 0
0 0 0
0 0 0
0 0 0
0 0 0
0 0 0
0 0 0
0 0 0
0 0 0
0 0 0
0 0 0
0 0 0
0 0 0
0 0 0
0 0 0
0 0 0
0 0 0
0 0 0
0 0 0
0 0 0
0 0 0
0 0 0
0 0 0
0 0 0
0 0 0
0 0 0
0 0 0
0 0 0
0 0 0
0 0 0
0 0 0
0 0 0
0 0 0
0 0 0
0 0 0
0 0 0
0 0 0
0 0 0
0 0 0
0 0 0
0 0 0
0 0 0
0 0 0
0 0 0
0 0 0
0 0 0
0 0 0
0 0 0
0 0 0
0 0 0
0 0 0
0 0 0
0 0 0
0 0 0
0 0 0
0 0 0
0 0 0
0 0 0
0 0 0
0 0 0
0 0 0
0 0 0
0 0 0
0 0 0
0 0 0
0 0 0
0 0 0
0 0 0
0 0 0
0 0 0
0 0 0
0 0 0
0 0 0
0 0 0
0 0 0
0 0 0
0 0 0
0 0 0
0 0 0
0 0 0
0 0 0
0 0 0
0 0 0
0 0 0
0 0 0
0 0 0
0 0 0
0 0 0
0 0 0
0 0 0
0 0 0
0 0 0
0 0 0
0 0 0
0 0 0
0 0 0
0 0 0
0 0 0
0 0 0
0 0 0
0 0 0
0 0 0
0 0 0
0 0 0
0 0 0
0 0 0
0 0 0
0 0 0
0 0 0
0 0 0
0 0 0
0 0 0
0 0 0
0 0 0
0 0 0
0 0 0
0 0 0
0 0 0
0 0 0
0 0 0
0 0 0
0 0 0
0 0 0
0 0 0
0 0 0
0 0 0
0 0 0
0 0 0
0 0 0
0 0 0
0 0 0
0 0 0
0 0 0
0 0 0
0 0 0
0 0 0
0 0 0
0 0 0
0 0 0
0 0 0
0 0 0
0 0 0
0 0 0
0 0 0
0 0 0
0 0 0
0 0 0
0 0 0
0 0 0
0 0 0
0 0 0
0 0 0
0 0 0
0 0 0
0 0 0
0 0 0
0 0 0
0 0 0
0 0 0
0 0 0
0 0 0
0 0 0
0 0 0
0 0 0
0 0 0
0 0 0
0 0 0
0 0 0
0 0 0
0 0 0
0 0 0
0 0 0
0 0 0
0 0 0
0 0 0
0 0 0
0 0 0
0 0 0
0 0 0
0 0 0
0 0 0
0 0 0
0 0 0
0 0 0
0 0 0
0 0 0
0 0 0
0 0 0
0 0 0
0 0 0
0 0 0
0 0 0
0 0 0
0 0 0
0 0 0
0 0 0
0 0 0
0 0 0
0 0 0
0 0 0
0 0 0
0 0 0
0 0 0
0 0 0
0 0 0
0 0 0
0 0 0
0 0 0
0 0 0
0 0 0
0 0 0
0 0 0
0 0 0
0 0 0
0 0 0
0 0 0
0 0 0
0 0 0
0 0 0
0 0 0
0 0 0
0 0 0
0 0 0
0 0 0
0 0 0
0 0 0
0 0 0
0 0 0
0 0 0
0 0 0
0 0 0
0 0 0
0 0 0
0 0 0
0 0 0
0 0 0
0 0 0
0 0 0
0 0 0
0 0 0
0 0 0
0 0 0
0 0 0
0 0 0
0 0 0
0 0 0
0 0 0
0 0 0
0 0 0
0 0 0
0 0 0
0 0 0
0 0 0
0 0 0
0 0 0
0 0 0
0 0 0
0 0 0
0 0 0
0 0 0
0 0 0
0 0 0
0 0 0
0 0 0
0 0 0
0 0 0
0 0 0
0 0 0
0 0 0
0 0 0
0 0 0
0 0 0
0 0 0
0 0 0
0 0 0
0 0 0
0 0 0
0 0 0
0 0 0
0 0 0
0 0 0
0 0 0
0 0 0
0 0 0
0 0 0
0 0 0
0 0 0
0 0 0
0 0 0
0 0 0
0 0 0
0 0 0
0 0 0
0 0 0
0 0 0
0 0 0
0 0 0
0 0 0
0 0 0
0 0 0
0 0 0
0 0 0
0 0 0
0 0 0
0 0 0
0 0 0
0 0 0
0 0 0
0 0 0
0 0 0
0 0 0
0 0 0
0 0 0
0 0 0
0 0 0
0 0 0
0 0 0
0 0 0
0 0 0
0 0 0
0 0 0
0 0 0
0 0 0
0 0 0
0 0 0
0 0 0
0 0 0
0 0 0
0 0 0
0 0 0
0 0 0
0 0 0
0 0 0
0 0 0
0 0 0
0 0 0
0 0 0
0 0 0
0 0 0
0 0 0
0 0 0
0 0 0
0 0 0
0 0 0
0 0 0
0 0 0
0 0 0
0 0 0
0 0 0
0 0 0
0 0 0
0 0 0
0 0 0
0 0 0
0 0 0
0 0 0
0 0 0
0 0 0
0 0 0
0 0 0
0 0 0
0 0 0
0 0 0
0 0 0
0 0 0
0 0 0
0 0 0
0 0 0
0 0 0
0 0 0
0 0 0
0 0 0
0 0 0
0 0 0
0 0 0
0 0 0
0 0 0
0 0 0
0 0 0
0 0 0
0 0 0
0 0 0
0 0 0
0 0 0
0 0 0
0 0 0
0 0 0
0 0 0
0 0 0
0 0 0
0 0 0
0 0 0
0 0 0
0 0 0
0 0 0
0 0 0
0 0 0
0 0 0
0 0 0
0 0 0
0 0 0
0 0 0
0 0 0
0 0 0
0 0 0
0 0 0
0 0 0
0 0 0
0 0 0
0 0 0
0 0 0
0 0 0
0 0 0
0 0 0
0 0 0
0 0 0
0 0 0
0 0 0
0 0 0
0 0 0
0 0 0
0 0 0
0 0 0
0 0 0
0 0 0
0 0 0
0 0 0
0 0 0
0 0 0
0 0 0
0 0 0
0 0 0
0 0 0
0 0 0
0 0 0
0 0 0
0 0 0
0 0 0
0 0 0
0 0 0
0 0 0
0 0 0
0 0 0
0 0 0
0 0 0
0 0 0
0 0 0
0 0 0
0 0 0
0 0 0
0 0 0
0 0 0
0 0 0
0 0 0
0 0 0
0 0 0
0 0 0
0 0 0
0 0 0
0 0 0
0 0 0
0 0 0
0 0 0
0 0 0
0 0 0
0 0 0
0 0 0
0 0 0
0 0 0
0 0 0
0 0 0
0 0 0
0 0 0
0 0 0
0 0 0
0 0 0
0 0 0
0 0 0
0 0 0
0 0 0
0 0 0
0 0 0
0 0 0
0 0 0
0 0 0
0 0 0
0 0 0
0 0 0
0 0 0
0 0 0
0 0 0
0 0 0
0 0 0
0 0 0
0 0 0
0 0 0
0 0 0
0 0 0
0 0 0
0 0 0
0 0 0
0 0 0
0 0 0
0 0 0
0 0 0
0 0 0
0 0 0
0 0 0
0 0 0
0 0 0
0 0 0
0 0 0
0 0 0
0 0 0
0 0 0
0 0 0
0 0 0
0 0 0
0 0 0
0 0 0
0 0 0
0 0 0
0 0 0
0 0 0
0 0 0
0 0 0
0 0 0
0 0 0
0 0 0
0 0 0
0 0 0
0 0 0
0 0 0
0 0 0
0 0 0
0 0 0
0 0 0
0 0 0
0 0 0
0 0 0
0 0 0
0 0 0
0 0 0
0 0 0
0 0 0
0 0 0
0 0 0
0 0 0
0 0 0
0 0 0
0 0 0
0 0 0
0 0 0
0 0 0
0 0 0
0 0 0
0 0 0
0 0 0
0 0 0
0 0 0
0 0 0
0 0 0
0 0 0
0 0 0
0 0 0
0 0 0
0 0 0
0 0 0
0 0 0
0 0 0
0 0 0
0 0 0
0 0 0
0 0 0
0 0 0
0 0 0
0 0 0
0 0 0
0 0 0
0 0 0
0 0 0
0 0 0
0 0 0
0 0 0
0 0 0
0 0 0
0 0 0
0 0 0
0 0 0
0 0 0
0 0 0
0 0 0
0 0 0
0 0 0
0 0 0
0 0 0
0 0 0
0 0 0
0 0 0
0 0 0
0 0 0
0 0 0
0 0 0
0 0 0
0 0 0
0 0 0
0 0 0
0 0 0
0 0 0
0 0 0
0 0 0
0 0 0
0 0 0
0 0 0
0 0 0
0 0 0
0 0 0
0 0 0
0 0 0
0 0 0
0 0 0
0 0 0
0 0 0
0 0 0
0 0 0
0 0 0
0 0 0
0 0 0
0 0 0
0 0 0
0 0 0
0 0 0
0 0 0
0 0 0
0 0 0
0 0 0
0 0 0
0 0 0
0 0 0
0 0 0
0 0 0
0 0 0
0 0 0
0 0 0
0 0 0
0 0 0
0 0 0
0 0 0
0 0 0
0 0 0
0 0 0
0 0 0
0 0 0
0 0 0
0 0 0
0 0 0
0 0 0
0 0 0
0 0 0
0 0 0
0 0 0
0 0 0
0 0 0
0 0 0
0 0 0
0 0 0
0 0 0
0 0 0
0 0 0
0 0 0
0 0 0
0 0 0
0 0 0
0 0 0
0 0 0
0 0 0
0 0 0
0 0 0
0 0 0
0 0 0
0 0 0
0 0 0
0 0 0
0 0 0
0 0 0
0 0 0
0 0 0
0 0 0
0 0 0
0 0 0
0 0 0
0 0 0
0 0 0
0 0 0
0 0 0
0 0 0
0 0 0
0 0 0
0 0 0
0 0 0
0 0 0
0 0 0
0 0 0
0 0 0
0 0 0
0 0 0
0 0 0
0 0 0
0 0 0
0 0 0
0 0 0
0 0 0
0 0 0
0 0 0
0 0 0
0 0 0
0 0 0
0 0 0
0 0 0
0 0 0
0 0 0
0 0 0
0 0 0
0 0 0
0 0 0
0 0 0
0 0 0
0 0 0
0 0 0
0 0 0
0 0 0
0 0 0
0 0 0
0 0 0
0 0 0
0 0 0
0 0 0
0 0 0
0 0 0
0 0 0
0 0 0
0 0 0
0 0 0
0 0 0
0 0 0
0 0 0
0 0 0
0 0 0
0 0 0
0 0 0
0 0 0
0 0 0
0 0 0
0 0 0
0 0 0
0 0 0
0 0 0
0 0 0
0 0 0
0 0 0
0 0 0
0 0 0
0 0 0
0 0 0
0 0 0
0 0 0
0 0 0
0 0 0
0 0 0
0 0 0
0 0 0
0 0 0
0 0 0
0 0 0
0 0 0
0 0 0
0 0 0
0 0 0
0 0 0
0 0 0
0 0 0
0 0 0
0 0 0
0 0 0
0 0 0
0 0 0
0 0 0
0 0 0
0 0 0
0 0 0
0 0 0
0 0 0
0 0 0
0 0 0
0 0 0
0 0 0
0 0 0
0 0 0
0 0 0
0 0 0
0 0 0
0 0 0
0 0 0
0 0 0
0 0 0
0 0 0
0 0 0
0 0 0
0 0 0
0 0 0
0 0 0
0 0 0
0 0 0
0 0 0
0 0 0
0 0 0
0 0 0
0 0 0
0 0 0
0 0 0
0 0 0
0 0 0
0 0 0
0 0 0
0 0 0
0 0 0
0 0 0
0 0 0
0 0 0
0 0 0
0 0 0
0 0 0
0 0 0
0 0 0
0 0 0
0 0 0
0 0 0
0 0 0
0 0 0
0 0 0
0 0 0
0 0 0
0 0 0
0 0 0
0 0 0
0 0 0
0 0 0
0 0 0
0 0 0
0 0 0
0 0 0
0 0 0
0 0 0
0 0 0
0 0 0
0 0 0
0 0 0
0 0 0
0 0 0
0 0 0
0 0 0
0 0 0
0 0 0
0 0 0
0 0 0
0 0 0
0 0 0
0 0 0
0 0 0
0 0 0
0 0 0
0 0 0
0 0 0
0 0 0
0 0 0
0 0 0
0 0 0
0 0 0
0 0 0
0 0 0
0 0 0
0 0 0
0 0 0
0 0 0
0 0 0
0 0 0
0 0 0
0 0 0
0 0 0
0 0 0
0 0 0
0 0 0
0 0 0
0 0 0
0 0 0
0 0 0
0 0 0
0 0 0
0 0 0
0 0 0
0 0 0
0 0 0
0 0 0
0 0 0
0 0 0
0 0 0
0 0 0
0 0 0
0 0 0
0 0 0
0 0 0
0 0 0
0 0 0
0 0 0
0 0 0
0 0 0
0 0 0
0 0 0
0 0 0
0 0 0
0 0 0
0 0 0
0 0 0
0 0 0
0 0 0
0 0 0
0 0 0
0 0 0
0 0 0
0 0 0
0 0 0
0 0 0
0 0 0
0 0 0
0 0 0
0 0 0
0 0 0
0 0 0
0 0 0
0 0 0
0 0 0
0 0 0
0 0 0
0 0 0
0 0 0
0 0 0
0 0 0
0 0 0
0 0 0
0 0 0
0 0 0
0 0 0
0 0 0
0 0 0
0 0 0
0 0 0
0 0 0
0 0 0
0 0 0
0 0 0
0 0 0
0 0 0
0 0 0
0 0 0
0 0 0
0 0 0
0 0 0
0 0 0
0 0 0
0 0 0
0 0 0
0 0 0
0 0 0
0 0 0
0 0 0
0 0 0
0 0 0
0 0 0
0 0 0
0 0 0
0 0 0
0 0 0
0 0 0
0 0 0
0 0 0
0 0 0
0 0 0
0 0 0
0 0 0
0 0 0
0 0 0
0 0 0
0 0 0
0 0 0
0 0 0
0 0 0
0 0 0
0 0 0
0 0 0
0 0 0
0 0 0
0 0 0
0 0 0
0 0 0
0 0 0
0 0 0
0 0 0
0 0 0
0 0 0
0 0 0
0 0 0
0 0 0
0 0 0
0 0 0
0 0 0
0 0 0
0 0 0
0 0 0
0 0 0
0 0 0
0 0 0
0 0 0
0 0 0
0 0 0
0 0 0
0 0 0
0 0 0
0 0 0
0 0 0
0 0 0
0 0 0
0 0 0
0 0 0
0 0 0
0 0 0
0 0 0
0 0 0
0 0 0
0 0 0
0 0 0
0 0 0
0 0 0
0 0 0
0 0 0
0 0 0
0 0 0
0 0 0
0 0 0
0 0 0
0 0 0
0 0 0
0 0 0
0 0 0
0 0 0
0 0 0
0 0 0
0 0 0
0 0 0
0 0 0
0 0 0
0 0 0
0 0 0
0 0 0
0 0 0
0 0 0
0 0 0
0 0 0
0 0 0
0 0 0
0 0 0
0 0 0
0 0 0
0 0 0
0 0 0
0 0 0
0 0 0
0 0 0
0 0 0
0 0 0
0 0 0
0 0 0
0 0 0
0 0 0
0 0 0
0 0 0
0 0 0
0 0 0
0 0 0
0 0 0
0 0 0
0 0 0
0 0 0
0 0 0
0 0 0
0 0 0
0 0 0
0 0 0
0 0 0
0 0 0
0 0 0
0 0 0
0 0 0
0 0 0
0 0 0
0 0 0
0 0 0
0 0 0
0 0 0
0 0 0
0 0 0
0 0 0
0 0 0
0 0 0
0 0 0
0 0 0
0 0 0
0 0 0
0 0 0
0 0 0
0 0 0
0 0 0
0 0 0
0 0 0
0 0 0
0 0 0
0 0 0
0 0 0
0 0 0
0 0 0
0 0 0
0 0 0
0 0 0
0 0 0
0 0 0
0 0 0
0 0 0
0 0 0
0 0 0
0 0 0
0 0 0
0 0 0
0 0 0
0 0 0
0 0 0
0 0 0
0 0 0
0 0 0
0 0 0
0 0 0
0 0 0
0 0 0
0 0 0
0 0 0
0 0 0
0 0 0
0 0 0
0 0 0
0 0 0
0 0 0
0 0 0
0 0 0
0 0 0
0 0 0
0 0 0
0 0 0
0 0 0
0 0 0
0 0 0
0 0 0
0 0 0
0 0 0
0 0 0
0 0 0
0 0 0
0 0 0
0 0 0
0 0 0
0 0 0
0 0 0
0 0 0
0 0 0
0 0 0
0 0 0
0 0 0
0 0 0
0 0 0
0 0 0
0 0 0
0 0 0
0 0 0
0 0 0
0 0 0
0 0 0
0 0 0
0 0 0
0 0 0
0 0 0
0 0 0
0 0 0
0 0 0
0 0 0
0 0 0
0 0 0
0 0 0
0 0 0
0 0 0
0 0 0
0 0 0
0 0 0
0 0 0
0 0 0
0 0 0
0 0 0
0 0 0
0 0 0
0 0 0
0 0 0
0 0 0
0 0 0
0 0 0
0 0 0
0 0 0
0 0 0
0 0 0
0 0 0
0 0 0
0 0 0
0 0 0
0 0 0
0 0 0
0 0 0
0 0 0
0 0 0
0 0 0
0 0 0
0 0 0
0 0 0
0 0 0
0 0 0
0 0 0
0 0 0
0 0 0
0 0 0
0 0 0
0 0 0
0 0 0
0 0 0
0 0 0
0 0 0
0 0 0
0 0 0
0 0 0
0 0 0
0 0 0
0 0 0
0 0 0
0 0 0
0 0 0
0 0 0
0 0 0
0 0 0
0 0 0
0 0 0
0 0 0
0 0 0
0 0 0
0 0 0
0 0 0
0 0 0
0 0 0
0 0 0
0 0 0
0 0 0
0 0 0
0 0 0
0 0 0
0 0 0
0 0 0
0 0 0
0 0 0
0 0 0
0 0 0
0 0 0
0 0 0
0 0 0
0 0 0
0 0 0
0 0 0
0 0 0
0 0 0
0 0 0
0 0 0
0 0 0
0 0 0
0 0 0
0 0 0
0 0 0
0 0 0
0 0 0
0 0 0
0 0 0
0 0 0
0 0 0
0 0 0
0 0 0
0 0 0
0 0 0
0 0 0
0 0 0
0 0 0
0 0 0
0 0 0
0 0 0
0 0 0
0 0 0
0 0 0
0 0 0
0 0 0
0 0 0
0 0 0
0 0 0
0 0 0
0 0 0
0 0 0
0 0 0
0 0 0
0 0 0
0 0 0
0 0 0
0 0 0
0 0 0
0 0 0
0 0 0
0 0 0
0 0 0
0 0 0
0 0 0
0 0 0
0 0 0
0 0 0
0 0 0
0 0 0
0 0 0
0 0 0
0 0 0
0 0 0
0 0 0
0 0 0
0 0 0
0 0 0
0 0 0
0 0 0
0 0 0
0 0 0
0 0 0
0 0 0
0 0 0
0 0 0
0 0 0
0 0 0
0 0 0
0 0 0
0 0 0
0 0 0
0 0 0
0 0 0
0 0 0
0 0 0
0 0 0
0 0 0
0 0 0
0 0 0
0 0 0
0 0 0
0 0 0
0 0 0
0 0 0
0 0 0
0 0 0
0 0 0
0 0 0
0 0 0
0 0 0
0 0 0
0 0 0
0 0 0
0 0 0
0 0 0
0 0 0
0 0 0
0 0 0
0 0 0
0 0 0
0 0 0
0 0 0
0 0 0
0 0 0
0 0 0
0 0 0
0 0 0
0 0 0
0 0 0
0 0 0
0 0 0
0 0 0
0 0 0
0 0 0
0 0 0
0 0 0
0 0 0
0 0 0
0 0 0
0 0 0
0 0 0
0 0 0
0 0 0
0 0 0
0 0 0
0 0 0
0 0 0
0 0 0
0 0 0
0 0 0
0 0 0
0 0 0
0 0 0
0 0 0
0 0 0
0 0 0
0 0 0
0 0 0
0 0 0
0 0 0
0 0 0
0 0 0
0 0 0
0 0 0
0 0 0
0 0 0
0 0 0
0 0 0
0 0 0
0 0 0
0 0 0
0 0 0
0 0 0
0 0 0
0 0 0
0 0 0
0 0 0
0 0 0
0 0 0
0 0 0
0 0 0
0 0 0
0 0 0
0 0 0
0 0 0
0 0 0
0 0 0
0 0 0
0 0 0
0 0 0
0 0 0
0 0 0
0 0 0
0 0 0
0 0 0
0 0 0
0 0 0
0 0 0
0 0 0
0 0 0
0 0 0
0 0 0
0 0 0
0 0 0
0 0 0
0 0 0
0 0 0
0 0 0
0 0 0
0 0 0
0 0 0
0 0 0
0 0 0
0 0 0
0 0 0
0 0 0
0 0 0
0 0 0
0 0 0
0 0 0
0 0 0
0 0 0
0 0 0
0 0 0
0 0 0
0 0 0
0 0 0
0 0 0
0 0 0
0 0 0
0 0 0
0 0 0
0 0 0
0 0 0
0 0 0
0 0 0
0 0 0
0 0 0
0 0 0
0 0 0
0 0 0
0 0 0
0 0 0
0 0 0
0 0 0
0 0 0
0 0 0
0 0 0
0 0 0
0 0 0
0 0 0
0 0 0
0 0 0
0 0 0
0 0 0
0 0 0
0 0 0
0 0 0
0 0 0
0 0 0
0 0 0
0 0 0
0 0 0
0 0 0
0 0 0
0 0 0
0 0 0
0 0 0
0 0 0
0 0 0
0 0 0
0 0 0
0 0 0
0 0 0
0 0 0
0 0 0
0 0 0
0 0 0
0 0 0
0 0 0
0 0 0
0 0 0
0 0 0
0 0 0
0 0 0
0 0 0
0 0 0
0 0 0
0 0 0
0 0 0
0 0 0
0 0 0
0 0 0
0 0 0
0 0 0
0 0 0
0 0 0
0 0 0
0 0 0
0 0 0
0 0 0
0 0 0
0 0 0
0 0 0
0 0 0
0 0 0
0 0 0
0 0 0
0 0 0
0 0 0
0 0 0
0 0 0
0 0 0
0 0 0
0 0 0
0 0 0
0 0 0
0 0 0
0 0 0
0 0 0
0 0 0
0 0 0
0 0 0
0 0 0
0 0 0
0 0 0
0 0 0
0 0 0
0 0 0
0 0 0
0 0 0
0 0 0
0 0 0
0 0 0
0 0 0
0 0 0
0 0 0
0 0 0
0 0 0
0 0 0
0 0 0
0 0 0
0 0 0
0 0 0
0 0 0
0 0 0
0 0 0
0 0 0
0 0 0
0 0 0
0 0 0
0 0 0
0 0 0
0 0 0
0 0 0
0 0 0
0 0 0
0 0 0
0 0 0
0 0 0
0 0 0
0 0 0
0 0 0
0 0 0
0 0 0
0 0 0
0 0 0
0 0 0
0 0 0
0 0 0
0 0 0
0 0 0
0 0 0
0 0 0
0 0 0
0 0 0
0 0 0
0 0 0
0 0 0
0 0 0
0 0 0
0 0 0
0 0 0
0 0 0
0 0 0
0 0 0
0 0 0
0 0 0
0 0 0
0 0 0
0 0 0
0 0 0
0 0 0
0 0 0
0 0 0
0 0 0
0 0 0
0 0 0
0 0 0
0 0 0
0 0 0
0 0 0
0 0 0
0 0 0
0 0 0
0 0 0
0 0 0
0 0 0
0 0 0
0 0 0
0 0 0
0 0 0
0 0 0
0 0 0
0 0 0
0 0 0
0 0 0
0 0 0
0 0 0
0 0 0
0 0 0
0 0 0
0 0 0
0 0 0
0 0 0
0 0 0
0 0 0
0 0 0
0 0 0
0 0 0
0 0 0
0 0 0
0 0 0
0 0 0
0 0 0
0 0 0
0 0 0
0 0 0
0 0 0
0 0 0
0 0 0
0 0 0
0 0 0
0 0 0
0 0 0
0 0 0
0 0 0
0 0 0
0 0 0
0 0 0
0 0 0
0 0 0
0 0 0
0 0 0
0 0 0
0 0 0
0 0 0
0 0 0
0 0 0
0 0 0
0 0 0
0 0 0
0 0 0
0 0 0
0 0 0
0 0 0
0 0 0
0 0 0
0 0 0
0 0 0
0 0 0
0 0 0
0 0 0
0 0 0
0 0 0
0 0 0
0 0 0
0 0 0
0 0 0
0 0 0
0 0 0
0 0 0
0 0 0
0 0 0
0 0 0
0 0 0
0 0 0
0 0 0
0 0 0
0 0 0
0 0 0
0 0 0
0 0 0
0 0 0
0 0 0
0 0 0
0 0 0
0 0 0
0 0 0
0 0 0
0 0 0
0 0 0
0 0 0
0 0 0
0 0 0
0 0 0
0 0 0
0 0 0
0 0 0
0 0 0
0 0 0
0 0 0
0 0 0
0 0 0
0 0 0
0 0 0
0 0 0
0 0 0
0 0 0
0 0 0
0 0 0
0 0 0
0 0 0
0 0 0
0 0 0
0 0 0
0 0 0
0 0 0
0 0 0
0 0 0
0 0 0
0 0 0
0 0 0
0 0 0
0 0 0
0 0 0
0 0 0
0 0 0
0 0 0
0 0 0
0 0 0
0 0 0
0 0 0
0 0 0
0 0 0
0 0 0
0 0 0
0 0 0
0 0 0
0 0 0
0 0 0
0 0 0
0 0 0
0 0 0
0 0 0
0 0 0
0 0 0
0 0 0
0 0 0
0 0 0
0 0 0
0 0 0
0 0 0
0 0 0
0 0 0
0 0 0
0 0 0
0 0 0
0 0 0
0 0 0
0 0 0
0 0 0
0 0 0
0 0 0
0 0 0
0 0 0
0 0 0
0 0 0
0 0 0
0 0 0
0 0 0
0 0 0
0 0 0
0 0 0
0 0 0
0 0 0
0 0 0
0 0 0
0 0 0
0 0 0
0 0 0
0 0 0
0 0 0
0 0 0
0 0 0
0 0 0
0 0 0
0 0 0
0 0 0
0 0 0
0 0 0
0 0 0
0 0 0
0 0 0
0 0 0
0 0 0
0 0 0
0 0 0
0 0 0
0 0 0
0 0 0
0 0 0
0 0 0
0 0 0
0 0 0
0 0 0
0 0 0
0 0 0
0 0 0
0 0 0
0 0 0
0 0 0
0 0 0
0 0 0
0 0 0
0 0 0
0 0 0
0 0 0
0 0 0
0 0 0
0 0 0
0 0 0
0 0 0
0 0 0
0 0 0
0 0 0
0 0 0
0 0 0
0 0 0
0 0 0
0 0 0
0 0 0
0 0 0
0 0 0
0 0 0
0 0 0
0 0 0
0 0 0
0 0 0
0 0 0
0 0 0
0 0 0
0 0 0
0 0 0
0 0 0
0 0 0
0 0 0
0 0 0
0 0 0
0 0 0
0 0 0
0 0 0
0 0 0
0 0 0
0 0 0
0 0 0
0 0 0
0 0 0
0 0 0
0 0 0
0 0 0
0 0 0
0 0 0
0 0 0
0 0 0
0 0 0
0 0 0
0 0 0
0 0 0
0 0 0
0 0 0
0 0 0
0 0 0
0 0 0
0 0 0
0 0 0
0 0 0
0 0 0
0 0 0
0 0 0
0 0 0
0 0 0
0 0 0
0 0 0
0 0 0
0 0 0
0 0 0
0 0 0
0 0 0
0 0 0
0 0 0
0 0 0
0 0 0
0 0 0
0 0 0
0 0 0
0 0 0
0 0 0
0 0 0
0 0 0
0 0 0
0 0 0
0 0 0
0 0 0
0 0 0
0 0 0
0 0 0
0 0 0
0 0 0
0 0 0
0 0 0
0 0 0
0 0 0
0 0 0
0 0 0
0 0 0
0 0 0
0 0 0
0 0 0
0 0 0
0 0 0
0 0 0
0 0 0
0 0 0
0 0 0
0 0 0
0 0 0
0 0 0
0 0 0
0 0 0
0 0 0
0 0 0
0 0 0
0 0 0
0 0 0
0 0 0
0 0 0
0 0 0
0 0 0
0 0 0
0 0 0
0 0 0
0 0 0
0 0 0
0 0 0
0 0 0
0 0 0
0 0 0
0 0 0
0 0 0
0 0 0
0 0 0
0 0 0
0 0 0
0 0 0
0 0 0
0 0 0
0 0 0
0 0 0
0 0 0
0 0 0
0 0 0
0 0 0
0 0 0
0 0 0
0 0 0
0 0 0
0 0 0
0 0 0
0 0 0
0 0 0
0 0 0
0 0 0
0 0 0
0 0 0
0 0 0
0 0 0
0 0 0
0 0 0
0 0 0
0 0 0
0 0 0
0 0 0
0 0 0
0 0 0
0 0 0
0 0 0
0 0 0
0 0 0
0 0 0
0 0 0
0 0 0
0 0 0
0 0 0
0 0 0
0 0 0
0 0 0
0 0 0
0 0 0
0 0 0
0 0 0
0 0 0
0 0 0
0 0 0
0 0 0
0 0 0
0 0 0
0 0 0
0 0 0
0 0 0
0 0 0
0 0 0
0 0 0
0 0 0
0 0 0
0 0 0
0 0 0
0 0 0
0 0 0
0 0 0
0 0 0
0 0 0
0 0 0
0 0 0
0 0 0
0 0 0
0 0 0
0 0 0
0 0 0
0 0 0
0 0 0
0 0 0
0 0 0
0 0 0
0 0 0
0 0 0
0 0 0
0 0 0
0 0 0
0 0 0
0 0 0
0 0 0
0 0 0
0 0 0
0 0 0
0 0 0
0 0 0
0 0 0
0 0 0
0 0 0
0 0 0
0 0 0
0 0 0
0 0 0
0 0 0
0 0 0
0 0 0
0 0 0
0 0 0
0 0 0
0 0 0
0 0 0
0 0 0
0 0 0
0 0 0
0 0 0
0 0 0
0 0 0
0 0 0
0 0 0
0 0 0
0 0 0
0 0 0
0 0 0
0 0 0
0 0 0
0 0 0
0 0 0
0 0 0
0 0 0
0 0 0
0 0 0
0 0 0
0 0 0
0 0 0
0 0 0
0 0 0
0 0 0
0 0 0
0 0 0
0 0 0
0 0 0
0 0 0
0 0 0
0 0 0
0 0 0
0 0 0
0 0 0
0 0 0
0 0 0
0 0 0
0 0 0
0 0 0
0 0 0
0 0 0
0 0 0
0 0 0
0 0 0
0 0 0
0 0 0
0 0 0
0 0 0
0 0 0
0 0 0
0 0 0
0 0 0
0 0 0
0 0 0
0 0 0
0 0 0
0 0 0
0 0 0
0 0 0
0 0 0
0 0 0
0 0 0
0 0 0
0 0 0
0 0 0
0 0 0
0 0 0
0 0 0
0 0 0
0 0 0
0 0 0
0 0 0
0 0 0
0 0 0
0 0 0
0 0 0
0 0 0
0 0 0
0 0 0
0 0 0
0 0 0
0 0 0
0 0 0
0 0 0
0 0 0
0 0 0
0 0 0
0 0 0
0 0 0
0 0 0
0 0 0
0 0 0
0 0 0
0 0 0
0 0 0
0 0 0
0 0 0
0 0 0
0 0 0
0 0 0
0 0 0
0 0 0
0 0 0
0 0 0
0 0 0
0 0 0
0 0 0
0 0 0
0 0 0
0 0 0
0 0 0
0 0 0
0 0 0
0 0 0
0 0 0
0 0 0
0 0 0
0 0 0
0 0 0
0 0 0
0 0 0
0 0 0
0 0 0
0 0 0
0 0 0
0 0 0
0 0 0
0 0 0
0 0 0
0 0 0
0 0 0
0 0 0
0 0 0
0 0 0
0 0 0
0 0 0
0 0 0
0 0 0
0 0 0
0 0 0
0 0 0
0 0 0
0 0 0
0 0 0
0 0 0
0 0 0
0 0 0
0 0 0
0 0 0
0 0 0
0 0 0
0 0 0
0 0 0
0 0 0
0 0 0
0 0 0
0 0 0
0 0 0
0 0 0
0 0 0
0 0 0
0 0 0
0 0 0
0 0 0
0 0 0
0 0 0
0 0 0
0 0 0
0 0 0
0 0 0
0 0 0
0 0 0
0 0 0
0 0 0
0 0 0
0 0 0
0 0 0
0 0 0
0 0 0
0 0 0
0 0 0
0 0 0
0 0 0
0 0 0
0 0 0
0 0 0
0 0 0
0 0 0
0 0 0
0 0 0
0 0 0
0 0 0
0 0 0
0 0 0
0 0 0
0 0 0
0 0 0
0 0 0
0 0 0
0 0 0
0 0 0
0 0 0
0 0 0
0 0 0
0 0 0
0 0 0
0 0 0
0 0 0
0 0 0
0 0 0
0 0 0
0 0 0
0 0 0
0 0 0
0 0 0
0 0 0
0 0 0
0 0 0
0 0 0
0 0 0
0 0 0
0 0 0
0 0 0
0 0 0
0 0 0
0 0 0
0 0 0
0 0 0
0 0 0
0 0 0
0 0 0
0 0 0
0 0 0
0 0 0
0 0 0
0 0 0
0 0 0
0 0 0
0 0 0
0 0 0
0 0 0
0 0 0
0 0 0
0 0 0
0 0 0
0 0 0
0 0 0
0 0 0
0 0 0
0 0 0
0 0 0
0 0 0
0 0 0
0 0 0
0 0 0
0 0 0
0 0 0
0 0 0
0 0 0
0 0 0
0 0 0
0 0 0
0 0 0
0 0 0
0 0 0
0 0 0
0 0 0
0 0 0
0 0 0
0 0 0
0 0 0
0 0 0
0 0 0
0 0 0
0 0 0
0 0 0
0 0 0
0 0 0
0 0 0
0 0 0
0 0 0
0 0 0
0 0 0
0 0 0
0 0 0
0 0 0
0 0 0
0 0 0
0 0 0
0 0 0
0 0 0
0 0 0
0 0 0
0 0 0
0 0 0
0 0 0
0 0 0
0 0 0
0 0 0
0 0 0
0 0 0
0 0 0
0 0 0
0 0 0
0 0 0
0 0 0
0 0 0
0 0 0
0 0 0
0 0 0
0 0 0
0 0 0
0 0 0
0 0 0
0 0 0
0 0 0
0 0 0
0 0 0
0 0 0
0 0 0
0 0 0
0 0 0
0 0 0
0 0 0
0 0 0
0 0 0
0 0 0
0 0 0
0 0 0
0 0 0
0 0 0
0 0 0
0 0 0
0 0 0
0 0 0
0 0 0
0 0 0
0 0 0
0 0 0
0 0 0
0 0 0
0 0 0
0 0 0
0 0 0
0 0 0
0 0 0
0 0 0
0 0 0
0 0 0
0 0 0
0 0 0
0 0 0
0 0 0
0 0 0
0 0 0
0 0 0
0 0 0
0 0 0
0 0 0
0 0 0
0 0 0
0 0 0
0 0 0
0 0 0
0 0 0
0 0 0
0 0 0
0 0 0
0 0 0
0 0 0
0 0 0
0 0 0
0 0 0
0 0 0
0 0 0
0 0 0
0 0 0
0 0 0
0 0 0
0 0 0
0 0 0
0 0 0
0 0 0
0 0 0
0 0 0
0 0 0
0 0 0
0 0 0
0 0 0
0 0 0
0 0 0
0 0 0
0 0 0
0 0 0
0 0 0
0 0 0
0 0 0
0 0 0
0 0 0
0 0 0
0 0 0
0 0 0
0 0 0
0 0 0
0 0 0
0 0 0
0 0 0
0 0 0
0 0 0
0 0 0
0 0 0
0 0 0
0 0 0
0 0 0
0 0 0
0 0 0
0 0 0
0 0 0
0 0 0
0 0 0
0 0 0
0 0 0
0 0 0
0 0 0
0 0 0
0 0 0
0 0 0
0 0 0
0 0 0
0 0 0
0 0 0
0 0 0
0 0 0
0 0 0
0 0 0
0 0 0
0 0 0
0 0 0
0 0 0
0 0 0
0 0 0
0 0 0
0 0 0
0 0 0
0 0 0
0 0 0
0 0 0
0 0 0
0 0 0
0 0 0
0 0 0
0 0 0
0 0 0
0 0 0
0 0 0
0 0 0
0 0 0
0 0 0
0 0 0
0 0 0
0 0 0
0 0 0
0 0 0
0 0 0
0 0 0
0 0 0
0 0 0
0 0 0
0 0 0
0 0 0
0 0 0
0 0 0
0 0 0
0 0 0
0 0 0
0 0 0
0 0 0
0 0 0
0 0 0
0 0 0
0 0 0
0 0 0
0 0 0
0 0 0
0 0 0
0 0 0
0 0 0
0 0 0
0 0 0
0 0 0
0 0 0
0 0 0
0 0 0
0 0 0
0 0 0
0 0 0
0 0 0
0 0 0
0 0 0
0 0 0
0 0 0
0 0 0
0 0 0
0 0 0
0 0 0
0 0 0
0 0 0
0 0 0
0 0 0
0 0 0
0 0 0
0 0 0
0 0 0
0 0 0
0 0 0
0 0 0
0 0 0
0 0 0
0 0 0
0 0 0
0 0 0
0 0 0
0 0 0
0 0 0
0 0 0
0 0 0
0 0 0
0 0 0
0 0 0
0 0 0
0 0 0
0 0 0
0 0 0
0 0 0
0 0 0
0 0 0
0 0 0
0 0 0
0 0 0
0 0 0
0 0 0
0 0 0
0 0 0
0 0 0
0 0 0
0 0 0
0 0 0
0 0 0
0 0 0
0 0 0
0 0 0
0 0 0
0 0 0
0 0 0
0 0 0
0 0 0
0 0 0
0 0 0
0 0 0
0 0 0
0 0 0
0 0 0
0 0 0
0 0 0
0 0 0
0 0 0
0 0 0
0 0 0
0 0 0
0 0 0
0 0 0
0 0 0
0 0 0
0 0 0
0 0 0
0 0 0
0 0 0
0 0 0
0 0 0
0 0 0
0 0 0
0 0 0
0 0 0
0 0 0
0 0 0
0 0 0
0 0 0
0 0 0
0 0 0
0 0 0
0 0 0
0 0 0
0 0 0
0 0 0
0 0 0
0 0 0
0 0 0
0 0 0
0 0 0
0 0 0
0 0 0
0 0 0
0 0 0
0 0 0
0 0 0
0 0 0
0 0 0
0 0 0
0 0 0
0 0 0
0 0 0
0 0 0
0 0 0
0 0 0
0 0 0
0 0 0
0 0 0
0 0 0
0 0 0
0 0 0
0 0 0
0 0 0
0 0 0
0 0 0
0 0 0
0 0 0
0 0 0
0 0 0
0 0 0
0 0 0
0 0 0
0 0 0
0 0 0
0 0 0
0 0 0
0 0 0
0 0 0
0 0 0
0 0 0
0 0 0
0 0 0
0 0 0
0 0 0
0 0 0
0 0 0
0 0 0
0 0 0
0 0 0
0 0 0
0 0 0
0 0 0
0 0 0
0 0 0
0 0 0
0 0 0
0 0 0
0 0 0
0 0 0
0 0 0
0 0 0
0 0 0
0 0 0
0 0 0
0 0 0
0 0 0
0 0 0
0 0 0
0 0 0
0 0 0
0 0 0
0 0 0
0 0 0
0 0 0
0 0 0
0 0 0
0 0 0
0 0 0
0 0 0
0 0 0
0 0 0
0 0 0
0 0 0
0 0 0
0 0 0
0 0 0
0 0 0
0 0 0
0 0 0
0 0 0
0 0 0
0 0 0
0 0 0
0 0 0
0 0 0
0 0 0
0 0 0
0 0 0
0 0 0
0 0 0
0 0 0
0 0 0
0 0 0
0 0 0
0 0 0
0 0 0
0 0 0
0 0 0
0 0 0
0 0 0
0 0 0
0 0 0
0 0 0
0 0 0
0 0 0
0 0 0
0 0 0
0 0 0
0 0 0
0 0 0
0 0 0
0 0 0
0 0 0
0 0 0
0 0 0
0 0 0
0 0 0
0 0 0
0 0 0
0 0 0
0 0 0
0 0 0
0 0 0
0 0 0
0 0 0
0 0 0
0 0 0
0 0 0
0 0 0
0 0 0
0 0 0
0 0 0
0 0 0
0 0 0
0 0 0
0 0 0
0 0 0
0 0 0
0 0 0
0 0 0
0 0 0
0 0 0
0 0 0
0 0 0
0 0 0
0 0 0
0 0 0
0 0 0
0 0 0
0 0 0
0 0 0
0 0 0
0 0 0
0 0 0
0 0 0
0 0 0
0 0 0
0 0 0
0 0 0
0 0 0
0 0 0
0 0 0
0 0 0
0 0 0
0 0 0
0 0 0
0 0 0
0 0 0
0 0 0
0 0 0
0 0 0
0 0 0
0 0 0
0 0 0
0 0 0
0 0 0
0 0 0
0 0 0
0 0 0
0 0 0
0 0 0
0 0 0
0 0 0
0 0 0
0 0 0
0 0 0
0 0 0
0 0 0
0 0 0
0 0 0
0 0 0
0 0 0
0 0 0
0 0 0
0 0 0
0 0 0
0 0 0
0 0 0
0 0 0
0 0 0
0 0 0
0 0 0
0 0 0
0 0 0
0 0 0
0 0 0
0 0 0
0 0 0
0 0 0
0 0 0
0 0 0
0 0 0
0 0 0
0 0 0
0 0 0
0 0 0
0 0 0
0 0 0
0 0 0
0 0 0
0 0 0
0 0 0
0 0 0
0 0 0
0 0 0
0 0 0
0 0 0
0 0 0
0 0 0
0 0 0
0 0 0
0 0 0
0 0 0
0 0 0
0 0 0
0 0 0
0 0 0
0 0 0
0 0 0
0 0 0
0 0 0
0 0 0
0 0 0
0 0 0
0 0 0
0 0 0
0 0 0
0 0 0
0 0 0
0 0 0
0 0 0
0 0 0
0 0 0
0 0 0
0 0 0
0 0 0
0 0 0
0 0 0
0 0 0
0 0 0
0 0 0
0 0 0
0 0 0
0 0 0
0 0 0
0 0 0
0 0 0
0 0 0
0 0 0
0 0 0
0 0 0
0 0 0
0 0 0
0 0 0
0 0 0
0 0 0
0 0 0
0 0 0
0 0 0
0 0 0
0 0 0
0 0 0
0 0 0
0 0 0
0 0 0
0 0 0
0 0 0
0 0 0
0 0 0
0 0 0
0 0 0
0 0 0
0 0 0
0 0 0
0 0 0
0 0 0
0 0 0
0 0 0
0 0 0
0 0 0
0 0 0
0 0 0
0 0 0
0 0 0
0 0 0
0 0 0
0 0 0
0 0 0
0 0 0
0 0 0
0 0 0
0 0 0
0 0 0
0 0 0
0 0 0
0 0 0
0 0 0
0 0 0
0 0 0
0 0 0
0 0 0
0 0 0
0 0 0
0 0 0
0 0 0
0 0 0
0 0 0
0 0 0
0 0 0
0 0 0
0 0 0
0 0 0
0 0 0
0 0 0
0 0 0
0 0 0
0 0 0
0 0 0
0 0 0
0 0 0
0 0 0
0 0 0
0 0 0
0 0 0
0 0 0
0 0 0
0 0 0
0 0 0
0 0 0
0 0 0
0 0 0
0 0 0
0 0 0
0 0 0
0 0 0
0 0 0
0 0 0
0 0 0
0 0 0
0 0 0
0 0 0
0 0 0
0 0 0
0 0 0
0 0 0
0 0 0
0 0 0
0 0 0
0 0 0
0 0 0
0 0 0
0 0 0
0 0 0
0 0 0
0 0 0
0 0 0
0 0 0
0 0 0
0 0 0
0 0 0
0 0 0
0 0 0
0 0 0
0 0 0
0 0 0
0 0 0
0 0 0
0 0 0
0 0 0
0 0 0
0 0 0
0 0 0
0 0 0
0 0 0
0 0 0
0 0 0
0 0 0
0 0 0
0 0 0
0 0 0
0 0 0
0 0 0
0 0 0
0 0 0
0 0 0
0 0 0
0 0 0
0 0 0
0 0 0
0 0 0
0 0 0
0 0 0
0 0 0
0 0 0
0 0 0
0 0 0
0 0 0
0 0 0
0 0 0
0 0 0
0 0 0
0 0 0
0 0 0
0 0 0
0 0 0
0 0 0
0 0 0
0 0 0
0 0 0
0 0 0
0 0 0
0 0 0
0 0 0
0 0 0
0 0 0
0 0 0
0 0 0
0 0 0
0 0 0
0 0 0
0 0 0
0 0 0
0 0 0
0 0 0
0 0 0
0 0 0
0 0 0
0 0 0
0 0 0
0 0 0
0 0 0
0 0 0
0 0 0
0 0 0
0 0 0
0 0 0
0 0 0
0 0 0
0 0 0
0 0 0
0 0 0
0 0 0
0 0 0
0 0 0
0 0 0
0 0 0
0 0 0
0 0 0
0 0 0
0 0 0
0 0 0
0 0 0
0 0 0
0 0 0
0 0 0
0 0 0
0 0 0
0 0 0
0 0 0
0 0 0
0 0 0
0 0 0
0 0 0
0 0 0
0 0 0
0 0 0
0 0 0
0 0 0
0 0 0
0 0 0
0 0 0
0 0 0
0 0 0
0 0 0
0 0 0
0 0 0
0 0 0
0 0 0
0 0 0
0 0 0
0 0 0
0 0 0
0 0 0
0 0 0
0 0 0
0 0 0
0 0 0
0 0 0
0 0 0
0 0 0
0 0 0
0 0 0
0 0 0
0 0 0
0 0 0
0 0 0
0 0 0
0 0 0
0 0 0
0 0 0
0 0 0
0 0 0
0 0 0
0 0 0
0 0 0
0 0 0
0 0 0
0 0 0
0 0 0
0 0 0
0 0 0
0 0 0
0 0 0
0 0 0
0 0 0
0 0 0
0 0 0
0 0 0
0 0 0
0 0 0
0 0 0
0 0 0
0 0 0
0 0 0
0 0 0
0 0 0
0 0 0
0 0 0
0 0 0
0 0 0
0 0 0
0 0 0
0 0 0
0 0 0
0 0 0
0 0 0
0 0 0
0 0 0
0 0 0
0 0 0
0 0 0
0 0 0
0 0 0
0 0 0
0 0 0
0 0 0
0 0 0
0 0 0
0 0 0
0 0 0
0 0 0
0 0 0
0 0 0
0 0 0
0 0 0
0 0 0
0 0 0
0 0 0
0 0 0
0 0 0
0 0 0
0 0 0
0 0 0
0 0 0
0 0 0
0 0 0
0 0 0
0 0 0
0 0 0
0 0 0
0 0 0
0 0 0
0 0 0
0 0 0
0 0 0
0 0 0
0 0 0
0 0 0
0 0 0
0 0 0
0 0 0
0 0 0
0 0 0
0 0 0
0 0 0
0 0 0
0 0 0
0 0 0
0 0 0
0 0 0
0 0 0
0 0 0
0 0 0
0 0 0
0 0 0
0 0 0
0 0 0
0 0 0
0 0 0
0 0 0
0 0 0
0 0 0
0 0 0
0 0 0
0 0 0
0 0 0
0 0 0
0 0 0
0 0 0
0 0 0
0 0 0
0 0 0
0 0 0
0 0 0
0 0 0
0 0 0
0 0 0
0 0 0
0 0 0
0 0 0
0 0 0
0 0 0
0 0 0
0 0 0
0 0 0
0 0 0
0 0 0
0 0 0
0 0 0
0 0 0
0 0 0
0 0 0
0 0 0
0 0 0
0 0 0
0 0 0
0 0 0
0 0 0
0 0 0
0 0 0
0 0 0
0 0 0
0 0 0
0 0 0
0 0 0
0 0 0
0 0 0
0 0 0
0 0 0
0 0 0
0 0 0
0 0 0
0 0 0
0 0 0
0 0 0
0 0 0
0 0 0
0 0 0
0 0 0
0 0 0
0 0 0
0 0 0
0 0 0
0 0 0
0 0 0
0 0 0
0 0 0
0 0 0
0 0 0
0 0 0
0 0 0
0 0 0
0 0 0
0 0 0
0 0 0
0 0 0
0 0 0
0 0 0
0 0 0
0 0 0
0 0 0
0 0 0
0 0 0
0 0 0
0 0 0
0 0 0
0 0 0
0 0 0
0 0 0
0 0 0
0 0 0
0 0 0
0 0 0
0 0 0
0 0 0
0 0 0
0 0 0
0 0 0
0 0 0
0 0 0
0 0 0
0 0 0
0 0 0
0 0 0
0 0 0
0 0 0
0 0 0
0 0 0
0 0 0
0 0 0
0 0 0
0 0 0
0 0 0
0 0 0
0 0 0
0 0 0
0 0 0
0 0 0
0 0 0
0 0 0
0 0 0
0 0 0
0 0 0
0 0 0
0 0 0
0 0 0
0 0 0
0 0 0
0 0 0
0 0 0
0 0 0
0 0 0
0 0 0
0 0 0
0 0 0
0 0 0
0 0 0
0 0 0
0 0 0
0 0 0
0 0 0
0 0 0
0 0 0
0 0 0
0 0 0
0 0 0
0 0 0
0 0 0
0 0 0
0 0 0
0 0 0
0 0 0
0 0 0
0 0 0
0 0 0
0 0 0
0 0 0
0 0 0
0 0 0
0 0 0
0 0 0
0 0 0
0 0 0
0 0 0
0 0 0
0 0 0
0 0 0
0 0 0
0 0 0
0 0 0
0 0 0
0 0 0
0 0 0
0 0 0
0 0 0
0 0 0
0 0 0
0 0 0
0 0 0
0 0 0
0 0 0
0 0 0
0 0 0
0 0 0
0 0 0
0 0 0
0 0 0
0 0 0
0 0 0
0 0 0
0 0 0
0 0 0
0 0 0
0 0 0
0 0 0
0 0 0
0 0 0
0 0 0
0 0 0
0 0 0
0 0 0
0 0 0
0 0 0
0 0 0
0 0 0
0 0 0
0 0 0
0 0 0
0 0 0
0 0 0
0 0 0
0 0 0
0 0 0
0 0 0
0 0 0
0 0 0
0 0 0
0 0 0
0 0 0
0 0 0
0 0 0
0 0 0
0 0 0
0 0 0
0 0 0
0 0 0
0 0 0
0 0 0
0 0 0
0 0 0
0 0 0
0 0 0
0 0 0
0 0 0
0 0 0
0 0 0
0 0 0
0 0 0
0 0 0
0 0 0
0 0 0
0 0 0
0 0 0
0 0 0
0 0 0
0 0 0
0 0 0
0 0 0
0 0 0
0 0 0
0 0 0
0 0 0
0 0 0
0 0 0
0 0 0
0 0 0
0 0 0
0 0 0
0 0 0
0 0 0
0 0 0
0 0 0
0 0 0
0 0 0
0 0 0
0 0 0
0 0 0
0 0 0
0 0 0
0 0 0
0 0 0
0 0 0
0 0 0
0 0 0
0 0 0
0 0 0
0 0 0
0 0 0
0 0 0
0 0 0
0 0 0
0 0 0
0 0 0
0 0 0
0 0 0
0 0 0
0 0 0
0 0 0
0 0 0
0 0 0
0 0 0
0 0 0
0 0 0
0 0 0
0 0 0
0 0 0
0 0 0
0 0 0
0 0 0
0 0 0
0 0 0
0 0 0
0 0 0
0 0 0
0 0 0
0 0 0
0 0 0
0 0 0
0 0 0
0 0 0
0 0 0
0 0 0
0 0 0
0 0 0
0 0 0
0 0 0
0 0 0
0 0 0
0 0 0
0 0 0
0 0 0
0 0 0
0 0 0
0 0 0
0 0 0
0 0 0
0 0 0
0 0 0
0 0 0
0 0 0
0 0 0
0 0 0
0 0 0
0 0 0
0 0 0
0 0 0
0 0 0
0 0 0
0 0 0
0 0 0
0 0 0
0 0 0
0 0 0
0 0 0
0 0 0
0 0 0
0 0 0
0 0 0
0 0 0
0 0 0
0 0 0
0 0 0
0 0 0
0 0 0
0 0 0
0 0 0
0 0 0
0 0 0
0 0 0
0 0 0
0 0 0
0 0 0
0 0 0
0 0 0
0 0 0
0 0 0
0 0 0
0 0 0
0 0 0
0 0 0
0 0 0
0 0 0
0 0 0
0 0 0
0 0 0
0 0 0
0 0 0
0 0 0
0 0 0
0 0 0
0 0 0
0 0 0
0 0 0
0 0 0
0 0 0
0 0 0
0 0 0
0 0 0
0 0 0
0 0 0
0 0 0
0 0 0
0 0 0
0 0 0
0 0 0
0 0 0
0 0 0
0 0 0
0 0 0
0 0 0
0 0 0
0 0 0
0 0 0
0 0 0
0 0 0
0 0 0
0 0 0
0 0 0
0 0 0
0 0 0
0 0 0
0 0 0
0 0 0
0 0 0
0 0 0
0 0 0
0 0 0
0 0 0
0 0 0
0 0 0
0 0 0
0 0 0
0 0 0
0 0 0
0 0 0
0 0 0
0 0 0
0 0 0
0 0 0
0 0 0
0 0 0
0 0 0
0 0 0
0 0 0
0 0 0
0 0 0
0 0 0
0 0 0
0 0 0
0 0 0
0 0 0
0 0 0
0 0 0
0 0 0
0 0 0
0 0 0
0 0 0
0 0 0
0 0 0
0 0 0
0 0 0
0 0 0
0 0 0
0 0 0
0 0 0
0 0 0
0 0 0
0 0 0
0 0 0
0 0 0
0 0 0
0 0 0
0 0 0
0 0 0
0 0 0
0 0 0
0 0 0
0 0 0
0 0 0
0 0 0
0 0 0
0 0 0
0 0 0
0 0 0
0 0 0
0 0 0
0 0 0
0 0 0
0 0 0
0 0 0
0 0 0
0 0 0
0 0 0
0 0 0
0 0 0
0 0 0
0 0 0
0 0 0
0 0 0
0 0 0
0 0 0
0 0 0
0 0 0
0 0 0
0 0 0
0 0 0
0 0 0
0 0 0
0 0 0
0 0 0
0 0 0
0 0 0
0 0 0
0 0 0
0 0 0
0 0 0
0 0 0
0 0 0
0 0 0
0 0 0
0 0 0
0 0 0
0 0 0
0 0 0
0 0 0
0 0 0
0 0 0
0 0 0
0 0 0
0 0 0
0 0 0
0 0 0
0 0 0
0 0 0
0 0 0
0 0 0
0 0 0
0 0 0
0 0 0
0 0 0
0 0 0
0 0 0
0 0 0
0 0 0
0 0 0
0 0 0
0 0 0
0 0 0
0 0 0
0 0 0
0 0 0
0 0 0
0 0 0
0 0 0
0 0 0
0 0 0
0 0 0
0 0 0
0 0 0
0 0 0
0 0 0
0 0 0
0 0 0
0 0 0
0 0 0
0 0 0
0 0 0
0 0 0
0 0 0
0 0 0
0 0 0
0 0 0
0 0 0
0 0 0
0 0 0
0 0 0
0 0 0
0 0 0
0 0 0
0 0 0
0 0 0
0 0 0
0 0 0
0 0 0
0 0 0
0 0 0
0 0 0
0 0 0
0 0 0
0 0 0
0 0 0
0 0 0
0 0 0
0 0 0
0 0 0
0 0 0
0 0 0
0 0 0
0 0 0
0 0 0
0 0 0
0 0 0
0 0 0
0 0 0
0 0 0
0 0 0
0 0 0
0 0 0
0 0 0
0 0 0
0 0 0
0 0 0
0 0 0
0 0 0
0 0 0
0 0 0
0 0 0
0 0 0
0 0 0
0 0 0
0 0 0
0 0 0
0 0 0
0 0 0
0 0 0
0 0 0
0 0 0
0 0 0
0 0 0
0 0 0
0 0 0
0 0 0
0 0 0
0 0 0
0 0 0
0 0 0
0 0 0
0 0 0
0 0 0
0 0 0
0 0 0
0 0 0
0 0 0
0 0 0
0 0 0
0 0 0
0 0 0
0 0 0
0 0 0
0 0 0
0 0 0
0 0 0
0 0 0
0 0 0
0 0 0
0 0 0
0 0 0
0 0 0
0 0 0
0 0 0
0 0 0
0 0 0
0 0 0
0 0 0
0 0 0
0 0 0
0 0 0
0 0 0
0 0 0
0 0 0
0 0 0
0 0 0
0 0 0
0 0 0
0 0 0
0 0 0
0 0 0
0 0 0
0 0 0
0 0 0
0 0 0
0 0 0
0 0 0
0 0 0
0 0 0
0 0 0
0 0 0
0 0 0
0 0 0
0 0 0
0 0 0
0 0 0
0 0 0
0 0 0
0 0 0
0 0 0
0 0 0
0 0 0
0 0 0
0 0 0
0 0 0
0 0 0
0 0 0
0 0 0
0 0 0
0 0 0
0 0 0
0 0 0
0 0 0
0 0 0
0 0 0
0 0 0
0 0 0
0 0 0
0 0 0
0 0 0
0 0 0
0 0 0
0 0 0
0 0 0
0 0 0
0 0 0
0 0 0
0 0 0
0 0 0
0 0 0
0 0 0
0 0 0
0 0 0
0 0 0
0 0 0
0 0 0
0 0 0
0 0 0
0 0 0
0 0 0
0 0 0
0 0 0
0 0 0
0 0 0
0 0 0
0 0 0
0 0 0
0 0 0
0 0 0
0 0 0
0 0 0
0 0 0
0 0 0
0 0 0
0 0 0
0 0 0
0 0 0
0 0 0
0 0 0
0 0 0
0 0 0
0 0 0
0 0 0
0 0 0
0 0 0
0 0 0
0 0 0
0 0 0
0 0 0
0 0 0
0 0 0
0 0 0
0 0 0
0 0 0
0 0 0
0 0 0
0 0 0
0 0 0
0 0 0
0 0 0
0 0 0
0 0 0
0 0 0
0 0 0
0 0 0
0 0 0
0 0 0
0 0 0
0 0 0
0 0 0
0 0 0
0 0 0
0 0 0
0 0 0
0 0 0
0 0 0
0 0 0
0 0 0
0 0 0
0 0 0
0 0 0
0 0 0
0 0 0
0 0 0
0 0 0
0 0 0
0 0 0
0 0 0
0 0 0
0 0 0
0 0 0
0 0 0
0 0 0
0 0 0
0 0 0
0 0 0
0 0 0
0 0 0
0 0 0
0 0 0
0 0 0
0 0 0
0 0 0
0 0 0
0 0 0
0 0 0
0 0 0
0 0 0
0 0 0
0 0 0
0 0 0
0 0 0
0 0 0
0 0 0
0 0 0
0 0 0
0 0 0
0 0 0
0 0 0
0 0 0
0 0 0
0 0 0
0 0 0
0 0 0
0 0 0
0 0 0
0 0 0
0 0 0
0 0 0
0 0 0
0 0 0
0 0 0
0 0 0
0 0 0
0 0 0
0 0 0
0 0 0
0 0 0
0 0 0
0 0 0
0 0 0
0 0 0
0 0 0
0 0 0
0 0 0
0 0 0
0 0 0
0 0 0
0 0 0
0 0 0
0 0 0
0 0 0
0 0 0
0 0 0
0 0 0
0 0 0
0 0 0
0 0 0
0 0 0
0 0 0
0 0 0
0 0 0
0 0 0
0 0 0
0 0 0
0 0 0
0 0 0
0 0 0
0 0 0
0 0 0
0 0 0
0 0 0
0 0 0
0 0 0
0 0 0
0 0 0
0 0 0
0 0 0
0 0 0
0 0 0
0 0 0
0 0 0
0 0 0
0 0 0
0 0 0
0 0 0
0 0 0
0 0 0
0 0 0
0 0 0
0 0 0
0 0 0
0 0 0
0 0 0
0 0 0
0 0 0
0 0 0
0 0 0
0 0 0
0 0 0
0 0 0
0 0 0
0 0 0
0 0 0
0 0 0
0 0 0
0 0 0
0 0 0
0 0 0
0 0 0
0 0 0
0 0 0
0 0 0
0 0 0
0 0 0
0 0 0
0 0 0
0 0 0
0 0 0
0 0 0
0 0 0
0 0 0
0 0 0
0 0 0
0 0 0
0 0 0
0 0 0
0 0 0
0 0 0
0 0 0
0 0 0
0 0 0
0 0 0
0 0 0
0 0 0
0 0 0
0 0 0
0 0 0
0 0 0
0 0 0
0 0 0
0 0 0
0 0 0
0 0 0
0 0 0
0 0 0
0 0 0
0 0 0
0 0 0
0 0 0
0 0 0
0 0 0
0 0 0
0 0 0
0 0 0
0 0 0
0 0 0
0 0 0
0 0 0
0 0 0
0 0 0
0 0 0
0 0 0
0 0 0
0 0 0
0 0 0
0 0 0
0 0 0
0 0 0
0 0 0
0 0 0
0 0 0
0 0 0
0 0 0
0 0 0
0 0 0
0 0 0
0 0 0
0 0 0
0 0 0
0 0 0
0 0 0
0 0 0
0 0 0
0 0 0
0 0 0
0 0 0
0 0 0
0 0 0
0 0 0
0 0 0
0 0 0
0 0 0
0 0 0
0 0 0
0 0 0
0 0 0
0 0 0
0 0 0
0 0 0
0 0 0
0 0 0
0 0 0
0 0 0
0 0 0
0 0 0
0 0 0
0 0 0
0 0 0
0 0 0
0 0 0
0 0 0
0 0 0
0 0 0
0 0 0
0 0 0
0 0 0
0 0 0
0 0 0
0 0 0
0 0 0
0 0 0
0 0 0
0 0 0
0 0 0
0 0 0
0 0 0
0 0 0
0 0 0
0 0 0
0 0 0
0 0 0
0 0 0
0 0 0
0 0 0
0 0 0
0 0 0
0 0 0
0 0 0
0 0 0
0 0 0
0 0 0
0 0 0
0 0 0
0 0 0
0 0 0
0 0 0
0 0 0
0 0 0
0 0 0
0 0 0
0 0 0
0 0 0
0 0 0
0 0 0
0 0 0
0 0 0
0 0 0
0 0 0
0 0 0
0 0 0
0 0 0
0 0 0
0 0 0
0 0 0
0 0 0
0 0 0
0 0 0
0 0 0
0 0 0
0 0 0
0 0 0
0 0 0
0 0 0
0 0 0
0 0 0
0 0 0
0 0 0
0 0 0
0 0 0
0 0 0
0 0 0
0 0 0
0 0 0
0 0 0
0 0 0
0 0 0
0 0 0
0 0 0
0 0 0
0 0 0
0 0 0
0 0 0
0 0 0
0 0 0
0 0 0
0 0 0
0 0 0
0 0 0
0 0 0
0 0 0
0 0 0
0 0 0
0 0 0
0 0 0
0 0 0
0 0 0
0 0 0
0 0 0
0 0 0
0 0 0
0 0 0
0 0 0
0 0 0
0 0 0
0 0 0
0 0 0
0 0 0
0 0 0
0 0 0
0 0 0
0 0 0
0 0 0
0 0 0
0 0 0
0 0 0
0 0 0
0 0 0
0 0 0
0 0 0
0 0 0
0 0 0
0 0 0
0 0 0
0 0 0
0 0 0
0 0 0
0 0 0
0 0 0
0 0 0
0 0 0
0 0 0
0 0 0
0 0 0
0 0 0
0 0 0
0 0 0
0 0 0
0 0 0
0 0 0
0 0 0
0 0 0
0 0 0
0 0 0
0 0 0
0 0 0
0 0 0
0 0 0
0 0 0
0 0 0
0 0 0
0 0 0
0 0 0
0 0 0
0 0 0
0 0 0
0 0 0
0 0 0
0 0 0
0 0 0
0 0 0
0 0 0
0 0 0
0 0 0
0 0 0
0 0 0
0 0 0
0 0 0
0 0 0
0 0 0
0 0 0
0 0 0
0 0 0
0 0 0
0 0 0
0 0 0
0 0 0
0 0 0
0 0 0
0 0 0
0 0 0
0 0 0
0 0 0
0 0 0
0 0 0
0 0 0
0 0 0
0 0 0
0 0 0
0 0 0
0 0 0
0 0 0
0 0 0
0 0 0
0 0 0
0 0 0
0 0 0
0 0 0
0 0 0
0 0 0
0 0 0
0 0 0
0 0 0
0 0 0
0 0 0
0 0 0
0 0 0
0 0 0
0 0 0
0 0 0
0 0 0
0 0 0
0 0 0
0 0 0
0 0 0
0 0 0
0 0 0
0 0 0
0 0 0
0 0 0
0 0 0
0 0 0
0 0 0
0 0 0
0 0 0
0 0 0
0 0 0
0 0 0
0 0 0
0 0 0
0 0 0
0 0 0
0 0 0
0 0 0
0 0 0
0 0 0
0 0 0
0 0 0
0 0 0
0 0 0
0 0 0
0 0 0
0 0 0
0 0 0
0 0 0
0 0 0
0 0 0
0 0 0
0 0 0
0 0 0
0 0 0
0 0 0
0 0 0
0 0 0
0 0 0
0 0 0
0 0 0
0 0 0
0 0 0
0 0 0
0 0 0
0 0 0
0 0 0
0 0 0
0 0 0
0 0 0
0 0 0
0 0 0
0 0 0
0 0 0
0 0 0
0 0 0
0 0 0
0 0 0
0 0 0
0 0 0
0 0 0
0 0 0
0 0 0
0 0 0
0 0 0
0 0 0
0 0 0
0 0 0
0 0 0
0 0 0
0 0 0
0 0 0
0 0 0
0 0 0
0 0 0
0 0 0
0 0 0
0 0 0
0 0 0
0 0 0
0 0 0
0 0 0
0 0 0
0 0 0
0 0 0
0 0 0
0 0 0
0 0 0
0 0 0
0 0 0
0 0 0
0 0 0
0 0 0
0 0 0
0 0 0
0 0 0
0 0 0
0 0 0
0 0 0
0 0 0
0 0 0
0 0 0
0 0 0
0 0 0
0 0 0
0 0 0
0 0 0
0 0 0
0 0 0
0 0 0
0 0 0
0 0 0
0 0 0
0 0 0
0 0 0
0 0 0
0 0 0
0 0 0
0 0 0
0 0 0
0 0 0
0 0 0
0 0 0
0 0 0
0 0 0
0 0 0
0 0 0
0 0 0
0 0 0
0 0 0
0 0 0
0 0 0
0 0 0
0 0 0
0 0 0
0 0 0
0 0 0
0 0 0
0 0 0
0 0 0
0 0 0
0 0 0
0 0 0
0 0 0
0 0 0
0 0 0
0 0 0
0 0 0
0 0 0
0 0 0
0 0 0
0 0 0
0 0 0
0 0 0
0 0 0
0 0 0
0 0 0
0 0 0
0 0 0
0 0 0
0 0 0
0 0 0
0 0 0
0 0 0
0 0 0
0 0 0
0 0 0
0 0 0
0 0 0
0 0 0
0 0 0
0 0 0
0 0 0
0 0 0
0 0 0
0 0 0
0 0 0
0 0 0
0 0 0
0 0 0
0 0 0
0 0 0
0 0 0
0 0 0
0 0 0
0 0 0
0 0 0
0 0 0
0 0 0
0 0 0
0 0 0
0 0 0
0 0 0
0 0 0
0 0 0
0 0 0
0 0 0
0 0 0
0 0 0
0 0 0
0 0 0
0 0 0
0 0 0
0 0 0
0 0 0
0 0 0
0 0 0
0 0 0
0 0 0
0 0 0
0 0 0
0 0 0
0 0 0
0 0 0
0 0 0
0 0 0
0 0 0
0 0 0
0 0 0
0 0 0
0 0 0
0 0 0
0 0 0
0 0 0
0 0 0
0 0 0
0 0 0
0 0 0
0 0 0
0 0 0
0 0 0
0 0 0
0 0 0
0 0 0
0 0 0
0 0 0
0 0 0
0 0 0
0 0 0
0 0 0
0 0 0
0 0 0
0 0 0
0 0 0
0 0 0
0 0 0
0 0 0
0 0 0
0 0 0
0 0 0
0 0 0
0 0 0
0 0 0
0 0 0
0 0 0
0 0 0
0 0 0
0 0 0
0 0 0
0 0 0
0 0 0
0 0 0
0 0 0
0 0 0
0 0 0
0 0 0
0 0 0
0 0 0
0 0 0
0 0 0
0 0 0
0 0 0
0 0 0
0 0 0
0 0 0
0 0 0
0 0 0
0 0 0
0 0 0
0 0 0
0 0 0
0 0 0
0 0 0
0 0 0
0 0 0
0 0 0
0 0 0
0 0 0
0 0 0
0 0 0
0 0 0
0 0 0
0 0 0
0 0 0
0 0 0
0 0 0
0 0 0
0 0 0
0 0 0
0 0 0
0 0 0
0 0 0
0 0 0
0 0 0
0 0 0
0 0 0
0 0 0
0 0 0
0 0 0
0 0 0
0 0 0
0 0 0
0 0 0
0 0 0
0 0 0
0 0 0
0 0 0
0 0 0
0 0 0
0 0 0
0 0 0
0 0 0
0 0 0
0 0 0
0 0 0
0 0 0
0 0 0
0 0 0
0 0 0
0 0 0
0 0 0
0 0 0
0 0 0
0 0 0
0 0 0
0 0 0
0 0 0
0 0 0
0 0 0
0 0 0
0 0 0
0 0 0
0 0 0
0 0 0
0 0 0
0 0 0
0 0 0
0 0 0
0 0 0
0 0 0
0 0 0
0 0 0
0 0 0
0 0 0
0 0 0
0 0 0
0 0 0
0 0 0
0 0 0
0 0 0
0 0 0
0 0 0
0 0 0
0 0 0
0 0 0
0 0 0
0 0 0
0 0 0
0 0 0
0 0 0
0 0 0
0 0 0
0 0 0
0 0 0
0 0 0
0 0 0
0 0 0
0 0 0
0 0 0
0 0 0
0 0 0
0 0 0
0 0 0
0 0 0
0 0 0
0 0 0
0 0 0
0 0 0
0 0 0
0 0 0
0 0 0
0 0 0
0 0 0
0 0 0
0 0 0
0 0 0
0 0 0
0 0 0
0 0 0
0 0 0
0 0 0
0 0 0
0 0 0
0 0 0
0 0 0
0 0 0
0 0 0
0 0 0
0 0 0
0 0 0
0 0 0
0 0 0
0 0 0
0 0 0
0 0 0
0 0 0
0 0 0
0 0 0
0 0 0
0 0 0
0 0 0
0 0 0
0 0 0
0 0 0
0 0 0
0 0 0
0 0 0
0 0 0
0 0 0
0 0 0
0 0 0
0 0 0
0 0 0
0 0 0
0 0 0
0 0 0
0 0 0
0 0 0
0 0 0
0 0 0
0 0 0
0 0 0
0 0 0
0 0 0
0 0 0
0 0 0
0 0 0
0 0 0
0 0 0
0 0 0
0 0 0
0 0 0
0 0 0
0 0 0
0 0 0
0 0 0
0 0 0
0 0 0
0 0 0
0 0 0
0 0 0
0 0 0
0 0 0
0 0 0
0 0 0
0 0 0
0 0 0
0 0 0
0 0 0
0 0 0
0 0 0
0 0 0
0 0 0
0 0 0
0 0 0
0 0 0
0 0 0
0 0 0
0 0 0
0 0 0
0 0 0
0 0 0
0 0 0
0 0 0
0 0 0
0 0 0
0 0 0
0 0 0
0 0 0
0 0 0
0 0 0
0 0 0
0 0 0
0 0 0
0 0 0
0 0 0
0 0 0
0 0 0
0 0 0
0 0 0
0 0 0
0 0 0
0 0 0
0 0 0
0 0 0
0 0 0
0 0 0
0 0 0
0 0 0
0 0 0
0 0 0
0 0 0
0 0 0
0 0 0
0 0 0
0 0 0
0 0 0
0 0 0
0 0 0
0 0 0
0 0 0
0 0 0
0 0 0
0 0 0
0 0 0
0 0 0
0 0 0
0 0 0
0 0 0
0 0 0
0 0 0
0 0 0
0 0 0
0 0 0
0 0 0
0 0 0
0 0 0
0 0 0
0 0 0
0 0 0
0 0 0
0 0 0
0 0 0
0 0 0
0 0 0
0 0 0
0 0 0
0 0 0
0 0 0
0 0 0
0 0 0
0 0 0
0 0 0
0 0 0
0 0 0
0 0 0
0 0 0
0 0 0
0 0 0
0 0 0
0 0 0
0 0 0
0 0 0
0 0 0
0 0 0
0 0 0
0 0 0
0 0 0
0 0 0
0 0 0
0 0 0
0 0 0
0 0 0
0 0 0
0 0 0
0 0 0
0 0 0
0 0 0
0 0 0
0 0 0
0 0 0
0 0 0
0 0 0
0 0 0
0 0 0
0 0 0
0 0 0
0 0 0
0 0 0
0 0 0
0 0 0
0 0 0
0 0 0
0 0 0
0 0 0
0 0 0
0 0 0
0 0 0
0 0 0
0 0 0
0 0 0
0 0 0
0 0 0
0 0 0
0 0 0
0 0 0
0 0 0
0 0 0
0 0 0
0 0 0
0 0 0
0 0 0
0 0 0
0 0 0
0 0 0
0 0 0
0 0 0
0 0 0
0 0 0
0 0 0
0 0 0
0 0 0
0 0 0
0 0 0
0 0 0
0 0 0
0 0 0
0 0 0
0 0 0
0 0 0
0 0 0
0 0 0
0 0 0
0 0 0
0 0 0
0 0 0
0 0 0
0 0 0
0 0 0
0 0 0
0 0 0
0 0 0
0 0 0
0 0 0
0 0 0
0 0 0
0 0 0
0 0 0
0 0 0
0 0 0
0 0 0
0 0 0
0 0 0
0 0 0
0 0 0
0 0 0
0 0 0
0 0 0
0 0 0
0 0 0
0 0 0
0 0 0
0 0 0
0 0 0
0 0 0
0 0 0
0 0 0
0 0 0
0 0 0
0 0 0
0 0 0
0 0 0
0 0 0
0 0 0
0 0 0
0 0 0
0 0 0
0 0 0
0 0 0
0 0 0
0 0 0
0 0 0
0 0 0
0 0 0
0 0 0
0 0 0
0 0 0
0 0 0
0 0 0
0 0 0
0 0 0
0 0 0
0 0 0
0 0 0
0 0 0
0 0 0
0 0 0
0 0 0
0 0 0
0 0 0
0 0 0
0 0 0
0 0 0
0 0 0
0 0 0
0 0 0
0 0 0
0 0 0
0 0 0
0 0 0
0 0 0
0 0 0
0 0 0
0 0 0
0 0 0
0 0 0
0 0 0
0 0 0
0 0 0
0 0 0
0 0 0
0 0 0
0 0 0
0 0 0
0 0 0
0 0 0
0 0 0
0 0 0
0 0 0
0 0 0
0 0 0
0 0 0
0 0 0
0 0 0
0 0 0
0 0 0
0 0 0
0 0 0
0 0 0
0 0 0
0 0 0
0 0 0
0 0 0
0 0 0
0 0 0
0 0 0
0 0 0
0 0 0
0 0 0
0 0 0
0 0 0
0 0 0
0 0 0
0 0 0
0 0 0
0 0 0
0 0 0
0 0 0
0 0 0
0 0 0
0 0 0
0 0 0
0 0 0
0 0 0
0 0 0
0 0 0
0 0 0
0 0 0
0 0 0
0 0 0
0 0 0
0 0 0
0 0 0
0 0 0
0 0 0
0 0 0
0 0 0
0 0 0
0 0 0
0 0 0
0 0 0
0 0 0
0 0 0
0 0 0
0 0 0
0 0 0
0 0 0
0 0 0
0 0 0
0 0 0
0 0 0
0 0 0
0 0 0
0 0 0
0 0 0
0 0 0
0 0 0
0 0 0
0 0 0
0 0 0
0 0 0
0 0 0
0 0 0
0 0 0
0 0 0
0 0 0
0 0 0
0 0 0
0 0 0
0 0 0
0 0 0
0 0 0
0 0 0
0 0 0
0 0 0
0 0 0
0 0 0
0 0 0
0 0 0
0 0 0
0 0 0
0 0 0
0 0 0
0 0 0
0 0 0
0 0 0
0 0 0
0 0 0
0 0 0
0 0 0
0 0 0
0 0 0
0 0 0
0 0 0
0 0 0
0 0 0
0 0 0
0 0 0
0 0 0
0 0 0
0 0 0
0 0 0
0 0 0
0 0 0
0 0 0
0 0 0
0 0 0
0 0 0
0 0 0
0 0 0
0 0 0
0 0 0
0 0 0
0 0 0
0 0 0
0 0 0
0 0 0
0 0 0
0 0 0
0 0 0
0 0 0
0 0 0
0 0 0
0 0 0
0 0 0
0 0 0
0 0 0
0 0 0
0 0 0
0 0 0
0 0 0
0 0 0
0 0 0
0 0 0
0 0 0
0 0 0
0 0 0
0 0 0
0 0 0
0 0 0
0 0 0
0 0 0
0 0 0
0 0 0
0 0 0
0 0 0
0 0 0
0 0 0
0 0 0
0 0 0
0 0 0
0 0 0
0 0 0
0 0 0
0 0 0
0 0 0
0 0 0
0 0 0
0 0 0
0 0 0
0 0 0
0 0 0
0 0 0
0 0 0
0 0 0
0 0 0
0 0 0
0 0 0
0 0 0
0 0 0
0 0 0
0 0 0
0 0 0
0 0 0
0 0 0
0 0 0
0 0 0
0 0 0
0 0 0
0 0 0
0 0 0
0 0 0
0 0 0
0 0 0
0 0 0
0 0 0
0 0 0
0 0 0
0 0 0
0 0 0
0 0 0
0 0 0
0 0 0
0 0 0
0 0 0
0 0 0
0 0 0
0 0 0
0 0 0
0 0 0
0 0 0
0 0 0
0 0 0
0 0 0
0 0 0
0 0 0
0 0 0
0 0 0
0 0 0
0 0 0
0 0 0
0 0 0
0 0 0
0 0 0
0 0 0
0 0 0
0 0 0
0 0 0
0 0 0
0 0 0
0 0 0
0 0 0
0 0 0
0 0 0
0 0 0
0 0 0
0 0 0
0 0 0
0 0 0
0 0 0
0 0 0
0 0 0
0 0 0
0 0 0
0 0 0
0 0 0
0 0 0
0 0 0
0 0 0
0 0 0
0 0 0
0 0 0
0 0 0
0 0 0
0 0 0
0 0 0
0 0 0
0 0 0
0 0 0
0 0 0
0 0 0
0 0 0
0 0 0
0 0 0
0 0 0
0 0 0
0 0 0
0 0 0
0 0 0
0 0 0
0 0 0
0 0 0
0 0 0
0 0 0
0 0 0
0 0 0
0 0 0
0 0 0
0 0 0
0 0 0
0 0 0
0 0 0
0 0 0
0 0 0
0 0 0
0 0 0
0 0 0
0 0 0
0 0 0
0 0 0
0 0 0
0 0 0
0 0 0
0 0 0
0 0 0
0 0 0
0 0 0
0 0 0
0 0 0
0 0 0
0 0 0
0 0 0
0 0 0
0 0 0
0 0 0
0 0 0
0 0 0
0 0 0
0 0 0
0 0 0
0 0 0
0 0 0
0 0 0
0 0 0
0 0 0
0 0 0
0 0 0
0 0 0
0 0 0
0 0 0
0 0 0
0 0 0
0 0 0
0 0 0
0 0 0
0 0 0
0 0 0
0 0 0
0 0 0
0 0 0
0 0 0
0 0 0
0 0 0
0 0 0
0 0 0
0 0 0
0 0 0
0 0 0
0 0 0
0 0 0
0 0 0
0 0 0
0 0 0
0 0 0
0 0 0
0 0 0
0 0 0
0 0 0
0 0 0
0 0 0
0 0 0
0 0 0
0 0 0
0 0 0
0 0 0
0 0 0
0 0 0
0 0 0
0 0 0
0 0 0
0 0 0
0 0 0
0 0 0
0 0 0
0 0 0
0 0 0
0 0 0
0 0 0
0 0 0
0 0 0
0 0 0
0 0 0
0 0 0
0 0 0
0 0 0
0 0 0
0 0 0
0 0 0
0 0 0
0 0 0
0 0 0
0 0 0
0 0 0
0 0 0
0 0 0
0 0 0
0 0 0
0 0 0
0 0 0
0 0 0
0 0 0
0 0 0
0 0 0
0 0 0
0 0 0
0 0 0
0 0 0
0 0 0
0 0 0
0 0 0
0 0 0
0 0 0
0 0 0
0 0 0
0 0 0
0 0 0
0 0 0
0 0 0
0 0 0
0 0 0
0 0 0
0 0 0
0 0 0
0 0 0
0 0 0
0 0 0
0 0 0
0 0 0
0 0 0
0 0 0
0 0 0
0 0 0
0 0 0
0 0 0
0 0 0
0 0 0
0 0 0
0 0 0
0 0 0
0 0 0
0 0 0
0 0 0
0 0 0
0 0 0
0 0 0
0 0 0
0 0 0
0 0 0
0 0 0
0 0 0
0 0 0
0 0 0
0 0 0
0 0 0
0 0 0
0 0 0
0 0 0
0 0 0
0 0 0
0 0 0
0 0 0
0 0 0
0 0 0
0 0 0
0 0 0
0 0 0
0 0 0
0 0 0
0 0 0
0 0 0
0 0 0
0 0 0
0 0 0
0 0 0
0 0 0
0 0 0
0 0 0
0 0 0
0 0 0
0 0 0
0 0 0
0 0 0
0 0 0
0 0 0
0 0 0
0 0 0
0 0 0
0 0 0
0 0 0
0 0 0
0 0 0
0 0 0
0 0 0
0 0 0
0 0 0
0 0 0
0 0 0
0 0 0
0 0 0
0 0 0
0 0 0
0 0 0
0 0 0
0 0 0
0 0 0
0 0 0
0 0 0
0 0 0
0 0 0
0 0 0
0 0 0
0 0 0
0 0 0
0 0 0
0 0 0
0 0 0
0 0 0
0 0 0
0 0 0
0 0 0
0 0 0
0 0 0
0 0 0
0 0 0
0 0 0
0 0 0
0 0 0
0 0 0
0 0 0
0 0 0
0 0 0
0 0 0
0 0 0
0 0 0
0 0 0
0 0 0
0 0 0
0 0 0
0 0 0
0 0 0
0 0 0
0 0 0
0 0 0
0 0 0
0 0 0
0 0 0
0 0 0
0 0 0
0 0 0
0 0 0
0 0 0
0 0 0
0 0 0
0 0 0
0 0 0
0 0 0
0 0 0
0 0 0
0 0 0
0 0 0
0 0 0
0 0 0
0 0 0
0 0 0
0 0 0
0 0 0
0 0 0
0 0 0
0 0 0
0 0 0
0 0 0
0 0 0
0 0 0
0 0 0
0 0 0
0 0 0
0 0 0
0 0 0
0 0 0
0 0 0
0 0 0
0 0 0
0 0 0
0 0 0
0 0 0
0 0 0
0 0 0
0 0 0
0 0 0
0 0 0
0 0 0
0 0 0
0 0 0
0 0 0
0 0 0
0 0 0
0 0 0
0 0 0
0 0 0
0 0 0
0 0 0
0 0 0
0 0 0
0 0 0
0 0 0
0 0 0
0 0 0
0 0 0
0 0 0
0 0 0
0 0 0
0 0 0
0 0 0
0 0 0
0 0 0
0 0 0
0 0 0
0 0 0
0 0 0
0 0 0
0 0 0
0 0 0
0 0 0
0 0 0
0 0 0
0 0 0
0 0 0
0 0 0
0 0 0
0 0 0
0 0 0
0 0 0
0 0 0
0 0 0
0 0 0
0 0 0
0 0 0
0 0 0
0 0 0
0 0 0
0 0 0
0 0 0
0 0 0
0 0 0
0 0 0
0 0 0
0 0 0
0 0 0
0 0 0
0 0 0
0 0 0
0 0 0
0 0 0
0 0 0
0 0 0
0 0 0
0 0 0
0 0 0
0 0 0
0 0 0
0 0 0
0 0 0
0 0 0
0 0 0
0 0 0
0 0 0
0 0 0
0 0 0
0 0 0
0 0 0
0 0 0
0 0 0
0 0 0
0 0 0
0 0 0
0 0 0
0 0 0
0 0 0
0 0 0
0 0 0
0 0 0
0 0 0
0 0 0
0 0 0
0 0 0
0 0 0
0 0 0
0 0 0
0 0 0
0 0 0
0 0 0
0 0 0
0 0 0
0 0 0
0 0 0
0 0 0
0 0 0
0 0 0
0 0 0
0 0 0
0 0 0
0 0 0
0 0 0
0 0 0
0 0 0
0 0 0
0 0 0
0 0 0
0 0 0
0 0 0
0 0 0
0 0 0
0 0 0
0 0 0
0 0 0
0 0 0
0 0 0
0 0 0
0 0 0
0 0 0
0 0 0
0 0 0
0 0 0
0 0 0
0 0 0
0 0 0
0 0 0
0 0 0
0 0 0
0 0 0
0 0 0
0 0 0
0 0 0
0 0 0
0 0 0
0 0 0
0 0 0
0 0 0
0 0 0
0 0 0
0 0 0
0 0 0
0 0 0
0 0 0
0 0 0
0 0 0
0 0 0
0 0 0
0 0 0
0 0 0
0 0 0
0 0 0
0 0 0
0 0 0
0 0 0
0 0 0
0 0 0
0 0 0
0 0 0
0 0 0
0 0 0
0 0 0
0 0 0
0 0 0
0 0 0
0 0 0
0 0 0
0 0 0
0 0 0
0 0 0
0 0 0
0 0 0
0 0 0
0 0 0
0 0 0
0 0 0
0 0 0
0 0 0
0 0 0
0 0 0
0 0 0
0 0 0
0 0 0
0 0 0
0 0 0
0 0 0
0 0 0
0 0 0
0 0 0
0 0 0
0 0 0
0 0 0
0 0 0
0 0 0
0 0 0
0 0 0
0 0 0
0 0 0
0 0 0
0 0 0
0 0 0
0 0 0
0 0 0
0 0 0
0 0 0
0 0 0
0 0 0
0 0 0
0 0 0
0 0 0
0 0 0
0 0 0
0 0 0
0 0 0
0 0 0
0 0 0
0 0 0
0 0 0
0 0 0
0 0 0
0 0 0
0 0 0
0 0 0
0 0 0
0 0 0
0 0 0
0 0 0
0 0 0
0 0 0
0 0 0
0 0 0
0 0 0
0 0 0
0 0 0
0 0 0
0 0 0
0 0 0
0 0 0
0 0 0
0 0 0
0 0 0
0 0 0
0 0 0
0 0 0
0 0 0
0 0 0
0 0 0
0 0 0
0 0 0
0 0 0
0 0 0
0 0 0
0 0 0
0 0 0
0 0 0
0 0 0
0 0 0
0 0 0
0 0 0
0 0 0
0 0 0
0 0 0
0 0 0
0 0 0
0 0 0
0 0 0
0 0 0
0 0 0
0 0 0
0 0 0
0 0 0
0 0 0
0 0 0
0 0 0
0 0 0
0 0 0
0 0 0
0 0 0
0 0 0
0 0 0
0 0 0
0 0 0
0 0 0
0 0 0
0 0 0
0 0 0
0 0 0
0 0 0
0 0 0
0 0 0
0 0 0
0 0 0
0 0 0
0 0 0
0 0 0
0 0 0
0 0 0
0 0 0
0 0 0
0 0 0
0 0 0
0 0 0
0 0 0
0 0 0
0 0 0
0 0 0
0 0 0
0 0 0
0 0 0
0 0 0
0 0 0
0 0 0
0 0 0
0 0 0
0 0 0
0 0 0
0 0 0
0 0 0
0 0 0
0 0 0
0 0 0
0 0 0
0 0 0
0 0 0
0 0 0
0 0 0
0 0 0
0 0 0
0 0 0
0 0 0
0 0 0
0 0 0
0 0 0
0 0 0
0 0 0
0 0 0
0 0 0
0 0 0
0 0 0
0 0 0
0 0 0
0 0 0
0 0 0
0 0 0
0 0 0
0 0 0
0 0 0
0 0 0
0 0 0
0 0 0
0 0 0
0 0 0
0 0 0
0 0 0
0 0 0
0 0 0
0 0 0
0 0 0
0 0 0
0 0 0
0 0 0
0 0 0
0 0 0
0 0 0
0 0 0
0 0 0
0 0 0
0 0 0
0 0 0
0 0 0
0 0 0
0 0 0
0 0 0
0 0 0
0 0 0
0 0 0
0 0 0
0 0 0
0 0 0
0 0 0
0 0 0
0 0 0
0 0 0
0 0 0
0 0 0
0 0 0
0 0 0
0 0 0
0 0 0
0 0 0
0 0 0
0 0 0
0 0 0
0 0 0
0 0 0
0 0 0
0 0 0
0 0 0
0 0 0
0 0 0
0 0 0
0 0 0
0 0 0
0 0 0
0 0 0
0 0 0
0 0 0
0 0 0
0 0 0
0 0 0
0 0 0
0 0 0
0 0 0
0 0 0
0 0 0
0 0 0
0 0 0
0 0 0
0 0 0
0 0 0
0 0 0
0 0 0
0 0 0
0 0 0
0 0 0
0 0 0
0 0 0
0 0 0
0 0 0
0 0 0
0 0 0
0 0 0
0 0 0
0 0 0
0 0 0
0 0 0
0 0 0
0 0 0
0 0 0
0 0 0
0 0 0
0 0 0
0 0 0
0 0 0
0 0 0
0 0 0
0 0 0
0 0 0
0 0 0
0 0 0
0 0 0
0 0 0
0 0 0
0 0 0
0 0 0
0 0 0
0 0 0
0 0 0
0 0 0
0 0 0
0 0 0
0 0 0
0 0 0
0 0 0
0 0 0
0 0 0
0 0 0
0 0 0
0 0 0
0 0 0
0 0 0
0 0 0
0 0 0
0 0 0
0 0 0
0 0 0
0 0 0
0 0 0
0 0 0
0 0 0
0 0 0
0 0 0
0 0 0
0 0 0
0 0 0
0 0 0
0 0 0
0 0 0
0 0 0
0 0 0
0 0 0
0 0 0
0 0 0
0 0 0
0 0 0
0 0 0
0 0 0
0 0 0
0 0 0
0 0 0
0 0 0
0 0 0
0 0 0
0 0 0
0 0 0
0 0 0
0 0 0
0 0 0
0 0 0
0 0 0
0 0 0
0 0 0
0 0 0
0 0 0
0 0 0
0 0 0
0 0 0
0 0 0
0 0 0
0 0 0
0 0 0
0 0 0
0 0 0
0 0 0
0 0 0
0 0 0
0 0 0
0 0 0
0 0 0
0 0 0
0 0 0
0 0 0
0 0 0
0 0 0
0 0 0
0 0 0
0 0 0
0 0 0
0 0 0
0 0 0
0 0 0
0 0 0
0 0 0
0 0 0
0 0 0
0 0 0
0 0 0
0 0 0
0 0 0
0 0 0
0 0 0
0 0 0
0 0 0
0 0 0
0 0 0
0 0 0
0 0 0
0 0 0
0 0 0
0 0 0
0 0 0
0 0 0
0 0 0
0 0 0
0 0 0
0 0 0
0 0 0
0 0 0
0 0 0
0 0 0
0 0 0
0 0 0
0 0 0
0 0 0
0 0 0
0 0 0
0 0 0
0 0 0
0 0 0
0 0 0
0 0 0
0 0 0
0 0 0
0 0 0
0 0 0
0 0 0
0 0 0
0 0 0
0 0 0
0 0 0
0 0 0
0 0 0
0 0 0
0 0 0
0 0 0
0 0 0
0 0 0
0 0 0
0 0 0
0 0 0
0 0 0
0 0 0
0 0 0
0 0 0
0 0 0
0 0 0
0 0 0
0 0 0
0 0 0
0 0 0
0 0 0
0 0 0
0 0 0
0 0 0
0 0 0
0 0 0
0 0 0
0 0 0
0 0 0
0 0 0
0 0 0
0 0 0
0 0 0
0 0 0
0 0 0
0 0 0
0 0 0
0 0 0
0 0 0
0 0 0
0 0 0
0 0 0
0 0 0
0 0 0
0 0 0
0 0 0
0 0 0
0 0 0
0 0 0
0 0 0
0 0 0
0 0 0
0 0 0
0 0 0
0 0 0
0 0 0
0 0 0
0 0 0
0 0 0
0 0 0
0 0 0
0 0 0
0 0 0
0 0 0
0 0 0
0 0 0
0 0 0
0 0 0
0 0 0
0 0 0
0 0 0
0 0 0
0 0 0
0 0 0
0 0 0
0 0 0
0 0 0
0 0 0
0 0 0
0 0 0
0 0 0
0 0 0
0 0 0
0 0 0
0 0 0
0 0 0
0 0 0
0 0 0
0 0 0
0 0 0
0 0 0
0 0 0
0 0 0
0 0 0
0 0 0
0 0 0
0 0 0
0 0 0
0 0 0
0 0 0
0 0 0
0 0 0
0 0 0
0 0 0
0 0 0
0 0 0
0 0 0
0 0 0
0 0 0
0 0 0
0 0 0
0 0 0
0 0 0
0 0 0
0 0 0
0 0 0
0 0 0
0 0 0
0 0 0
0 0 0
0 0 0
0 0 0
0 0 0
0 0 0
0 0 0
0 0 0
0 0 0
0 0 0
0 0 0
0 0 0
0 0 0
0 0 0
0 0 0
0 0 0
0 0 0
0 0 0
0 0 0
0 0 0
0 0 0
0 0 0
0 0 0
0 0 0
0 0 0
0 0 0
0 0 0
0 0 0
0 0 0
0 0 0
0 0 0
0 0 0
0 0 0
0 0 0
0 0 0
0 0 0
0 0 0
0 0 0
0 0 0
0 0 0
0 0 0
0 0 0
0 0 0
0 0 0
0 0 0
0 0 0
0 0 0
0 0 0
0 0 0
0 0 0
0 0 0
0 0 0
0 0 0
0 0 0
0 0 0
0 0 0
0 0 0
0 0 0
0 0 0
0 0 0
0 0 0
0 0 0
0 0 0
0 0 0
0 0 0
0 0 0
0 0 0
0 0 0
0 0 0
0 0 0
0 0 0
0 0 0
0 0 0
0 0 0
0 0 0
0 0 0
0 0 0
0 0 0
0 0 0
0 0 0
0 0 0
0 0 0
0 0 0
0 0 0
0 0 0
0 0 0
0 0 0
0 0 0
0 0 0
0 0 0
0 0 0
0 0 0
0 0 0
0 0 0
0 0 0
0 0 0
0 0 0
0 0 0
0 0 0
0 0 0
0 0 0
0 0 0
0 0 0
0 0 0
0 0 0
0 0 0
0 0 0
0 0 0
0 0 0
0 0 0
0 0 0
0 0 0
0 0 0
0 0 0
0 0 0
0 0 0
0 0 0
0 0 0
0 0 0
0 0 0
0 0 0
0 0 0
0 0 0
0 0 0
0 0 0
0 0 0
0 0 0
0 0 0
0 0 0
0 0 0
0 0 0
0 0 0
0 0 0
0 0 0
0 0 0
0 0 0
0 0 0
0 0 0
0 0 0
0 0 0
0 0 0
0 0 0
0 0 0
0 0 0
0 0 0
0 0 0
0 0 0
0 0 0
0 0 0
0 0 0
0 0 0
0 0 0
0 0 0
0 0 0
0 0 0
0 0 0
0 0 0
0 0 0
0 0 0
0 0 0
0 0 0
0 0 0
0 0 0
0 0 0
0 0 0
0 0 0
0 0 0
0 0 0
0 0 0
0 0 0
0 0 0
0 0 0
0 0 0
0 0 0
0 0 0
0 0 0
0 0 0
0 0 0
0 0 0
0 0 0
0 0 0
0 0 0
0 0 0
0 0 0
0 0 0
0 0 0
0 0 0
0 0 0
0 0 0
0 0 0
0 0 0
0 0 0
0 0 0
0 0 0
0 0 0
0 0 0
0 0 0
0 0 0
0 0 0
0 0 0
0 0 0
0 0 0
0 0 0
0 0 0
0 0 0
0 0 0
0 0 0
0 0 0
0 0 0
0 0 0
0 0 0
0 0 0
0 0 0
0 0 0
0 0 0
0 0 0
0 0 0
0 0 0
0 0 0
0 0 0
0 0 0
0 0 0
0 0 0
0 0 0
0 0 0
0 0 0
0 0 0
0 0 0
0 0 0
0 0 0
0 0 0
0 0 0
0 0 0
0 0 0
0 0 0
0 0 0
0 0 0
0 0 0
0 0 0
0 0 0
0 0 0
0 0 0
0 0 0
0 0 0
0 0 0
0 0 0
0 0 0
0 0 0
0 0 0
0 0 0
0 0 0
0 0 0
0 0 0
0 0 0
0 0 0
0 0 0
0 0 0
0 0 0
0 0 0
0 0 0
0 0 0
0 0 0
0 0 0
0 0 0
0 0 0
0 0 0
0 0 0
0 0 0
0 0 0
0 0 0
0 0 0
0 0 0
0 0 0
0 0 0
0 0 0
0 0 0
0 0 0
0 0 0
0 0 0
0 0 0
0 0 0
0 0 0
0 0 0
0 0 0
0 0 0
0 0 0
0 0 0
0 0 0
0 0 0
0 0 0
0 0 0
0 0 0
0 0 0
0 0 0
0 0 0
0 0 0
0 0 0
0 0 0
0 0 0
0 0 0
0 0 0
0 0 0
0 0 0
0 0 0
0 0 0
0 0 0
0 0 0
0 0 0
0 0 0
0 0 0
0 0 0
0 0 0
0 0 0
0 0 0
0 0 0
0 0 0
0 0 0
0 0 0
0 0 0
0 0 0
0 0 0
0 0 0
0 0 0
0 0 0
0 0 0
0 0 0
0 0 0
0 0 0
0 0 0
0 0 0
0 0 0
0 0 0
0 0 0
0 0 0
0 0 0
0 0 0
0 0 0
0 0 0
0 0 0
0 0 0
0 0 0
0 0 0
0 0 0
0 0 0
0 0 0
0 0 0
0 0 0
0 0 0
0 0 0
0 0 0
0 0 0
0 0 0
0 0 0
0 0 0
0 0 0
0 0 0
0 0 0
0 0 0
0 0 0
0 0 0
0 0 0
0 0 0
0 0 0
0 0 0
0 0 0
0 0 0
0 0 0
0 0 0
0 0 0
0 0 0
0 0 0
0 0 0
0 0 0
0 0 0
0 0 0
0 0 0
0 0 0
0 0 0
0 0 0
0 0 0
0 0 0
0 0 0
0 0 0
0 0 0
0 0 0
0 0 0
0 0 0
0 0 0
0 0 0
0 0 0
0 0 0
0 0 0
0 0 0
0 0 0
0 0 0
0 0 0
0 0 0
0 0 0
0 0 0
0 0 0
0 0 0
0 0 0
0 0 0
0 0 0
0 0 0
0 0 0
0 0 0
0 0 0
0 0 0
0 0 0
0 0 0
0 0 0
0 0 0
0 0 0
0 0 0
0 0 0
0 0 0
0 0 0
0 0 0
0 0 0
0 0 0
0 0 0
0 0 0
0 0 0
0 0 0
0 0 0
0 0 0
0 0 0
0 0 0
0 0 0
0 0 0
0 0 0
0 0 0
0 0 0
0 0 0
0 0 0
0 0 0
0 0 0
0 0 0
0 0 0
0 0 0
0 0 0
0 0 0
0 0 0
0 0 0
0 0 0
0 0 0
0 0 0
0 0 0
0 0 0
0 0 0
0 0 0
0 0 0
0 0 0
0 0 0
0 0 0
0 0 0
0 0 0
0 0 0
0 0 0
0 0 0
0 0 0
0 0 0
0 0 0
0 0 0
0 0 0
0 0 0
0 0 0
0 0 0
0 0 0
0 0 0
0 0 0
0 0 0
0 0 0
0 0 0
0 0 0
0 0 0
0 0 0
0 0 0
0 0 0
0 0 0
0 0 0
0 0 0
0 0 0
0 0 0
0 0 0
0 0 0
0 0 0
0 0 0
0 0 0
0 0 0
0 0 0
0 0 0
0 0 0
0 0 0
0 0 0
0 0 0
0 0 0
0 0 0
0 0 0
0 0 0
0 0 0
0 0 0
0 0 0
0 0 0
0 0 0
0 0 0
0 0 0
0 0 0
0 0 0
0 0 0
0 0 0
0 0 0
0 0 0
0 0 0
0 0 0
0 0 0
0 0 0
0 0 0
0 0 0
0 0 0
0 0 0
0 0 0
0 0 0
0 0 0
0 0 0
0 0 0
0 0 0
0 0 0
0 0 0
0 0 0
0 0 0
0 0 0
0 0 0
0 0 0
0 0 0
0 0 0
0 0 0
0 0 0
0 0 0
0 0 0
0 0 0
0 0 0
0 0 0
0 0 0
0 0 0
0 0 0
0 0 0
0 0 0
0 0 0
0 0 0
0 0 0
0 0 0
0 0 0
0 0 0
0 0 0
0 0 0
0 0 0
0 0 0
0 0 0
0 0 0
0 0 0
0 0 0
0 0 0
0 0 0
0 0 0
0 0 0
0 0 0
0 0 0
0 0 0
0 0 0
0 0 0
0 0 0
0 0 0
0 0 0
0 0 0
0 0 0
0 0 0
0 0 0
0 0 0
0 0 0
0 0 0
0 0 0
0 0 0
0 0 0
0 0 0
0 0 0
0 0 0
0 0 0
0 0 0
0 0 0
0 0 0
0 0 0
0 0 0
0 0 0
0 0 0
0 0 0
0 0 0
0 0 0
0 0 0
0 0 0
0 0 0
0 0 0
0 0 0
0 0 0
0 0 0
0 0 0
0 0 0
0 0 0
0 0 0
0 0 0
0 0 0
0 0 0
0 0 0
0 0 0
0 0 0
0 0 0
0 0 0
0 0 0
0 0 0
0 0 0
0 0 0
0 0 0
0 0 0
0 0 0
0 0 0
0 0 0
0 0 0
0 0 0
0 0 0
0 0 0
0 0 0
0 0 0
0 0 0
0 0 0
0 0 0
0 0 0
0 0 0
0 0 0
0 0 0
0 0 0
0 0 0
0 0 0
0 0 0
0 0 0
0 0 0
0 0 0
0 0 0
0 0 0
0 0 0
0 0 0
0 0 0
0 0 0
0 0 0
0 0 0
0 0 0
0 0 0
0 0 0
0 0 0
0 0 0
0 0 0
0 0 0
0 0 0
0 0 0
0 0 0
0 0 0
0 0 0
0 0 0
0 0 0
0 0 0
0 0 0
0 0 0
0 0 0
0 0 0
0 0 0
0 0 0
0 0 0
0 0 0
0 0 0
0 0 0
0 0 0
0 0 0
0 0 0
0 0 0
0 0 0
0 0 0
0 0 0
0 0 0
0 0 0
0 0 0
0 0 0
0 0 0
0 0 0
0 0 0
0 0 0
0 0 0
0 0 0
0 0 0
0 0 0
0 0 0
0 0 0
0 0 0
0 0 0
0 0 0
0 0 0
0 0 0
0 0 0
0 0 0
0 0 0
0 0 0
0 0 0
0 0 0
0 0 0
0 0 0
0 0 0
0 0 0
0 0 0
0 0 0
0 0 0
0 0 0
0 0 0
0 0 0
0 0 0
0 0 0
0 0 0
0 0 0
0 0 0
0 0 0
0 0 0
0 0 0
0 0 0
0 0 0
0 0 0
0 0 0
0 0 0
0 0 0
0 0 0
0 0 0
0 0 0
0 0 0
0 0 0
0 0 0
0 0 0
0 0 0
0 0 0
0 0 0
0 0 0
0 0 0
0 0 0
0 0 0
0 0 0
0 0 0
0 0 0
0 0 0
0 0 0
0 0 0
0 0 0
0 0 0
0 0 0
0 0 0
0 0 0
0 0 0
0 0 0
0 0 0
0 0 0
0 0 0
0 0 0
0 0 0
0 0 0
0 0 0
0 0 0
0 0 0
0 0 0
0 0 0
0 0 0
0 0 0
0 0 0
0 0 0
0 0 0
0 0 0
0 0 0
0 0 0
0 0 0
0 0 0
0 0 0
0 0 0
0 0 0
0 0 0
0 0 0
0 0 0
0 0 0
0 0 0
0 0 0
0 0 0
0 0 0
0 0 0
0 0 0
0 0 0
0 0 0
0 0 0
0 0 0
0 0 0
0 0 0
0 0 0
0 0 0
0 0 0
0 0 0
0 0 0
0 0 0
0 0 0
0 0 0
0 0 0
0 0 0
0 0 0
0 0 0
0 0 0
0 0 0
0 0 0
0 0 0
0 0 0
0 0 0
0 0 0
0 0 0
0 0 0
0 0 0
0 0 0
0 0 0
0 0 0
0 0 0
0 0 0
0 0 0
0 0 0
0 0 0
0 0 0
0 0 0
0 0 0
0 0 0
0 0 0
0 0 0
0 0 0
0 0 0
0 0 0
0 0 0
0 0 0
0 0 0
0 0 0
0 0 0
0 0 0
0 0 0
0 0 0
0 0 0
0 0 0
0 0 0
0 0 0
0 0 0
0 0 0
0 0 0
0 0 0
0 0 0
0 0 0
0 0 0
0 0 0
0 0 0
0 0 0
0 0 0
0 0 0
0 0 0
0 0 0
0 0 0
0 0 0
0 0 0
0 0 0
0 0 0
0 0 0
0 0 0
0 0 0
0 0 0
0 0 0
0 0 0
0 0 0
0 0 0
0 0 0
0 0 0
0 0 0
0 0 0
0 0 0
0 0 0
0 0 0
0 0 0
0 0 0
0 0 0
0 0 0
0 0 0
0 0 0
0 0 0
0 0 0
0 0 0
0 0 0
0 0 0
0 0 0
0 0 0
0 0 0
0 0 0
0 0 0
0 0 0
0 0 0
0 0 0
0 0 0
0 0 0
0 0 0
0 0 0
0 0 0
0 0 0
0 0 0
0 0 0
0 0 0
0 0 0
0 0 0
0 0 0
0 0 0
0 0 0
0 0 0
0 0 0
0 0 0
0 0 0
0 0 0
0 0 0
0 0 0
0 0 0
0 0 0
0 0 0
0 0 0
0 0 0
0 0 0
0 0 0
0 0 0
0 0 0
0 0 0
0 0 0
0 0 0
0 0 0
0 0 0
0 0 0
0 0 0
0 0 0
0 0 0
0 0 0
0 0 0
0 0 0
0 0 0
0 0 0
0 0 0
0 0 0
0 0 0
0 0 0
0 0 0
0 0 0
0 0 0
0 0 0
0 0 0
0 0 0
0 0 0
0 0 0
0 0 0
0 0 0
0 0 0
0 0 0
0 0 0
0 0 0
0 0 0
0 0 0
0 0 0
0 0 0
0 0 0
0 0 0
0 0 0
0 0 0
0 0 0
0 0 0
0 0 0
0 0 0
0 0 0
0 0 0
0 0 0
0 0 0
0 0 0
0 0 0
0 0 0
0 0 0
0 0 0
0 0 0
0 0 0
0 0 0
0 0 0
0 0 0
0 0 0
0 0 0
0 0 0
0 0 0
0 0 0
0 0 0
0 0 0
0 0 0
0 0 0
0 0 0
0 0 0
0 0 0
0 0 0
0 0 0
0 0 0
0 0 0
0 0 0
0 0 0
0 0 0
0 0 0
0 0 0
0 0 0
0 0 0
0 0 0
0 0 0
0 0 0
0 0 0
0 0 0
0 0 0
0 0 0
0 0 0
0 0 0
0 0 0
0 0 0
0 0 0
0 0 0
0 0 0
0 0 0
0 0 0
0 0 0
0 0 0
0 0 0
0 0 0
0 0 0
0 0 0
0 0 0
0 0 0
0 0 0
0 0 0
0 0 0
0 0 0
0 0 0
0 0 0
0 0 0
0 0 0
0 0 0
0 0 0
0 0 0
0 0 0
0 0 0
0 0 0
0 0 0
0 0 0
0 0 0
0 0 0
0 0 0
0 0 0
0 0 0
0 0 0
0 0 0
0 0 0
0 0 0
0 0 0
0 0 0
0 0 0
0 0 0
0 0 0
0 0 0
0 0 0
0 0 0
0 0 0
0 0 0
0 0 0
0 0 0
0 0 0
0 0 0
0 0 0
0 0 0
0 0 0
0 0 0
0 0 0
0 0 0
0 0 0
0 0 0
0 0 0
0 0 0
0 0 0
0 0 0
0 0 0
0 0 0
0 0 0
0 0 0
0 0 0
0 0 0
0 0 0
0 0 0
0 0 0
0 0 0
0 0 0
0 0 0
0 0 0
0 0 0
0 0 0
0 0 0
0 0 0
0 0 0
0 0 0
0 0 0
0 0 0
0 0 0
0 0 0
0 0 0
0 0 0
0 0 0
0 0 0
0 0 0
0 0 0
0 0 0
0 0 0
0 0 0
0 0 0
0 0 0
0 0 0
0 0 0
0 0 0
0 0 0
0 0 0
0 0 0
0 0 0
0 0 0
0 0 0
0 0 0
0 0 0
0 0 0
0 0 0
0 0 0
0 0 0
0 0 0
0 0 0
0 0 0
0 0 0
0 0 0
0 0 0
0 0 0
0 0 0
0 0 0
0 0 0
0 0 0
0 0 0
0 0 0
0 0 0
0 0 0
0 0 0
0 0 0
0 0 0
0 0 0
0 0 0
0 0 0
0 0 0
0 0 0
0 0 0
0 0 0
0 0 0
0 0 0
0 0 0
0 0 0
0 0 0
0 0 0
0 0 0
0 0 0
0 0 0
0 0 0
0 0 0
0 0 0
0 0 0
0 0 0
0 0 0
0 0 0
0 0 0
0 0 0
0 0 0
0 0 0
0 0 0
0 0 0
0 0 0
0 0 0
0 0 0
0 0 0
0 0 0
0 0 0
0 0 0
0 0 0
0 0 0
0 0 0
0 0 0
0 0 0
0 0 0
0 0 0
0 0 0
0 0 0
0 0 0
0 0 0
0 0 0
0 0 0
0 0 0
0 0 0
0 0 0
0 0 0
0 0 0
0 0 0
0 0 0
0 0 0
0 0 0
0 0 0
0 0 0
0 0 0
0 0 0
0 0 0
0 0 0
0 0 0
0 0 0
0 0 0
0 0 0
0 0 0
0 0 0
0 0 0
0 0 0
0 0 0
0 0 0
0 0 0
0 0 0
0 0 0
0 0 0
0 0 0
0 0 0
0 0 0
0 0 0
0 0 0
0 0 0
0 0 0
0 0 0
0 0 0
0 0 0
0 0 0
0 0 0
0 0 0
0 0 0
0 0 0
0 0 0
0 0 0
0 0 0
0 0 0
0 0 0
0 0 0
0 0 0
0 0 0
0 0 0
0 0 0
0 0 0
0 0 0
0 0 0
0 0 0
0 0 0
0 0 0
0 0 0
0 0 0
0 0 0
0 0 0
0 0 0
0 0 0
0 0 0
0 0 0
0 0 0
0 0 0
0 0 0
0 0 0
0 0 0
0 0 0
0 0 0
0 0 0
0 0 0
0 0 0
0 0 0
0 0 0
0 0 0
0 0 0
0 0 0
0 0 0
0 0 0
0 0 0
0 0 0
0 0 0
0 0 0
0 0 0
0 0 0
0 0 0
0 0 0
0 0 0
0 0 0
0 0 0
0 0 0
0 0 0
0 0 0
0 0 0
0 0 0
0 0 0
0 0 0
0 0 0
0 0 0
0 0 0
0 0 0
0 0 0
0 0 0
0 0 0
0 0 0
0 0 0
0 0 0
0 0 0
0 0 0
0 0 0
0 0 0
0 0 0
0 0 0
0 0 0
0 0 0
0 0 0
0 0 0
0 0 0
0 0 0
0 0 0
0 0 0
0 0 0
0 0 0
0 0 0
0 0 0
0 0 0
0 0 0
0 0 0
0 0 0
0 0 0
0 0 0
0 0 0
0 0 0
0 0 0
0 0 0
0 0 0
0 0 0
0 0 0
0 0 0
0 0 0
0 0 0
0 0 0
0 0 0
0 0 0
0 0 0
0 0 0
0 0 0
0 0 0
0 0 0
0 0 0
0 0 0
0 0 0
0 0 0
0 0 0
0 0 0
0 0 0
0 0 0
0 0 0
0 0 0
0 0 0
0 0 0
0 0 0
0 0 0
0 0 0
0 0 0
0 0 0
0 0 0
0 0 0
0 0 0
0 0 0
0 0 0
0 0 0
0 0 0
0 0 0
0 0 0
0 0 0
0 0 0
0 0 0
0 0 0
0 0 0
0 0 0
0 0 0
0 0 0
0 0 0
0 0 0
0 0 0
0 0 0
0 0 0
0 0 0
0 0 0
0 0 0
0 0 0
0 0 0
0 0 0
0 0 0
0 0 0
0 0 0
0 0 0
0 0 0
0 0 0
0 0 0
0 0 0
0 0 0
0 0 0
0 0 0
0 0 0
0 0 0
0 0 0
0 0 0
0 0 0
0 0 0
0 0 0
0 0 0
0 0 0
0 0 0
0 0 0
0 0 0
0 0 0
0 0 0
0 0 0
0 0 0
0 0 0
0 0 0
0 0 0
0 0 0
0 0 0
0 0 0
0 0 0
0 0 0
0 0 0
0 0 0
0 0 0
0 0 0
0 0 0
0 0 0
0 0 0
0 0 0
0 0 0
0 0 0
0 0 0
0 0 0
0 0 0
0 0 0
0 0 0
0 0 0
0 0 0
0 0 0
0 0 0
0 0 0
0 0 0
0 0 0
0 0 0
0 0 0
0 0 0
0 0 0
0 0 0
0 0 0
0 0 0
0 0 0
0 0 0
0 0 0
0 0 0
0 0 0
0 0 0
0 0 0
0 0 0
0 0 0
0 0 0
0 0 0
0 0 0
0 0 0
0 0 0
0 0 0
0 0 0
0 0 0
0 0 0
0 0 0
0 0 0
0 0 0
0 0 0
0 0 0
0 0 0
0 0 0
0 0 0
0 0 0
0 0 0
0 0 0
0 0 0
0 0 0
0 0 0
0 0 0
0 0 0
0 0 0
0 0 0
0 0 0
0 0 0
0 0 0
0 0 0
0 0 0
0 0 0
0 0 0
0 0 0
0 0 0
0 0 0
0 0 0
0 0 0
0 0 0
0 0 0
0 0 0
0 0 0
0 0 0
0 0 0
0 0 0
0 0 0
0 0 0
0 0 0
0 0 0
0 0 0
0 0 0
0 0 0
0 0 0
0 0 0
0 0 0
0 0 0
0 0 0
0 0 0
0 0 0
0 0 0
0 0 0
0 0 0
0 0 0
0 0 0
0 0 0
0 0 0
0 0 0
0 0 0
0 0 0
0 0 0
0 0 0
0 0 0
0 0 0
0 0 0
0 0 0
0 0 0
0 0 0
0 0 0
0 0 0
0 0 0
0 0 0
0 0 0
0 0 0
0 0 0
0 0 0
0 0 0
0 0 0
0 0 0
0 0 0
0 0 0
0 0 0
0 0 0
0 0 0
0 0 0
0 0 0
0 0 0
0 0 0
0 0 0
0 0 0
0 0 0
0 0 0
0 0 0
0 0 0
0 0 0
0 0 0
0 0 0
0 0 0
0 0 0
0 0 0
0 0 0
0 0 0
0 0 0
0 0 0
0 0 0
0 0 0
0 0 0
0 0 0
0 0 0
0 0 0
0 0 0
0 0 0
0 0 0
0 0 0
0 0 0
0 0 0
0 0 0
0 0 0
0 0 0
0 0 0
0 0 0
0 0 0
0 0 0
0 0 0
0 0 0
0 0 0
0 0 0
0 0 0
0 0 0
0 0 0
0 0 0
0 0 0
0 0 0
0 0 0
0 0 0
0 0 0
0 0 0
0 0 0
0 0 0
0 0 0
0 0 0
0 0 0
0 0 0
0 0 0
0 0 0
0 0 0
0 0 0
0 0 0
0 0 0
0 0 0
0 0 0
0 0 0
0 0 0
0 0 0
0 0 0
0 0 0
0 0 0
0 0 0
0 0 0
0 0 0
0 0 0
0 0 0
0 0 0
0 0 0
0 0 0
0 0 0
0 0 0
0 0 0
0 0 0
0 0 0
0 0 0
0 0 0
0 0 0
0 0 0
0 0 0
0 0 0
0 0 0
0 0 0
0 0 0
0 0 0
0 0 0
0 0 0
0 0 0
0 0 0
0 0 0
0 0 0
0 0 0
0 0 0
0 0 0
0 0 0
0 0 0
0 0 0
0 0 0
0 0 0
0 0 0
0 0 0
0 0 0
0 0 0
0 0 0
0 0 0
0 0 0
0 0 0
0 0 0
0 0 0
0 0 0
0 0 0
0 0 0
0 0 0
0 0 0
0 0 0
0 0 0
0 0 0
0 0 0
0 0 0
0 0 0
0 0 0
0 0 0
0 0 0
0 0 0
0 0 0
0 0 0
0 0 0
0 0 0
0 0 0
0 0 0
0 0 0
0 0 0
0 0 0
0 0 0
0 0 0
0 0 0
0 0 0
0 0 0
0 0 0
0 0 0
0 0 0
0 0 0
0 0 0
0 0 0
0 0 0
0 0 0
0 0 0
0 0 0
0 0 0
0 0 0
0 0 0
0 0 0
0 0 0
0 0 0
0 0 0
0 0 0
0 0 0
0 0 0
0 0 0
0 0 0
0 0 0
0 0 0
0 0 0
0 0 0
0 0 0
0 0 0
0 0 0
0 0 0
0 0 0
0 0 0
0 0 0
0 0 0
0 0 0
0 0 0
0 0 0
0 0 0
0 0 0
0 0 0
0 0 0
0 0 0
0 0 0
0 0 0
0 0 0
0 0 0
0 0 0
0 0 0
0 0 0
0 0 0
0 0 0
0 0 0
0 0 0
0 0 0
0 0 0
0 0 0
0 0 0
0 0 0
0 0 0
0 0 0
0 0 0
0 0 0
0 0 0
0 0 0
0 0 0
0 0 0
0 0 0
0 0 0
0 0 0
0 0 0
0 0 0
0 0 0
0 0 0
0 0 0
0 0 0
0 0 0
0 0 0
0 0 0
0 0 0
0 0 0
0 0 0
0 0 0
0 0 0
0 0 0
0 0 0
0 0 0
0 0 0
0 0 0
0 0 0
0 0 0
0 0 0
0 0 0
0 0 0
0 0 0
0 0 0
0 0 0
0 0 0
0 0 0
0 0 0
0 0 0
0 0 0
0 0 0
0 0 0
0 0 0
0 0 0
0 0 0
0 0 0
0 0 0
0 0 0
0 0 0
0 0 0
0 0 0
0 0 0
0 0 0
0 0 0
0 0 0
0 0 0
0 0 0
0 0 0
0 0 0
0 0 0
0 0 0
0 0 0
0 0 0
0 0 0
0 0 0
0 0 0
0 0 0
0 0 0
0 0 0
0 0 0
0 0 0
0 0 0
0 0 0
0 0 0
0 0 0
0 0 0
0 0 0
0 0 0
0 0 0
0 0 0
0 0 0
0 0 0
0 0 0
0 0 0
0 0 0
0 0 0
0 0 0
0 0 0
0 0 0
0 0 0
0 0 0
0 0 0
0 0 0
0 0 0
0 0 0
0 0 0
0 0 0
0 0 0
0 0 0
0 0 0
0 0 0
0 0 0
0 0 0
0 0 0
0 0 0
0 0 0
0 0 0
0 0 0
0 0 0
0 0 0
0 0 0
0 0 0
0 0 0
0 0 0
0 0 0
0 0 0
0 0 0
0 0 0
0 0 0
0 0 0
0 0 0
0 0 0
0 0 0
0 0 0
0 0 0
0 0 0
0 0 0
0 0 0
0 0 0
0 0 0
0 0 0
0 0 0
0 0 0
0 0 0
0 0 0
0 0 0
0 0 0
0 0 0
0 0 0
0 0 0
0 0 0
0 0 0
0 0 0
0 0 0
0 0 0
0 0 0
0 0 0
0 0 0
0 0 0
0 0 0
0 0 0
0 0 0
0 0 0
0 0 0
0 0 0
0 0 0
0 0 0
0 0 0
0 0 0
0 0 0
0 0 0
0 0 0
0 0 0
0 0 0
0 0 0
0 0 0
0 0 0
0 0 0
0 0 0
0 0 0
0 0 0
0 0 0
0 0 0
0 0 0
0 0 0
0 0 0
0 0 0
0 0 0
0 0 0
0 0 0
0 0 0
0 0 0
0 0 0
0 0 0
0 0 0
0 0 0
0 0 0
0 0 0
0 0 0
0 0 0
0 0 0
0 0 0
0 0 0
0 0 0
0 0 0
0 0 0
0 0 0
0 0 0
0 0 0
0 0 0
0 0 0
0 0 0
0 0 0
0 0 0
0 0 0
0 0 0
0 0 0
0 0 0
0 0 0
0 0 0
0 0 0
0 0 0
0 0 0
0 0 0
0 0 0
0 0 0
0 0 0
0 0 0
0 0 0
0 0 0
0 0 0
0 0 0
0 0 0
0 0 0
0 0 0
0 0 0
0 0 0
0 0 0
0 0 0
0 0 0
0 0 0
0 0 0
0 0 0
0 0 0
0 0 0
0 0 0
0 0 0
0 0 0
0 0 0
0 0 0
0 0 0
0 0 0
0 0 0
0 0 0
0 0 0
0 0 0
0 0 0
0 0 0
0 0 0
0 0 0
0 0 0
0 0 0
0 0 0
0 0 0
0 0 0
0 0 0
0 0 0
0 0 0
0 0 0
0 0 0
0 0 0
0 0 0
0 0 0
0 0 0
0 0 0
0 0 0
0 0 0
0 0 0
0 0 0
0 0 0
0 0 0
0 0 0
0 0 0
0 0 0
0 0 0
0 0 0
0 0 0
0 0 0
0 0 0
0 0 0
0 0 0
0 0 0
0 0 0
0 0 0
0 0 0
0 0 0
0 0 0
0 0 0
0 0 0
0 0 0
0 0 0
0 0 0
0 0 0
0 0 0
0 0 0
0 0 0
0 0 0
0 0 0
0 0 0
0 0 0
0 0 0
0 0 0
0 0 0
0 0 0
0 0 0
0 0 0
0 0 0
0 0 0
0 0 0
0 0 0
0 0 0
0 0 0
0 0 0
0 0 0
0 0 0
0 0 0
0 0 0
0 0 0
0 0 0
0 0 0
0 0 0
0 0 0
0 0 0
0 0 0
0 0 0
0 0 0
0 0 0
0 0 0
0 0 0
0 0 0
0 0 0
0 0 0
0 0 0
0 0 0
0 0 0
0 0 0
0 0 0
0 0 0
0 0 0
0 0 0
0 0 0
0 0 0
0 0 0
0 0 0
0 0 0
0 0 0
0 0 0
0 0 0
0 0 0
0 0 0
0 0 0
0 0 0
0 0 0
0 0 0
0 0 0
0 0 0
0 0 0
0 0 0
0 0 0
0 0 0
0 0 0
0 0 0
0 0 0
0 0 0
0 0 0
0 0 0
0 0 0
0 0 0
0 0 0
0 0 0
0 0 0
0 0 0
0 0 0
0 0 0
0 0 0
0 0 0
0 0 0
0 0 0
0 0 0
0 0 0
0 0 0
0 0 0
0 0 0
0 0 0
0 0 0
0 0 0
0 0 0
0 0 0
0 0 0
0 0 0
0 0 0
0 0 0
0 0 0
0 0 0
0 0 0
0 0 0
0 0 0
0 0 0
0 0 0
0 0 0
0 0 0
0 0 0
0 0 0
0 0 0
0 0 0
0 0 0
0 0 0
0 0 0
0 0 0
0 0 0
0 0 0
0 0 0
0 0 0
0 0 0
0 0 0
0 0 0
0 0 0
0 0 0
0 0 0
0 0 0
0 0 0
0 0 0
0 0 0
0 0 0
0 0 0
0 0 0
0 0 0
0 0 0
0 0 0
0 0 0
0 0 0
0 0 0
0 0 0
0 0 0
0 0 0
0 0 0
0 0 0
0 0 0
0 0 0
0 0 0
0 0 0
0 0 0
0 0 0
0 0 0
0 0 0
0 0 0
0 0 0
0 0 0
0 0 0
0 0 0
0 0 0
0 0 0
0 0 0
0 0 0
0 0 0
0 0 0
0 0 0
0 0 0
0 0 0
0 0 0
0 0 0
0 0 0
0 0 0
0 0 0
0 0 0
0 0 0
0 0 0
0 0 0
0 0 0
0 0 0
0 0 0
0 0 0
0 0 0
0 0 0
0 0 0
0 0 0
0 0 0
0 0 0
0 0 0
0 0 0
0 0 0
0 0 0
0 0 0
0 0 0
0 0 0
0 0 0
0 0 0
0 0 0
0 0 0
0 0 0
0 0 0
0 0 0
0 0 0
0 0 0
0 0 0
0 0 0
0 0 0
0 0 0
0 0 0
0 0 0
0 0 0
0 0 0
0 0 0
0 0 0
0 0 0
0 0 0
0 0 0
0 0 0
0 0 0
0 0 0
0 0 0
0 0 0
0 0 0
0 0 0
0 0 0
0 0 0
0 0 0
0 0 0
0 0 0
0 0 0
0 0 0
0 0 0
0 0 0
0 0 0
0 0 0
0 0 0
0 0 0
0 0 0
0 0 0
0 0 0
0 0 0
0 0 0
0 0 0
0 0 0
0 0 0
0 0 0
0 0 0
0 0 0
0 0 0
0 0 0
0 0 0
0 0 0
0 0 0
0 0 0
0 0 0
0 0 0
0 0 0
0 0 0
0 0 0
0 0 0
0 0 0
0 0 0
0 0 0
0 0 0
0 0 0
0 0 0
0 0 0
0 0 0
0 0 0
0 0 0
0 0 0
0 0 0
0 0 0
0 0 0
0 0 0
0 0 0
0 0 0
0 0 0
0 0 0
0 0 0
0 0 0
0 0 0
0 0 0
0 0 0
0 0 0
0 0 0
0 0 0
0 0 0
0 0 0
0 0 0
0 0 0
0 0 0
0 0 0
0 0 0
0 0 0
0 0 0
0 0 0
0 0 0
0 0 0
0 0 0
0 0 0
0 0 0
0 0 0
0 0 0
0 0 0
0 0 0
0 0 0
0 0 0
0 0 0
0 0 0
0 0 0
0 0 0
0 0 0
0 0 0
0 0 0
0 0 0
0 0 0
0 0 0
0 0 0
0 0 0
0 0 0
0 0 0
0 0 0
0 0 0
0 0 0
0 0 0
0 0 0
0 0 0
0 0 0
0 0 0
0 0 0
0 0 0
0 0 0
0 0 0
0 0 0
0 0 0
0 0 0
0 0 0
0 0 0
0 0 0
0 0 0
0 0 0
0 0 0
0 0 0
0 0 0
0 0 0
0 0 0
0 0 0
0 0 0
0 0 0
0 0 0
0 0 0
0 0 0
0 0 0
0 0 0
0 0 0
0 0 0
0 0 0
0 0 0
0 0 0
0 0 0
0 0 0
0 0 0
0 0 0
0 0 0
0 0 0
0 0 0
0 0 0
0 0 0
0 0 0
0 0 0
0 0 0
0 0 0
0 0 0
0 0 0
0 0 0
0 0 0
0 0 0
0 0 0
0 0 0
0 0 0
0 0 0
0 0 0
0 0 0
0 0 0
0 0 0
0 0 0
0 0 0
0 0 0
0 0 0
0 0 0
0 0 0
0 0 0
0 0 0
0 0 0
0 0 0
0 0 0
0 0 0
0 0 0
0 0 0
0 0 0
0 0 0
0 0 0
0 0 0
0 0 0
0 0 0
0 0 0
0 0 0
0 0 0
0 0 0
0 0 0
0 0 0
0 0 0
0 0 0
0 0 0
0 0 0
0 0 0
0 0 0
0 0 0
0 0 0
0 0 0
0 0 0
0 0 0
0 0 0
0 0 0
0 0 0
0 0 0
0 0 0
0 0 0
0 0 0
0 0 0
0 0 0
0 0 0
0 0 0
0 0 0
0 0 0
0 0 0
0 0 0
0 0 0
0 0 0
0 0 0
0 0 0
0 0 0
0 0 0
0 0 0
0 0 0
0 0 0
0 0 0
0 0 0
0 0 0
0 0 0
0 0 0
0 0 0
0 0 0
0 0 0
0 0 0
0 0 0
0 0 0
0 0 0
0 0 0
0 0 0
0 0 0
0 0 0
0 0 0
0 0 0
0 0 0
0 0 0
0 0 0
0 0 0
0 0 0
0 0 0
0 0 0
0 0 0
0 0 0
0 0 0
0 0 0
0 0 0
0 0 0
0 0 0
0 0 0
0 0 0
0 0 0
0 0 0
0 0 0
0 0 0
0 0 0
0 0 0
0 0 0
0 0 0
0 0 0
0 0 0
0 0 0
0 0 0
0 0 0
0 0 0
0 0 0
0 0 0
0 0 0
0 0 0
0 0 0
0 0 0
0 0 0
0 0 0
0 0 0
0 0 0
0 0 0
0 0 0
0 0 0
0 0 0
0 0 0
0 0 0
0 0 0
0 0 0
0 0 0
0 0 0
0 0 0
0 0 0
0 0 0
0 0 0
0 0 0
0 0 0
0 0 0
0 0 0
0 0 0
0 0 0
0 0 0
0 0 0
0 0 0
0 0 0
0 0 0
0 0 0
0 0 0
0 0 0
0 0 0
0 0 0
0 0 0
0 0 0
0 0 0
0 0 0
0 0 0
0 0 0
0 0 0
0 0 0
0 0 0
0 0 0
0 0 0
0 0 0
0 0 0
0 0 0
0 0 0
0 0 0
0 0 0
0 0 0
0 0 0
0 0 0
0 0 0
0 0 0
0 0 0
0 0 0
0 0 0
0 0 0
0 0 0
0 0 0
0 0 0
0 0 0
0 0 0
0 0 0
0 0 0
0 0 0
0 0 0
0 0 0
0 0 0
0 0 0
0 0 0
0 0 0
0 0 0
0 0 0
0 0 0
0 0 0
0 0 0
0 0 0
0 0 0
0 0 0
0 0 0
0 0 0
0 0 0
0 0 0
0 0 0
0 0 0
0 0 0
0 0 0
0 0 0
0 0 0
0 0 0
0 0 0
0 0 0
0 0 0
0 0 0
0 0 0
0 0 0
0 0 0
0 0 0
0 0 0
0 0 0
0 0 0
0 0 0
0 0 0
0 0 0
0 0 0
0 0 0
0 0 0
0 0 0
0 0 0
0 0 0
0 0 0
0 0 0
0 0 0
0 0 0
0 0 0
0 0 0
0 0 0
0 0 0
0 0 0
0 0 0
0 0 0
0 0 0
0 0 0
0 0 0
0 0 0
0 0 0
0 0 0
0 0 0
0 0 0
0 0 0
0 0 0
0 0 0
0 0 0
0 0 0
0 0 0
0 0 0
0 0 0
0 0 0
0 0 0
0 0 0
0 0 0
0 0 0
0 0 0
0 0 0
0 0 0
0 0 0
0 0 0
0 0 0
0 0 0
0 0 0
0 0 0
0 0 0
0 0 0
0 0 0
0 0 0
0 0 0
0 0 0
0 0 0
0 0 0
0 0 0
0 0 0
0 0 0
0 0 0
0 0 0
0 0 0
0 0 0
0 0 0
0 0 0
0 0 0
0 0 0
0 0 0
0 0 0
0 0 0
0 0 0
0 0 0
0 0 0
0 0 0
0 0 0
0 0 0
0 0 0
0 0 0
0 0 0
0 0 0
0 0 0
0 0 0
0 0 0
0 0 0
0 0 0
0 0 0
0 0 0
0 0 0
0 0 0
0 0 0
0 0 0
0 0 0
0 0 0
0 0 0
0 0 0
0 0 0
0 0 0
0 0 0
0 0 0
0 0 0
0 0 0
0 0 0
0 0 0
0 0 0
0 0 0
0 0 0
0 0 0
0 0 0
0 0 0
0 0 0
0 0 0
0 0 0
0 0 0
0 0 0
0 0 0
0 0 0
0 0 0
0 0 0
0 0 0
0 0 0
0 0 0
0 0 0
0 0 0
0 0 0
0 0 0
0 0 0
0 0 0
0 0 0
0 0 0
0 0 0
0 0 0
0 0 0
0 0 0
0 0 0
0 0 0
0 0 0
0 0 0
0 0 0
0 0 0
0 0 0
0 0 0
0 0 0
0 0 0
0 0 0
0 0 0
0 0 0
0 0 0
0 0 0
0 0 0
0 0 0
0 0 0
0 0 0
0 0 0
0 0 0
0 0 0
0 0 0
0 0 0
0 0 0
0 0 0
0 0 0
0 0 0
0 0 0
0 0 0
0 0 0
0 0 0
0 0 0
0 0 0
0 0 0
0 0 0
0 0 0
0 0 0
0 0 0
0 0 0
0 0 0
0 0 0
0 0 0
0 0 0
0 0 0
0 0 0
0 0 0
0 0 0
0 0 0
0 0 0
0 0 0
0 0 0
0 0 0
0 0 0
0 0 0
0 0 0
0 0 0
0 0 0
0 0 0
0 0 0
0 0 0
0 0 0
0 0 0
0 0 0
0 0 0
0 0 0
0 0 0
0 0 0
0 0 0
0 0 0
0 0 0
0 0 0
0 0 0
0 0 0
0 0 0
0 0 0
0 0 0
0 0 0
0 0 0
0 0 0
0 0 0
0 0 0
0 0 0
0 0 0
0 0 0
0 0 0
0 0 0
0 0 0
0 0 0
0 0 0
0 0 0
0 0 0
0 0 0
0 0 0
0 0 0
0 0 0
0 0 0
0 0 0
0 0 0
0 0 0
0 0 0
0 0 0
0 0 0
0 0 0
0 0 0
0 0 0
0 0 0
0 0 0
0 0 0
0 0 0
0 0 0
0 0 0
0 0 0
0 0 0
0 0 0
0 0 0
0 0 0
0 0 0
0 0 0
0 0 0
0 0 0
0 0 0
0 0 0
0 0 0
0 0 0
0 0 0
0 0 0
0 0 0
0 0 0
0 0 0
0 0 0
0 0 0
0 0 0
0 0 0
0 0 0
0 0 0
0 0 0
0 0 0
0 0 0
0 0 0
0 0 0
0 0 0
0 0 0
0 0 0
0 0 0
0 0 0
0 0 0
0 0 0
0 0 0
0 0 0
0 0 0
0 0 0
0 0 0
0 0 0
0 0 0
0 0 0
0 0 0
0 0 0
0 0 0
0 0 0
0 0 0
0 0 0
0 0 0
0 0 0
0 0 0
0 0 0
0 0 0
0 0 0
0 0 0
0 0 0
0 0 0
0 0 0
0 0 0
0 0 0
0 0 0
0 0 0
0 0 0
0 0 0
0 0 0
0 0 0
0 0 0
0 0 0
0 0 0
0 0 0
0 0 0
0 0 0
0 0 0
0 0 0
0 0 0
0 0 0
0 0 0
0 0 0
0 0 0
0 0 0
0 0 0
0 0 0
0 0 0
0 0 0
0 0 0
0 0 0
0 0 0
0 0 0
0 0 0
0 0 0
0 0 0
0 0 0
0 0 0
0 0 0
0 0 0
0 0 0
0 0 0
0 0 0
0 0 0
0 0 0
0 0 0
0 0 0
0 0 0
0 0 0
0 0 0
0 0 0
0 0 0
0 0 0
0 0 0
0 0 0
0 0 0
0 0 0
0 0 0
0 0 0
0 0 0
0 0 0
0 0 0
0 0 0
0 0 0
0 0 0
0 0 0
0 0 0
0 0 0
0 0 0
0 0 0
0 0 0
0 0 0
0 0 0
0 0 0
0 0 0
0 0 0
0 0 0
0 0 0
0 0 0
0 0 0
0 0 0
0 0 0
0 0 0
0 0 0
0 0 0
0 0 0
0 0 0
0 0 0
0 0 0
0 0 0
0 0 0
0 0 0
0 0 0
0 0 0
0 0 0
0 0 0
0 0 0
0 0 0
0 0 0
0 0 0
0 0 0
0 0 0
0 0 0
0 0 0
0 0 0
0 0 0
0 0 0
0 0 0
0 0 0
0 0 0
0 0 0
0 0 0
0 0 0
0 0 0
0 0 0
0 0 0
0 0 0
0 0 0
0 0 0
0 0 0
0 0 0
0 0 0
0 0 0
0 0 0
0 0 0
0 0 0
0 0 0
0 0 0
0 0 0
0 0 0
0 0 0
0 0 0
0 0 0
0 0 0
0 0 0
0 0 0
0 0 0
0 0 0
0 0 0
0 0 0
0 0 0
0 0 0
0 0 0
0 0 0
0 0 0
0 0 0
0 0 0
0 0 0
0 0 0
0 0 0
0 0 0
0 0 0
0 0 0
0 0 0
0 0 0
0 0 0
0 0 0
0 0 0
0 0 0
0 0 0
0 0 0
0 0 0
0 0 0
0 0 0
0 0 0
0 0 0
0 0 0
0 0 0
0 0 0
0 0 0
0 0 0
0 0 0
0 0 0
0 0 0
0 0 0
0 0 0
0 0 0
0 0 0
0 0 0
0 0 0
0 0 0
0 0 0
0 0 0
0 0 0
0 0 0
0 0 0
0 0 0
0 0 0
0 0 0
0 0 0
0 0 0
0 0 0
0 0 0
0 0 0
0 0 0
0 0 0
0 0 0
0 0 0
0 0 0
0 0 0
0 0 0
0 0 0
0 0 0
0 0 0
0 0 0
0 0 0
0 0 0
0 0 0
0 0 0
0 0 0
0 0 0
0 0 0
0 0 0
0 0 0
0 0 0
0 0 0
0 0 0
0 0 0
0 0 0
0 0 0
0 0 0
0 0 0
0 0 0
0 0 0
0 0 0
0 0 0
0 0 0
0 0 0
0 0 0
0 0 0
0 0 0
0 0 0
0 0 0
0 0 0
0 0 0
0 0 0
0 0 0
0 0 0
0 0 0
0 0 0
0 0 0
0 0 0
0 0 0
0 0 0
0 0 0
0 0 0
0 0 0
0 0 0
0 0 0
0 0 0
0 0 0
0 0 0
0 0 0
0 0 0
0 0 0
0 0 0
0 0 0
0 0 0
0 0 0
0 0 0
0 0 0
0 0 0
0 0 0
0 0 0
0 0 0
0 0 0
0 0 0
0 0 0
0 0 0
0 0 0
0 0 0
0 0 0
0 0 0
0 0 0
0 0 0
0 0 0
0 0 0
0 0 0
0 0 0
0 0 0
0 0 0
0 0 0
0 0 0
0 0 0
0 0 0
0 0 0
0 0 0
0 0 0
0 0 0
0 0 0
0 0 0
0 0 0
0 0 0
0 0 0
0 0 0
0 0 0
0 0 0
0 0 0
0 0 0
0 0 0
0 0 0
0 0 0
0 0 0
0 0 0
0 0 0
0 0 0
0 0 0
0 0 0
0 0 0
0 0 0
0 0 0
0 0 0
0 0 0
0 0 0
0 0 0
0 0 0
0 0 0
0 0 0
0 0 0
0 0 0
0 0 0
0 0 0
0 0 0
0 0 0
0 0 0
0 0 0
0 0 0
0 0 0
0 0 0
0 0 0
0 0 0
0 0 0
0 0 0
0 0 0
0 0 0
0 0 0
0 0 0
0 0 0
0 0 0
0 0 0
0 0 0
0 0 0
0 0 0
0 0 0
0 0 0
0 0 0
0 0 0
0 0 0
0 0 0
0 0 0
0 0 0
0 0 0
0 0 0
0 0 0
0 0 0
0 0 0
0 0 0
0 0 0
0 0 0
0 0 0
0 0 0
0 0 0
0 0 0
0 0 0
0 0 0
0 0 0
0 0 0
0 0 0
0 0 0
0 0 0
0 0 0
0 0 0
0 0 0
0 0 0
0 0 0
0 0 0
0 0 0
0 0 0
0 0 0
0 0 0
0 0 0
0 0 0
0 0 0
0 0 0
0 0 0
0 0 0
0 0 0
0 0 0
0 0 0
0 0 0
0 0 0
0 0 0
0 0 0
0 0 0
0 0 0
0 0 0
0 0 0
0 0 0
0 0 0
0 0 0
0 0 0
0 0 0
0 0 0
0 0 0
0 0 0
0 0 0
0 0 0
0 0 0
0 0 0
0 0 0
0 0 0
0 0 0
0 0 0
0 0 0
0 0 0
0 0 0
0 0 0
0 0 0
0 0 0
0 0 0
0 0 0
0 0 0
0 0 0
0 0 0
0 0 0
0 0 0
0 0 0
0 0 0
0 0 0
0 0 0
0 0 0
0 0 0
0 0 0
0 0 0
0 0 0
0 0 0
0 0 0
0 0 0
0 0 0
0 0 0
0 0 0
0 0 0
0 0 0
0 0 0
0 0 0
0 0 0
0 0 0
0 0 0
0 0 0
0 0 0
0 0 0
0 0 0
0 0 0
0 0 0
0 0 0
0 0 0
0 0 0
0 0 0
0 0 0
0 0 0
0 0 0
0 0 0
0 0 0
0 0 0
0 0 0
0 0 0
0 0 0
0 0 0
0 0 0
0 0 0
0 0 0
0 0 0
0 0 0
0 0 0
0 0 0
0 0 0
0 0 0
0 0 0
0 0 0
0 0 0
0 0 0
0 0 0
0 0 0
0 0 0
0 0 0
0 0 0
0 0 0
0 0 0
0 0 0
0 0 0
0 0 0
0 0 0
0 0 0
0 0 0
0 0 0
0 0 0
0 0 0
0 0 0
0 0 0
0 0 0
0 0 0
0 0 0
0 0 0
0 0 0
0 0 0
0 0 0
0 0 0
0 0 0
0 0 0
0 0 0
0 0 0
0 0 0
0 0 0
0 0 0
0 0 0
0 0 0
0 0 0
0 0 0
0 0 0
0 0 0
0 0 0
0 0 0
0 0 0
0 0 0
0 0 0
0 0 0
0 0 0
0 0 0
0 0 0
0 0 0
0 0 0
0 0 0
0 0 0
0 0 0
0 0 0
0 0 0
0 0 0
0 0 0
0 0 0
0 0 0
0 0 0
0 0 0
0 0 0
0 0 0
0 0 0
0 0 0
0 0 0
0 0 0
0 0 0
0 0 0
0 0 0
0 0 0
0 0 0
0 0 0
0 0 0
0 0 0
0 0 0
0 0 0
0 0 0
0 0 0
0 0 0
0 0 0
0 0 0
0 0 0
0 0 0
0 0 0
0 0 0
0 0 0
0 0 0
0 0 0
0 0 0
0 0 0
0 0 0
0 0 0
0 0 0
0 0 0
0 0 0
0 0 0
0 0 0
0 0 0
0 0 0
0 0 0
0 0 0
0 0 0
0 0 0
0 0 0
0 0 0
0 0 0
0 0 0
0 0 0
0 0 0
0 0 0
0 0 0
0 0 0
0 0 0
0 0 0
0 0 0
0 0 0
0 0 0
0 0 0
0 0 0
0 0 0
0 0 0
0 0 0
0 0 0
0 0 0
0 0 0
0 0 0
0 0 0
0 0 0
0 0 0
0 0 0
0 0 0
0 0 0
0 0 0
0 0 0
0 0 0
0 0 0
0 0 0
0 0 0
0 0 0
0 0 0
0 0 0
0 0 0
0 0 0
0 0 0
0 0 0
0 0 0
0 0 0
0 0 0
0 0 0
0 0 0
0 0 0
0 0 0
0 0 0
0 0 0
0 0 0
0 0 0
0 0 0
0 0 0
0 0 0
0 0 0
0 0 0
0 0 0
0 0 0
0 0 0
0 0 0
0 0 0
0 0 0
0 0 0
0 0 0
0 0 0
0 0 0
0 0 0
0 0 0
0 0 0
0 0 0
0 0 0
0 0 0
0 0 0
0 0 0
0 0 0
0 0 0
0 0 0
0 0 0
0 0 0
0 0 0
0 0 0
0 0 0
0 0 0
0 0 0
0 0 0
0 0 0
0 0 0
0 0 0
0 0 0
0 0 0
0 0 0
0 0 0
0 0 0
0 0 0
0 0 0
0 0 0
0 0 0
0 0 0
0 0 0
0 0 0
0 0 0
0 0 0
0 0 0
0 0 0
0 0 0
0 0 0
0 0 0
0 0 0
0 0 0
0 0 0
0 0 0
0 0 0
0 0 0
0 0 0
0 0 0
0 0 0
0 0 0
0 0 0
0 0 0
0 0 0
0 0 0
0 0 0
0 0 0
0 0 0
0 0 0
0 0 0
0 0 0
0 0 0
0 0 0
0 0 0
0 0 0
0 0 0
0 0 0
0 0 0
0 0 0
0 0 0
0 0 0
0 0 0
0 0 0
0 0 0
0 0 0
0 0 0
0 0 0
0 0 0
0 0 0
0 0 0
0 0 0
0 0 0
0 0 0
0 0 0
0 0 0
0 0 0
0 0 0
0 0 0
0 0 0
0 0 0
0 0 0
0 0 0
0 0 0
0 0 0
0 0 0
0 0 0
0 0 0
0 0 0
0 0 0
0 0 0
0 0 0
0 0 0
0 0 0
0 0 0
0 0 0
0 0 0
0 0 0
0 0 0
0 0 0
0 0 0
0 0 0
0 0 0
0 0 0
0 0 0
0 0 0
0 0 0
0 0 0
0 0 0
0 0 0
0 0 0
0 0 0
0 0 0
0 0 0
0 0 0
0 0 0
0 0 0
0 0 0
0 0 0
0 0 0
0 0 0
0 0 0
0 0 0
0 0 0
0 0 0
0 0 0
0 0 0
0 0 0
0 0 0
0 0 0
0 0 0
0 0 0
0 0 0
0 0 0
0 0 0
0 0 0
0 0 0
0 0 0
0 0 0
0 0 0
0 0 0
0 0 0
0 0 0
0 0 0
0 0 0
0 0 0
0 0 0
0 0 0
0 0 0
0 0 0
0 0 0
0 0 0
0 0 0
0 0 0
0 0 0
0 0 0
0 0 0
0 0 0
0 0 0
0 0 0
0 0 0
0 0 0
0 0 0
0 0 0
0 0 0
0 0 0
0 0 0
0 0 0
0 0 0
0 0 0
0 0 0
0 0 0
0 0 0
0 0 0
0 0 0
0 0 0
0 0 0
0 0 0
0 0 0
0 0 0
0 0 0
0 0 0
0 0 0
0 0 0
0 0 0
0 0 0
0 0 0
0 0 0
0 0 0
0 0 0
0 0 0
0 0 0
0 0 0
0 0 0
0 0 0
0 0 0
0 0 0
0 0 0
0 0 0
0 0 0
0 0 0
0 0 0
0 0 0
0 0 0
0 0 0
0 0 0
0 0 0
0 0 0
0 0 0
0 0 0
0 0 0
0 0 0
0 0 0
0 0 0
0 0 0
0 0 0
0 0 0
0 0 0
0 0 0
0 0 0
0 0 0
0 0 0
0 0 0
0 0 0
0 0 0
0 0 0
0 0 0
0 0 0
0 0 0
0 0 0
0 0 0
0 0 0
0 0 0
0 0 0
0 0 0
0 0 0
0 0 0
0 0 0
0 0 0
0 0 0
0 0 0
0 0 0
0 0 0
0 0 0
0 0 0
0 0 0
0 0 0
0 0 0
0 0 0
0 0 0
0 0 0
0 0 0
0 0 0
0 0 0
0 0 0
0 0 0
0 0 0
0 0 0
0 0 0
0 0 0
0 0 0
0 0 0
0 0 0
0 0 0
0 0 0
0 0 0
0 0 0
0 0 0
0 0 0
0 0 0
0 0 0
0 0 0
0 0 0
0 0 0
0 0 0
0 0 0
0 0 0
0 0 0
0 0 0
0 0 0
0 0 0
0 0 0
0 0 0
0 0 0
0 0 0
0 0 0
0 0 0
0 0 0
0 0 0
0 0 0
0 0 0
0 0 0
0 0 0
0 0 0
0 0 0
0 0 0
0 0 0
0 0 0
0 0 0
0 0 0
0 0 0
0 0 0
0 0 0
0 0 0
0 0 0
0 0 0
0 0 0
0 0 0
0 0 0
0 0 0
0 0 0
0 0 0
0 0 0
0 0 0
0 0 0
0 0 0
0 0 0
0 0 0
0 0 0
0 0 0
0 0 0
0 0 0
0 0 0
0 0 0
0 0 0
0 0 0
0 0 0
0 0 0
0 0 0
0 0 0
0 0 0
0 0 0
0 0 0
0 0 0
0 0 0
0 0 0
0 0 0
0 0 0
0 0 0
0 0 0
0 0 0
0 0 0
0 0 0
0 0 0
0 0 0
0 0 0
0 0 0
0 0 0
0 0 0
0 0 0
0 0 0
0 0 0
0 0 0
0 0 0
0 0 0
0 0 0
0 0 0
0 0 0
0 0 0
0 0 0
0 0 0
0 0 0
0 0 0
0 0 0
0 0 0
0 0 0
0 0 0
0 0 0
0 0 0
0 0 0
0 0 0
0 0 0
0 0 0
0 0 0
0 0 0
0 0 0
0 0 0
0 0 0
0 0 0
0 0 0
0 0 0
0 0 0
0 0 0
0 0 0
0 0 0
0 0 0
0 0 0
0 0 0
0 0 0
0 0 0
0 0 0
0 0 0
0 0 0
0 0 0
0 0 0
0 0 0
0 0 0
0 0 0
0 0 0
0 0 0
0 0 0
0 0 0
0 0 0
0 0 0
0 0 0
0 0 0
0 0 0
0 0 0
0 0 0
0 0 0
0 0 0
0 0 0
0 0 0
0 0 0
0 0 0
0 0 0
0 0 0
0 0 0
0 0 0
0 0 0
0 0 0
0 0 0
0 0 0
0 0 0
0 0 0
0 0 0
0 0 0
0 0 0
0 0 0
0 0 0
0 0 0
0 0 0
0 0 0
0 0 0
0 0 0
0 0 0
0 0 0
0 0 0
0 0 0
0 0 0
0 0 0
0 0 0
0 0 0
0 0 0
0 0 0
0 0 0
0 0 0
0 0 0
0 0 0
0 0 0
0 0 0
0 0 0
0 0 0
0 0 0
0 0 0
0 0 0
0 0 0
0 0 0
0 0 0
0 0 0
0 0 0
0 0 0
0 0 0
0 0 0
0 0 0
0 0 0
0 0 0
0 0 0
0 0 0
0 0 0
0 0 0
0 0 0
0 0 0
0 0 0
0 0 0
0 0 0
0 0 0
0 0 0
0 0 0
0 0 0
0 0 0
0 0 0
0 0 0
0 0 0
0 0 0
0 0 0
0 0 0
0 0 0
0 0 0
0 0 0
0 0 0
0 0 0
0 0 0
0 0 0
0 0 0
0 0 0
0 0 0
0 0 0
0 0 0
0 0 0
0 0 0
0 0 0
0 0 0
0 0 0
0 0 0
0 0 0
0 0 0
0 0 0
0 0 0
0 0 0
0 0 0
0 0 0
0 0 0
0 0 0
0 0 0
0 0 0
0 0 0
0 0 0
0 0 0
0 0 0
0 0 0
0 0 0
0 0 0
0 0 0
0 0 0
0 0 0
0 0 0
0 0 0
0 0 0
0 0 0
0 0 0
0 0 0
0 0 0
0 0 0
0 0 0
0 0 0
0 0 0
0 0 0
0 0 0
0 0 0
0 0 0
0 0 0
0 0 0
0 0 0
0 0 0
0 0 0
0 0 0
0 0 0
0 0 0
0 0 0
0 0 0
0 0 0
0 0 0
0 0 0
0 0 0
0 0 0
0 0 0
0 0 0
0 0 0
0 0 0
0 0 0
0 0 0
0 0 0
0 0 0
0 0 0
0 0 0
0 0 0
0 0 0
0 0 0
0 0 0
0 0 0
0 0 0
0 0 0
0 0 0
0 0 0
0 0 0
0 0 0
0 0 0
0 0 0
0 0 0
0 0 0
0 0 0
0 0 0
0 0 0
0 0 0
0 0 0
0 0 0
0 0 0
0 0 0
0 0 0
0 0 0
0 0 0
0 0 0
0 0 0
0 0 0
0 0 0
0 0 0
0 0 0
0 0 0
0 0 0
0 0 0
0 0 0
0 0 0
0 0 0
0 0 0
0 0 0
0 0 0
0 0 0
0 0 0
0 0 0
0 0 0
0 0 0
0 0 0
0 0 0
0 0 0
0 0 0
0 0 0
0 0 0
0 0 0
0 0 0
0 0 0
0 0 0
0 0 0
0 0 0
0 0 0
0 0 0
0 0 0
0 0 0
0 0 0
0 0 0
0 0 0
0 0 0
0 0 0
0 0 0
0 0 0
0 0 0
0 0 0
0 0 0
0 0 0
0 0 0
0 0 0
0 0 0
0 0 0
0 0 0
0 0 0
0 0 0
0 0 0
0 0 0
0 0 0
0 0 0
0 0 0
0 0 0
0 0 0
0 0 0
0 0 0
0 0 0
0 0 0
0 0 0
0 0 0
0 0 0
0 0 0
0 0 0
0 0 0
0 0 0
0 0 0
0 0 0
0 0 0
0 0 0
0 0 0
0 0 0
0 0 0
0 0 0
0 0 0
0 0 0
0 0 0
0 0 0
0 0 0
0 0 0
0 0 0
0 0 0
0 0 0
0 0 0
0 0 0
0 0 0
0 0 0
0 0 0
0 0 0
0 0 0
0 0 0
0 0 0
0 0 0
0 0 0
0 0 0
0 0 0
0 0 0
0 0 0
0 0 0
0 0 0
0 0 0
0 0 0
0 0 0
0 0 0
0 0 0
0 0 0
0 0 0
0 0 0
0 0 0
0 0 0
0 0 0
0 0 0
0 0 0
0 0 0
0 0 0
0 0 0
0 0 0
0 0 0
0 0 0
0 0 0
0 0 0
0 0 0
0 0 0
0 0 0
0 0 0
0 0 0
0 0 0
0 0 0
0 0 0
0 0 0
0 0 0
0 0 0
0 0 0
0 0 0
0 0 0
0 0 0
0 0 0
0 0 0
0 0 0
0 0 0
0 0 0
0 0 0
0 0 0
0 0 0
0 0 0
0 0 0
0 0 0
0 0 0
0 0 0
0 0 0
0 0 0
0 0 0
0 0 0
0 0 0
0 0 0
0 0 0
0 0 0
0 0 0
0 0 0
0 0 0
0 0 0
0 0 0
0 0 0
0 0 0
0 0 0
0 0 0
0 0 0
0 0 0
0 0 0
0 0 0
0 0 0
0 0 0
0 0 0
0 0 0
0 0 0
0 0 0
0 0 0
0 0 0
0 0 0
0 0 0
0 0 0
0 0 0
0 0 0
0 0 0
0 0 0
0 0 0
0 0 0
0 0 0
0 0 0
0 0 0
0 0 0
0 0 0
0 0 0
0 0 0
0 0 0
0 0 0
0 0 0
0 0 0
0 0 0
0 0 0
0 0 0
0 0 0
0 0 0
0 0 0
0 0 0
0 0 0
0 0 0
0 0 0
0 0 0
0 0 0
0 0 0
0 0 0
0 0 0
0 0 0
0 0 0
0 0 0
0 0 0
0 0 0
0 0 0
0 0 0
0 0 0
0 0 0
0 0 0
0 0 0
0 0 0
0 0 0
0 0 0
0 0 0
0 0 0
0 0 0
0 0 0
0 0 0
0 0 0
0 0 0
0 0 0
0 0 0
0 0 0
0 0 0
0 0 0
0 0 0
0 0 0
0 0 0
0 0 0
0 0 0
0 0 0
0 0 0
0 0 0
0 0 0
0 0 0
0 0 0
0 0 0
0 0 0
0 0 0
0 0 0
0 0 0
0 0 0
0 0 0
0 0 0
0 0 0
0 0 0
0 0 0
0 0 0
0 0 0
0 0 0
0 0 0
0 0 0
0 0 0
0 0 0
0 0 0
0 0 0
0 0 0
0 0 0
0 0 0
0 0 0
0 0 0
0 0 0
0 0 0
0 0 0
0 0 0
0 0 0
0 0 0
0 0 0
0 0 0
0 0 0
0 0 0
0 0 0
0 0 0
0 0 0
0 0 0
0 0 0
0 0 0
0 0 0
0 0 0
0 0 0
0 0 0
0 0 0
0 0 0
0 0 0
0 0 0
0 0 0
0 0 0
0 0 0
0 0 0
0 0 0
0 0 0
0 0 0
0 0 0
0 0 0
0 0 0
0 0 0
0 0 0
0 0 0
0 0 0
0 0 0
0 0 0
0 0 0
0 0 0
0 0 0
0 0 0
0 0 0
0 0 0
0 0 0
0 0 0
0 0 0
0 0 0
0 0 0
0 0 0
0 0 0
0 0 0
0 0 0
0 0 0
0 0 0
0 0 0
0 0 0
0 0 0
0 0 0
0 0 0
0 0 0
0 0 0
0 0 0
0 0 0
0 0 0
0 0 0
0 0 0
0 0 0
0 0 0
0 0 0
0 0 0
0 0 0
0 0 0
0 0 0
0 0 0
0 0 0
0 0 0
0 0 0
0 0 0
0 0 0
0 0 0
0 0 0
0 0 0
0 0 0
0 0 0
0 0 0
0 0 0
0 0 0
0 0 0
0 0 0
0 0 0
0 0 0
0 0 0
0 0 0
0 0 0
0 0 0
0 0 0
0 0 0
0 0 0
0 0 0
0 0 0
0 0 0
0 0 0
0 0 0
0 0 0
0 0 0
0 0 0
0 0 0
0 0 0
0 0 0
0 0 0
0 0 0
0 0 0
0 0 0
0 0 0
0 0 0
0 0 0
0 0 0
0 0 0
0 0 0
0 0 0
0 0 0
0 0 0
0 0 0
0 0 0
0 0 0
0 0 0
0 0 0
0 0 0
0 0 0
0 0 0
0 0 0
0 0 0
0 0 0
0 0 0
0 0 0
0 0 0
0 0 0
0 0 0
0 0 0
0 0 0
0 0 0
0 0 0
0 0 0
0 0 0
0 0 0
0 0 0
0 0 0
0 0 0
0 0 0
0 0 0
0 0 0
0 0 0
0 0 0
0 0 0
0 0 0
0 0 0
0 0 0
0 0 0
0 0 0
0 0 0
0 0 0
0 0 0
0 0 0
0 0 0
0 0 0
0 0 0
0 0 0
0 0 0
0 0 0
0 0 0
0 0 0
0 0 0
0 0 0
0 0 0
0 0 0
0 0 0
0 0 0
0 0 0
0 0 0
0 0 0
0 0 0
0 0 0
0 0 0
0 0 0
0 0 0
0 0 0
0 0 0
0 0 0
0 0 0
0 0 0
0 0 0
0 0 0
0 0 0
0 0 0
0 0 0
0 0 0
0 0 0
0 0 0
0 0 0
0 0 0
0 0 0
0 0 0
0 0 0
0 0 0
0 0 0
0 0 0
0 0 0
0 0 0
0 0 0
0 0 0
0 0 0
0 0 0
0 0 0
0 0 0
0 0 0
0 0 0
0 0 0
0 0 0
0 0 0
0 0 0
0 0 0
0 0 0
0 0 0
0 0 0
0 0 0
0 0 0
0 0 0
0 0 0
0 0 0
0 0 0
0 0 0
0 0 0
0 0 0
0 0 0
0 0 0
0 0 0
0 0 0
0 0 0
0 0 0
0 0 0
0 0 0
0 0 0
0 0 0
0 0 0
0 0 0
0 0 0
0 0 0
0 0 0
0 0 0
0 0 0
0 0 0
0 0 0
0 0 0
0 0 0
0 0 0
0 0 0
0 0 0
0 0 0
0 0 0
0 0 0
0 0 0
0 0 0
0 0 0
0 0 0
0 0 0
0 0 0
0 0 0
0 0 0
0 0 0
0 0 0
0 0 0
0 0 0
0 0 0
0 0 0
0 0 0
0 0 0
0 0 0
0 0 0
0 0 0
0 0 0
0 0 0
0 0 0
0 0 0
0 0 0
0 0 0
0 0 0
0 0 0
0 0 0
0 0 0
0 0 0
0 0 0
0 0 0
0 0 0
0 0 0
0 0 0
0 0 0
0 0 0
0 0 0
0 0 0
0 0 0
0 0 0
0 0 0
0 0 0
0 0 0
0 0 0
0 0 0
0 0 0
0 0 0
0 0 0
0 0 0
0 0 0
0 0 0
0 0 0
0 0 0
0 0 0
0 0 0
0 0 0
0 0 0
0 0 0
0 0 0
0 0 0
0 0 0
0 0 0
0 0 0
0 0 0
0 0 0
0 0 0
0 0 0
0 0 0
0 0 0
0 0 0
0 0 0
0 0 0
0 0 0
0 0 0
0 0 0
0 0 0
0 0 0
0 0 0
0 0 0
0 0 0
0 0 0
0 0 0
0 0 0
0 0 0
0 0 0
0 0 0
0 0 0
0 0 0
0 0 0
0 0 0
0 0 0
0 0 0
0 0 0
0 0 0
0 0 0
0 0 0
0 0 0
0 0 0
0 0 0
0 0 0
0 0 0
0 0 0
0 0 0
0 0 0
0 0 0
0 0 0
0 0 0
0 0 0
0 0 0
0 0 0
0 0 0
0 0 0
0 0 0
0 0 0
0 0 0
0 0 0
0 0 0
0 0 0
0 0 0
0 0 0
0 0 0
0 0 0
0 0 0
0 0 0
0 0 0
0 0 0
0 0 0
0 0 0
0 0 0
0 0 0
0 0 0
0 0 0
0 0 0
0 0 0
0 0 0
0 0 0
0 0 0
0 0 0
0 0 0
0 0 0
0 0 0
0 0 0
0 0 0
0 0 0
0 0 0
0 0 0
0 0 0
0 0 0
0 0 0
0 0 0
0 0 0
0 0 0
0 0 0
0 0 0
0 0 0
0 0 0
0 0 0
0 0 0
0 0 0
0 0 0
0 0 0
0 0 0
0 0 0
0 0 0
0 0 0
0 0 0
0 0 0
0 0 0
0 0 0
0 0 0
0 0 0
0 0 0
0 0 0
0 0 0
0 0 0
0 0 0
0 0 0
0 0 0
0 0 0
0 0 0
0 0 0
0 0 0
0 0 0
0 0 0
0 0 0
0 0 0
0 0 0
0 0 0
0 0 0
0 0 0
0 0 0
0 0 0
0 0 0
0 0 0
0 0 0
0 0 0
0 0 0
0 0 0
0 0 0
0 0 0
0 0 0
0 0 0
0 0 0
0 0 0
0 0 0
0 0 0
0 0 0
0 0 0
0 0 0
0 0 0
0 0 0
0 0 0
0 0 0
0 0 0
0 0 0
0 0 0
0 0 0
0 0 0
0 0 0
0 0 0
0 0 0
0 0 0
0 0 0
0 0 0
0 0 0
0 0 0
0 0 0
0 0 0
0 0 0
0 0 0
0 0 0
0 0 0
0 0 0
0 0 0
0 0 0
0 0 0
0 0 0
0 0 0
0 0 0
0 0 0
0 0 0
0 0 0
0 0 0
0 0 0
0 0 0
0 0 0
0 0 0
0 0 0
0 0 0
0 0 0
0 0 0
0 0 0
0 0 0
0 0 0
0 0 0
0 0 0
0 0 0
0 0 0
0 0 0
0 0 0
0 0 0
0 0 0
0 0 0
0 0 0
0 0 0
0 0 0
0 0 0
0 0 0
0 0 0
0 0 0
0 0 0
0 0 0
0 0 0
0 0 0
0 0 0
0 0 0
0 0 0
0 0 0
0 0 0
0 0 0
0 0 0
0 0 0
0 0 0
0 0 0
0 0 0
0 0 0
0 0 0
0 0 0
0 0 0
0 0 0
0 0 0
0 0 0
0 0 0
0 0 0
0 0 0
0 0 0
0 0 0
0 0 0
0 0 0
0 0 0
0 0 0
0 0 0
0 0 0
0 0 0
0 0 0
0 0 0
0 0 0
0 0 0
0 0 0
0 0 0
0 0 0
0 0 0
0 0 0
0 0 0
0 0 0
0 0 0
0 0 0
0 0 0
0 0 0
0 0 0
0 0 0
0 0 0
0 0 0
0 0 0
0 0 0
0 0 0
0 0 0
0 0 0
0 0 0
0 0 0
0 0 0
0 0 0
0 0 0
0 0 0
0 0 0
0 0 0
0 0 0
0 0 0
0 0 0
0 0 0
0 0 0
0 0 0
0 0 0
0 0 0
0 0 0
0 0 0
0 0 0
0 0 0
0 0 0
0 0 0
0 0 0
0 0 0
0 0 0
0 0 0
0 0 0
0 0 0
0 0 0
0 0 0
0 0 0
0 0 0
0 0 0
0 0 0
0 0 0
0 0 0
0 0 0
0 0 0
0 0 0
0 0 0
0 0 0
0 0 0
0 0 0
0 0 0
0 0 0
0 0 0
0 0 0
0 0 0
0 0 0
0 0 0
0 0 0
0 0 0
0 0 0
0 0 0
0 0 0
0 0 0
0 0 0
0 0 0
0 0 0
0 0 0
0 0 0
0 0 0
0 0 0
0 0 0
0 0 0
0 0 0
0 0 0
0 0 0
0 0 0
0 0 0
0 0 0
0 0 0
0 0 0
0 0 0
0 0 0
0 0 0
0 0 0
0 0 0
0 0 0
0 0 0
0 0 0
0 0 0
0 0 0
0 0 0
0 0 0
0 0 0
0 0 0
0 0 0
0 0 0
0 0 0
0 0 0
0 0 0
0 0 0
0 0 0
0 0 0
0 0 0
0 0 0
0 0 0
0 0 0
0 0 0
0 0 0
0 0 0
0 0 0
0 0 0
0 0 0
0 0 0
0 0 0
0 0 0
0 0 0
0 0 0
0 0 0
0 0 0
0 0 0
0 0 0
0 0 0
0 0 0
0 0 0
0 0 0
0 0 0
0 0 0
0 0 0
0 0 0
0 0 0
0 0 0
0 0 0
0 0 0
0 0 0
0 0 0
0 0 0
0 0 0
0 0 0
0 0 0
0 0 0
0 0 0
0 0 0
0 0 0
0 0 0
0 0 0
0 0 0
0 0 0
0 0 0
0 0 0
0 0 0
0 0 0
0 0 0
0 0 0
0 0 0
0 0 0
0 0 0
0 0 0
0 0 0
0 0 0
0 0 0
0 0 0
0 0 0
0 0 0
0 0 0
0 0 0
0 0 0
0 0 0
0 0 0
0 0 0
0 0 0
0 0 0
0 0 0
0 0 0
0 0 0
0 0 0
0 0 0
0 0 0
0 0 0
0 0 0
0 0 0
0 0 0
0 0 0
0 0 0
0 0 0
0 0 0
0 0 0
0 0 0
0 0 0
0 0 0
0 0 0
0 0 0
0 0 0
0 0 0
0 0 0
0 0 0
0 0 0
0 0 0
0 0 0
0 0 0
0 0 0
0 0 0
0 0 0
0 0 0
0 0 0
0 0 0
0 0 0
0 0 0
0 0 0
0 0 0
0 0 0
0 0 0
0 0 0
0 0 0
0 0 0
0 0 0
0 0 0
0 0 0
0 0 0
0 0 0
0 0 0
0 0 0
0 0 0
0 0 0
0 0 0
0 0 0
0 0 0
0 0 0
0 0 0
0 0 0
0 0 0
0 0 0
0 0 0
0 0 0
0 0 0
0 0 0
0 0 0
0 0 0
0 0 0
0 0 0
0 0 0
0 0 0
0 0 0
0 0 0
0 0 0
0 0 0
0 0 0
0 0 0
0 0 0
0 0 0
0 0 0
0 0 0
0 0 0
0 0 0
0 0 0
0 0 0
0 0 0
0 0 0
0 0 0
0 0 0
0 0 0
0 0 0
0 0 0
0 0 0
0 0 0
0 0 0
0 0 0
0 0 0
0 0 0
0 0 0
0 0 0
0 0 0
0 0 0
0 0 0
0 0 0
0 0 0
0 0 0
0 0 0
0 0 0
0 0 0
0 0 0
0 0 0
0 0 0
0 0 0
0 0 0
0 0 0
0 0 0
0 0 0
0 0 0
0 0 0
0 0 0
0 0 0
0 0 0
0 0 0
0 0 0
0 0 0
0 0 0
0 0 0
0 0 0
0 0 0
0 0 0
0 0 0
0 0 0
0 0 0
0 0 0
0 0 0
0 0 0
0 0 0
0 0 0
0 0 0
0 0 0
0 0 0
0 0 0
0 0 0
0 0 0
0 0 0
0 0 0
0 0 0
0 0 0
0 0 0
0 0 0
0 0 0
0 0 0
0 0 0
0 0 0
0 0 0
0 0 0
0 0 0
0 0 0
0 0 0
0 0 0
0 0 0
0 0 0
0 0 0
0 0 0
0 0 0
0 0 0
0 0 0
0 0 0
0 0 0
0 0 0
0 0 0
0 0 0
0 0 0
0 0 0
0 0 0
0 0 0
0 0 0
0 0 0
0 0 0
0 0 0
0 0 0
0 0 0
0 0 0
0 0 0
0 0 0
0 0 0
0 0 0
0 0 0
0 0 0
0 0 0
0 0 0
0 0 0
0 0 0
0 0 0
0 0 0
0 0 0
0 0 0
0 0 0
0 0 0
0 0 0
0 0 0
0 0 0
0 0 0
0 0 0
0 0 0
0 0 0
0 0 0
0 0 0
0 0 0
0 0 0
0 0 0
0 0 0
0 0 0
0 0 0
0 0 0
0 0 0
0 0 0
0 0 0
0 0 0
0 0 0
0 0 0
0 0 0
0 0 0
0 0 0
0 0 0
0 0 0
0 0 0
0 0 0
0 0 0
0 0 0
0 0 0
0 0 0
0 0 0
0 0 0
0 0 0
0 0 0
0 0 0
0 0 0
0 0 0
0 0 0
0 0 0
0 0 0
0 0 0
0 0 0
0 0 0
0 0 0
0 0 0
0 0 0
0 0 0
0 0 0
0 0 0
0 0 0
0 0 0
0 0 0
0 0 0
0 0 0
0 0 0
0 0 0
0 0 0
0 0 0
0 0 0
0 0 0
0 0 0
0 0 0
0 0 0
0 0 0
0 0 0
0 0 0
0 0 0
0 0 0
0 0 0
0 0 0
0 0 0
0 0 0
0 0 0
0 0 0
0 0 0
0 0 0
0 0 0
0 0 0
0 0 0
0 0 0
0 0 0
0 0 0
0 0 0
0 0 0
0 0 0
0 0 0
0 0 0
0 0 0
0 0 0
0 0 0
0 0 0
0 0 0
0 0 0
0 0 0
0 0 0
0 0 0
0 0 0
0 0 0
0 0 0
0 0 0
0 0 0
0 0 0
0 0 0
0 0 0
0 0 0
0 0 0
0 0 0
0 0 0
0 0 0
0 0 0
0 0 0
0 0 0
0 0 0
0 0 0
0 0 0
0 0 0
0 0 0
0 0 0
0 0 0
0 0 0
0 0 0
0 0 0
0 0 0
0 0 0
0 0 0
0 0 0
0 0 0
0 0 0
0 0 0
0 0 0
0 0 0
0 0 0
0 0 0
0 0 0
0 0 0
0 0 0
0 0 0
0 0 0
0 0 0
0 0 0
0 0 0
0 0 0
0 0 0
0 0 0
0 0 0
0 0 0
0 0 0
0 0 0
0 0 0
0 0 0
0 0 0
0 0 0
0 0 0
0 0 0
0 0 0
0 0 0
0 0 0
0 0 0
0 0 0
0 0 0
0 0 0
0 0 0
0 0 0
0 0 0
0 0 0
0 0 0
0 0 0
0 0 0
0 0 0
0 0 0
0 0 0
0 0 0
0 0 0
0 0 0
0 0 0
0 0 0
0 0 0
0 0 0
0 0 0
0 0 0
0 0 0
0 0 0
0 0 0
0 0 0
0 0 0
0 0 0
0 0 0
0 0 0
0 0 0
0 0 0
0 0 0
0 0 0
0 0 0
0 0 0
0 0 0
0 0 0
0 0 0
0 0 0
0 0 0
0 0 0
0 0 0
0 0 0
0 0 0
0 0 0
0 0 0
0 0 0
0 0 0
0 0 0
0 0 0
0 0 0
0 0 0
0 0 0
0 0 0
0 0 0
0 0 0
0 0 0
0 0 0
0 0 0
0 0 0
0 0 0
0 0 0
0 0 0
0 0 0
0 0 0
0 0 0
0 0 0
0 0 0
0 0 0
0 0 0
0 0 0
0 0 0
0 0 0
0 0 0
0 0 0
0 0 0
0 0 0
0 0 0
0 0 0
0 0 0
0 0 0
0 0 0
0 0 0
0 0 0
0 0 0
0 0 0
0 0 0
0 0 0
0 0 0
0 0 0
0 0 0
0 0 0
0 0 0
0 0 0
0 0 0
0 0 0
0 0 0
0 0 0
0 0 0
0 0 0
0 0 0
0 0 0
0 0 0
0 0 0
0 0 0
0 0 0
0 0 0
0 0 0
0 0 0
0 0 0
0 0 0
0 0 0
0 0 0
0 0 0
0 0 0
0 0 0
0 0 0
0 0 0
0 0 0
0 0 0
0 0 0
0 0 0
0 0 0
0 0 0
0 0 0
0 0 0
0 0 0
0 0 0
0 0 0
0 0 0
0 0 0
0 0 0
0 0 0
0 0 0
0 0 0
0 0 0
0 0 0
0 0 0
0 0 0
0 0 0
0 0 0
0 0 0
0 0 0
0 0 0
0 0 0
0 0 0
0 0 0
0 0 0
0 0 0
0 0 0
0 0 0
0 0 0
0 0 0
0 0 0
0 0 0
0 0 0
0 0 0
0 0 0
0 0 0
0 0 0
0 0 0
0 0 0
0 0 0
0 0 0
0 0 0
0 0 0
0 0 0
0 0 0
0 0 0
0 0 0
0 0 0
0 0 0
0 0 0
0 0 0
0 0 0
0 0 0
0 0 0
0 0 0
0 0 0
0 0 0
0 0 0
0 0 0
0 0 0
0 0 0
0 0 0
0 0 0
0 0 0
0 0 0
0 0 0
0 0 0
0 0 0
0 0 0
0 0 0
0 0 0
0 0 0
0 0 0
0 0 0
0 0 0
0 0 0
0 0 0
0 0 0
0 0 0
0 0 0
0 0 0
0 0 0
0 0 0
0 0 0
0 0 0
0 0 0
0 0 0
0 0 0
0 0 0
0 0 0
0 0 0
0 0 0
0 0 0
0 0 0
0 0 0
0 0 0
0 0 0
0 0 0
0 0 0
0 0 0
0 0 0
0 0 0
0 0 0
0 0 0
0 0 0
0 0 0
0 0 0
0 0 0
0 0 0
0 0 0
0 0 0
0 0 0
0 0 0
0 0 0
0 0 0
0 0 0
0 0 0
0 0 0
0 0 0
0 0 0
0 0 0
0 0 0
0 0 0
0 0 0
0 0 0
0 0 0
0 0 0
0 0 0
0 0 0
0 0 0
0 0 0
0 0 0
0 0 0
0 0 0
0 0 0
0 0 0
0 0 0
0 0 0
0 0 0
0 0 0
0 0 0
0 0 0
0 0 0
0 0 0
0 0 0
0 0 0
0 0 0
0 0 0
0 0 0
0 0 0
0 0 0
0 0 0
0 0 0
0 0 0
0 0 0
0 0 0
0 0 0
0 0 0
0 0 0
0 0 0
0 0 0
0 0 0
0 0 0
0 0 0
0 0 0
0 0 0
0 0 0
0 0 0
0 0 0
0 0 0
0 0 0
0 0 0
0 0 0
0 0 0
0 0 0
0 0 0
0 0 0
0 0 0
0 0 0
0 0 0
0 0 0
0 0 0
0 0 0
0 0 0
0 0 0
0 0 0
0 0 0
0 0 0
0 0 0
0 0 0
0 0 0
0 0 0
0 0 0
0 0 0
0 0 0
0 0 0
0 0 0
0 0 0
0 0 0
0 0 0
0 0 0
0 0 0
0 0 0
0 0 0
0 0 0
0 0 0
0 0 0
0 0 0
0 0 0
0 0 0
0 0 0
0 0 0
0 0 0
0 0 0
0 0 0
0 0 0
0 0 0
0 0 0
0 0 0
0 0 0
0 0 0
0 0 0
0 0 0
0 0 0
0 0 0
0 0 0
0 0 0
0 0 0
0 0 0
0 0 0
0 0 0
0 0 0
0 0 0
0 0 0
0 0 0
0 0 0
0 0 0
0 0 0
0 0 0
0 0 0
0 0 0
0 0 0
0 0 0
0 0 0
0 0 0
0 0 0
0 0 0
0 0 0
0 0 0
0 0 0
0 0 0
0 0 0
0 0 0
0 0 0
0 0 0
0 0 0
0 0 0
0 0 0
0 0 0
0 0 0
0 0 0
0 0 0
0 0 0
0 0 0
0 0 0
0 0 0
0 0 0
0 0 0
0 0 0
0 0 0
0 0 0
0 0 0
0 0 0
0 0 0
0 0 0
0 0 0
0 0 0
0 0 0
0 0 0
0 0 0
0 0 0
0 0 0
0 0 0
0 0 0
0 0 0
0 0 0
0 0 0
0 0 0
0 0 0
0 0 0
0 0 0
0 0 0
0 0 0
0 0 0
0 0 0
0 0 0
0 0 0
0 0 0
0 0 0
0 0 0
0 0 0
0 0 0
0 0 0
0 0 0
0 0 0
0 0 0
0 0 0
0 0 0
0 0 0
0 0 0
0 0 0
0 0 0
0 0 0
0 0 0
0 0 0
0 0 0
0 0 0
0 0 0
0 0 0
0 0 0
0 0 0
0 0 0
0 0 0
0 0 0
0 0 0
0 0 0
0 0 0
0 0 0
0 0 0
0 0 0
0 0 0
0 0 0
0 0 0
0 0 0
0 0 0
0 0 0
0 0 0
0 0 0
0 0 0
0 0 0
0 0 0
0 0 0
0 0 0
0 0 0
0 0 0
0 0 0
0 0 0
0 0 0
0 0 0
0 0 0
0 0 0
0 0 0
0 0 0
0 0 0
0 0 0
0 0 0
0 0 0
0 0 0
0 0 0
0 0 0
0 0 0
0 0 0
0 0 0
0 0 0
0 0 0
0 0 0
0 0 0
0 0 0
0 0 0
0 0 0
0 0 0
0 0 0
0 0 0
0 0 0
0 0 0
0 0 0
0 0 0
0 0 0
0 0 0
0 0 0
0 0 0
0 0 0
0 0 0
0 0 0
0 0 0
0 0 0
0 0 0
0 0 0
0 0 0
0 0 0
0 0 0
0 0 0
0 0 0
0 0 0
0 0 0
0 0 0
0 0 0
0 0 0
0 0 0
0 0 0
0 0 0
0 0 0
0 0 0
0 0 0
0 0 0
0 0 0
0 0 0
0 0 0
0 0 0
0 0 0
0 0 0
0 0 0
0 0 0
0 0 0
0 0 0
0 0 0
0 0 0
0 0 0
0 0 0
0 0 0
0 0 0
0 0 0
0 0 0
0 0 0
0 0 0
0 0 0
0 0 0
0 0 0
0 0 0
0 0 0
0 0 0
0 0 0
0 0 0
0 0 0
0 0 0
0 0 0
0 0 0
0 0 0
0 0 0
0 0 0
0 0 0
0 0 0
0 0 0
0 0 0
0 0 0
0 0 0
0 0 0
0 0 0
0 0 0
0 0 0
0 0 0
0 0 0
0 0 0
0 0 0
0 0 0
0 0 0
0 0 0
0 0 0
0 0 0
0 0 0
0 0 0
0 0 0
0 0 0
0 0 0
0 0 0
0 0 0
0 0 0
0 0 0
0 0 0
0 0 0
0 0 0
0 0 0
0 0 0
0 0 0
0 0 0
0 0 0
0 0 0
0 0 0
0 0 0
0 0 0
0 0 0
0 0 0
0 0 0
0 0 0
0 0 0
0 0 0
0 0 0
0 0 0
0 0 0
0 0 0
0 0 0
0 0 0
0 0 0
0 0 0
0 0 0
0 0 0
0 0 0
0 0 0
0 0 0
0 0 0
0 0 0
0 0 0
0 0 0
0 0 0
0 0 0
0 0 0
0 0 0
0 0 0
0 0 0
0 0 0
0 0 0
0 0 0
0 0 0
0 0 0
0 0 0
0 0 0
0 0 0
0 0 0
0 0 0
0 0 0
0 0 0
0 0 0
0 0 0
0 0 0
0 0 0
0 0 0
0 0 0
0 0 0
0 0 0
0 0 0
0 0 0
0 0 0
0 0 0
0 0 0
0 0 0
0 0 0
0 0 0
0 0 0
0 0 0
0 0 0
0 0 0
0 0 0
0 0 0
0 0 0
0 0 0
0 0 0
0 0 0
0 0 0
0 0 0
0 0 0
0 0 0
0 0 0
0 0 0
0 0 0
0 0 0
0 0 0
0 0 0
0 0 0
0 0 0
0 0 0
0 0 0
0 0 0
0 0 0
0 0 0
0 0 0
0 0 0
0 0 0
0 0 0
0 0 0
0 0 0
0 0 0
0 0 0
0 0 0
0 0 0
0 0 0
0 0 0
0 0 0
0 0 0
0 0 0
0 0 0
0 0 0
0 0 0
0 0 0
0 0 0
0 0 0
0 0 0
0 0 0
0 0 0
0 0 0
0 0 0
0 0 0
0 0 0
0 0 0
0 0 0
0 0 0
0 0 0
0 0 0
0 0 0
0 0 0
0 0 0
0 0 0
0 0 0
0 0 0
0 0 0
0 0 0
0 0 0
0 0 0
0 0 0
0 0 0
0 0 0
0 0 0
0 0 0
0 0 0
0 0 0
0 0 0
0 0 0
0 0 0
0 0 0
0 0 0
0 0 0
0 0 0
0 0 0
0 0 0
0 0 0
0 0 0
0 0 0
0 0 0
0 0 0
0 0 0
0 0 0
0 0 0
0 0 0
0 0 0
0 0 0
0 0 0
0 0 0
0 0 0
0 0 0
0 0 0
0 0 0
0 0 0
0 0 0
0 0 0
0 0 0
0 0 0
0 0 0
0 0 0
0 0 0
0 0 0
0 0 0
0 0 0
0 0 0
0 0 0
0 0 0
0 0 0
0 0 0
0 0 0
0 0 0
0 0 0
0 0 0
0 0 0
0 0 0
0 0 0
0 0 0
0 0 0
0 0 0
0 0 0
0 0 0
0 0 0
0 0 0
0 0 0
0 0 0
0 0 0
0 0 0
0 0 0
0 0 0
0 0 0
0 0 0
0 0 0
0 0 0
0 0 0
0 0 0
0 0 0
0 0 0
0 0 0
0 0 0
0 0 0
0 0 0
0 0 0
0 0 0
0 0 0
0 0 0
0 0 0
0 0 0
0 0 0
0 0 0
0 0 0
0 0 0
0 0 0
0 0 0
0 0 0
0 0 0
0 0 0
0 0 0
0 0 0
0 0 0
0 0 0
0 0 0
0 0 0
0 0 0
0 0 0
0 0 0
0 0 0
0 0 0
0 0 0
0 0 0
0 0 0
0 0 0
0 0 0
0 0 0
0 0 0
0 0 0
0 0 0
0 0 0
0 0 0
0 0 0
0 0 0
0 0 0
0 0 0
0 0 0
0 0 0
0 0 0
0 0 0
0 0 0
0 0 0
0 0 0
0 0 0
0 0 0
0 0 0
0 0 0
0 0 0
0 0 0
0 0 0
0 0 0
0 0 0
0 0 0
0 0 0
0 0 0
0 0 0
0 0 0
0 0 0
0 0 0
0 0 0
0 0 0
0 0 0
0 0 0
0 0 0
0 0 0
0 0 0
0 0 0
0 0 0
0 0 0
0 0 0
0 0 0
0 0 0
0 0 0
0 0 0
0 0 0
0 0 0
0 0 0
0 0 0
0 0 0
0 0 0
0 0 0
0 0 0
0 0 0
0 0 0
0 0 0
0 0 0
0 0 0
0 0 0
0 0 0
0 0 0
0 0 0
0 0 0
0 0 0
0 0 0
0 0 0
0 0 0
0 0 0
0 0 0
0 0 0
0 0 0
0 0 0
0 0 0
0 0 0
0 0 0
0 0 0
0 0 0
0 0 0
0 0 0
0 0 0
0 0 0
0 0 0
0 0 0
0 0 0
0 0 0
0 0 0
0 0 0
0 0 0
0 0 0
0 0 0
0 0 0
0 0 0
0 0 0
0 0 0
0 0 0
0 0 0
0 0 0
0 0 0
0 0 0
0 0 0
0 0 0
0 0 0
0 0 0
0 0 0
0 0 0
0 0 0
0 0 0
0 0 0
0 0 0
0 0 0
0 0 0
0 0 0
0 0 0
0 0 0
0 0 0
0 0 0
0 0 0
0 0 0
0 0 0
0 0 0
0 0 0
0 0 0
0 0 0
0 0 0
0 0 0
0 0 0
0 0 0
0 0 0
0 0 0
0 0 0
0 0 0
0 0 0
0 0 0
0 0 0
0 0 0
0 0 0
0 0 0
0 0 0
0 0 0
0 0 0
0 0 0
0 0 0
0 0 0
0 0 0
0 0 0
0 0 0
0 0 0
0 0 0
0 0 0
0 0 0
0 0 0
0 0 0
0 0 0
0 0 0
0 0 0
0 0 0
0 0 0
0 0 0
0 0 0
0 0 0
0 0 0
0 0 0
0 0 0
0 0 0
0 0 0
0 0 0
0 0 0
0 0 0
0 0 0
0 0 0
0 0 0
0 0 0
0 0 0
0 0 0
0 0 0
0 0 0
0 0 0
0 0 0
0 0 0
0 0 0
0 0 0
0 0 0
0 0 0
0 0 0
0 0 0
0 0 0
0 0 0
0 0 0
0 0 0
0 0 0
0 0 0
0 0 0
0 0 0
0 0 0
0 0 0
0 0 0
0 0 0
0 0 0
0 0 0
0 0 0
0 0 0
0 0 0
0 0 0
0 0 0
0 0 0
0 0 0
0 0 0
0 0 0
0 0 0
0 0 0
0 0 0
0 0 0
0 0 0
0 0 0
0 0 0
0 0 0
0 0 0
0 0 0
0 0 0
0 0 0
0 0 0
0 0 0
0 0 0
0 0 0
0 0 0
0 0 0
0 0 0
0 0 0
0 0 0
0 0 0
0 0 0
0 0 0
0 0 0
0 0 0
0 0 0
0 0 0
0 0 0
0 0 0
0 0 0
0 0 0
0 0 0
0 0 0
0 0 0
0 0 0
0 0 0
0 0 0
0 0 0
0 0 0
0 0 0
0 0 0
0 0 0
0 0 0
0 0 0
0 0 0
0 0 0
0 0 0
0 0 0
0 0 0
0 0 0
0 0 0
0 0 0
0 0 0
0 0 0
0 0 0
0 0 0
0 0 0
0 0 0
0 0 0
0 0 0
0 0 0
0 0 0
0 0 0
0 0 0
0 0 0
0 0 0
0 0 0
0 0 0
0 0 0
0 0 0
0 0 0
0 0 0
0 0 0
0 0 0
0 0 0
0 0 0
0 0 0
0 0 0
0 0 0
0 0 0
0 0 0
0 0 0
0 0 0
0 0 0
0 0 0
0 0 0
0 0 0
0 0 0
0 0 0
0 0 0
0 0 0
0 0 0
0 0 0
0 0 0
0 0 0
0 0 0
0 0 0
0 0 0
0 0 0
0 0 0
0 0 0
0 0 0
0 0 0
0 0 0
0 0 0
0 0 0
0 0 0
0 0 0
0 0 0
0 0 0
0 0 0
0 0 0
0 0 0
0 0 0
0 0 0
0 0 0
0 0 0
0 0 0
0 0 0
0 0 0
0 0 0
0 0 0
0 0 0
0 0 0
0 0 0
0 0 0
0 0 0
0 0 0
0 0 0
0 0 0
0 0 0
0 0 0
0 0 0
0 0 0
0 0 0
0 0 0
0 0 0
0 0 0
0 0 0
0 0 0
0 0 0
0 0 0
0 0 0
0 0 0
0 0 0
0 0 0
0 0 0
0 0 0
0 0 0
0 0 0
0 0 0
0 0 0
0 0 0
0 0 0
0 0 0
0 0 0
0 0 0
0 0 0
0 0 0
0 0 0
0 0 0
0 0 0
0 0 0
0 0 0
0 0 0
0 0 0
0 0 0
0 0 0
0 0 0
0 0 0
0 0 0
0 0 0
0 0 0
0 0 0
0 0 0
0 0 0
0 0 0
0 0 0
0 0 0
0 0 0
0 0 0
0 0 0
0 0 0
0 0 0
0 0 0
0 0 0
0 0 0
0 0 0
0 0 0
0 0 0
0 0 0
0 0 0
0 0 0
0 0 0
0 0 0
0 0 0
0 0 0
0 0 0
0 0 0
0 0 0
0 0 0
0 0 0
0 0 0
0 0 0
0 0 0
0 0 0
0 0 0
0 0 0
0 0 0
0 0 0
0 0 0
0 0 0
0 0 0
0 0 0
0 0 0
0 0 0
0 0 0
0 0 0
0 0 0
0 0 0
0 0 0
0 0 0
0 0 0
0 0 0
0 0 0
0 0 0
0 0 0
0 0 0
0 0 0
0 0 0
0 0 0
0 0 0
0 0 0
0 0 0
0 0 0
0 0 0
0 0 0
0 0 0
0 0 0
0 0 0
0 0 0
0 0 0
0 0 0
0 0 0
0 0 0
0 0 0
0 0 0
0 0 0
0 0 0
0 0 0
0 0 0
0 0 0
0 0 0
0 0 0
0 0 0
0 0 0
0 0 0
0 0 0
0 0 0
0 0 0
0 0 0
0 0 0
0 0 0
0 0 0
0 0 0
0 0 0
0 0 0
0 0 0
0 0 0
0 0 0
0 0 0
0 0 0
0 0 0
0 0 0
0 0 0
0 0 0
0 0 0
0 0 0
0 0 0
0 0 0
0 0 0
0 0 0
0 0 0
0 0 0
0 0 0
0 0 0
0 0 0
0 0 0
0 0 0
0 0 0
0 0 0
0 0 0
0 0 0
0 0 0
0 0 0
0 0 0
0 0 0
0 0 0
0 0 0
0 0 0
0 0 0
0 0 0
0 0 0
0 0 0
0 0 0
0 0 0
0 0 0
0 0 0
0 0 0
0 0 0
0 0 0
0 0 0
0 0 0
0 0 0
0 0 0
0 0 0
0 0 0
0 0 0
0 0 0
0 0 0
0 0 0
0 0 0
0 0 0
0 0 0
0 0 0
0 0 0
0 0 0
0 0 0
0 0 0
0 0 0
0 0 0
0 0 0
0 0 0
0 0 0
0 0 0
0 0 0
0 0 0
0 0 0
0 0 0
0 0 0
0 0 0
0 0 0
0 0 0
0 0 0
0 0 0
0 0 0
0 0 0
0 0 0
0 0 0
0 0 0
0 0 0
0 0 0
0 0 0
0 0 0
0 0 0
0 0 0
0 0 0
0 0 0
0 0 0
0 0 0
0 0 0
0 0 0
0 0 0
0 0 0
0 0 0
0 0 0
0 0 0
0 0 0
0 0 0
0 0 0
0 0 0
0 0 0
0 0 0
0 0 0
0 0 0
0 0 0
0 0 0
0 0 0
0 0 0
0 0 0
0 0 0
0 0 0
0 0 0
0 0 0
0 0 0
0 0 0
0 0 0
0 0 0
0 0 0
0 0 0
0 0 0
0 0 0
0 0 0
0 0 0
0 0 0
0 0 0
0 0 0
0 0 0
0 0 0
0 0 0
0 0 0
0 0 0
0 0 0
0 0 0
0 0 0
0 0 0
0 0 0
0 0 0
0 0 0
0 0 0
0 0 0
0 0 0
0 0 0
0 0 0
0 0 0
0 0 0
0 0 0
0 0 0
0 0 0
0 0 0
0 0 0
0 0 0
0 0 0
0 0 0
0 0 0
0 0 0
0 0 0
0 0 0
0 0 0
0 0 0
0 0 0
0 0 0
0 0 0
0 0 0
0 0 0
0 0 0
0 0 0
0 0 0
0 0 0
0 0 0
0 0 0
0 0 0
0 0 0
0 0 0
0 0 0
0 0 0
0 0 0
0 0 0
0 0 0
0 0 0
0 0 0
0 0 0
0 0 0
0 0 0
0 0 0
0 0 0
0 0 0
0 0 0
0 0 0
0 0 0
0 0 0
0 0 0
0 0 0
0 0 0
0 0 0
0 0 0
0 0 0
0 0 0
0 0 0
0 0 0
0 0 0
0 0 0
0 0 0
0 0 0
0 0 0
0 0 0
0 0 0
0 0 0
0 0 0
0 0 0
0 0 0
0 0 0
0 0 0
0 0 0
0 0 0
0 0 0
0 0 0
0 0 0
0 0 0
0 0 0
0 0 0
0 0 0
0 0 0
0 0 0
0 0 0
0 0 0
0 0 0
0 0 0
0 0 0
0 0 0
0 0 0
0 0 0
0 0 0
0 0 0
0 0 0
0 0 0
0 0 0
0 0 0
0 0 0
0 0 0
0 0 0
0 0 0
0 0 0
0 0 0
0 0 0
0 0 0
0 0 0
0 0 0
0 0 0
0 0 0
0 0 0
0 0 0
0 0 0
0 0 0
0 0 0
0 0 0
0 0 0
0 0 0
0 0 0
0 0 0
0 0 0
0 0 0
0 0 0
0 0 0
0 0 0
0 0 0
0 0 0
0 0 0
0 0 0
0 0 0
0 0 0
0 0 0
0 0 0
0 0 0
0 0 0
0 0 0
0 0 0
0 0 0
0 0 0
0 0 0
0 0 0
0 0 0
0 0 0
0 0 0
0 0 0
0 0 0
0 0 0
0 0 0
0 0 0
0 0 0
0 0 0
0 0 0
0 0 0
0 0 0
0 0 0
0 0 0
0 0 0
0 0 0
0 0 0
0 0 0
0 0 0
0 0 0
0 0 0
0 0 0
0 0 0
0 0 0
0 0 0
0 0 0
0 0 0
0 0 0
0 0 0
0 0 0
0 0 0
0 0 0
0 0 0
0 0 0
0 0 0
0 0 0
0 0 0
0 0 0
0 0 0
0 0 0
0 0 0
0 0 0
0 0 0
0 0 0
0 0 0
0 0 0
0 0 0
0 0 0
0 0 0
0 0 0
0 0 0
0 0 0
0 0 0
0 0 0
0 0 0
0 0 0
0 0 0
0 0 0
0 0 0
0 0 0
0 0 0
0 0 0
0 0 0
0 0 0
0 0 0
0 0 0
0 0 0
0 0 0
0 0 0
0 0 0
0 0 0
0 0 0
0 0 0
0 0 0
0 0 0
0 0 0
0 0 0
0 0 0
0 0 0
0 0 0
0 0 0
0 0 0
0 0 0
0 0 0
0 0 0
0 0 0
0 0 0
0 0 0
0 0 0
0 0 0
0 0 0
0 0 0
0 0 0
0 0 0
0 0 0
0 0 0
0 0 0
0 0 0
0 0 0
0 0 0
0 0 0
0 0 0
0 0 0
0 0 0
0 0 0
0 0 0
0 0 0
0 0 0
0 0 0
0 0 0
0 0 0
0 0 0
0 0 0
0 0 0
0 0 0
0 0 0
0 0 0
0 0 0
0 0 0
0 0 0
0 0 0
0 0 0
0 0 0
0 0 0
0 0 0
0 0 0
0 0 0
0 0 0
0 0 0
0 0 0
0 0 0
0 0 0
0 0 0
0 0 0
0 0 0
0 0 0
0 0 0
0 0 0
0 0 0
0 0 0
0 0 0
0 0 0
0 0 0
0 0 0
0 0 0
0 0 0
0 0 0
0 0 0
0 0 0
0 0 0
0 0 0
0 0 0
0 0 0
0 0 0
0 0 0
0 0 0
0 0 0
0 0 0
0 0 0
0 0 0
0 0 0
0 0 0
0 0 0
0 0 0
0 0 0
0 0 0
0 0 0
0 0 0
0 0 0
0 0 0
0 0 0
0 0 0
0 0 0
0 0 0
0 0 0
0 0 0
0 0 0
0 0 0
0 0 0
0 0 0
0 0 0
0 0 0
0 0 0
0 0 0
0 0 0
0 0 0
0 0 0
0 0 0
0 0 0
0 0 0
0 0 0
0 0 0
0 0 0
0 0 0
0 0 0
0 0 0
0 0 0
0 0 0
0 0 0
0 0 0
0 0 0
0 0 0
0 0 0
0 0 0
0 0 0
0 0 0
0 0 0
0 0 0
0 0 0
0 0 0
0 0 0
0 0 0
0 0 0
0 0 0
0 0 0
0 0 0
0 0 0
0 0 0
0 0 0
0 0 0
0 0 0
0 0 0
0 0 0
0 0 0
0 0 0
0 0 0
0 0 0
0 0 0
0 0 0
0 0 0
0 0 0
0 0 0
0 0 0
0 0 0
0 0 0
0 0 0
0 0 0
0 0 0
0 0 0
0 0 0
0 0 0
0 0 0
0 0 0
0 0 0
0 0 0
0 0 0
0 0 0
0 0 0
0 0 0
0 0 0
0 0 0
0 0 0
0 0 0
0 0 0
0 0 0
0 0 0
0 0 0
0 0 0
0 0 0
0 0 0
0 0 0
0 0 0
0 0 0
0 0 0
0 0 0
0 0 0
0 0 0
0 0 0
0 0 0
0 0 0
0 0 0
0 0 0
0 0 0
0 0 0
0 0 0
0 0 0
0 0 0
0 0 0
0 0 0
0 0 0
0 0 0
0 0 0
0 0 0
0 0 0
0 0 0
0 0 0
0 0 0
0 0 0
0 0 0
0 0 0
0 0 0
0 0 0
0 0 0
0 0 0
0 0 0
0 0 0
0 0 0
0 0 0
0 0 0
0 0 0
0 0 0
0 0 0
0 0 0
0 0 0
0 0 0
0 0 0
0 0 0
0 0 0
0 0 0
0 0 0
0 0 0
0 0 0
0 0 0
0 0 0
0 0 0
0 0 0
0 0 0
0 0 0
0 0 0
0 0 0
0 0 0
0 0 0
0 0 0
0 0 0
0 0 0
0 0 0
0 0 0
0 0 0
0 0 0
0 0 0
0 0 0
0 0 0
0 0 0
0 0 0
0 0 0
0 0 0
0 0 0
0 0 0
0 0 0
0 0 0
0 0 0
0 0 0
0 0 0
0 0 0
0 0 0
0 0 0
0 0 0
0 0 0
0 0 0
0 0 0
0 0 0
0 0 0
0 0 0
0 0 0
0 0 0
0 0 0
0 0 0
0 0 0
0 0 0
0 0 0
0 0 0
0 0 0
0 0 0
0 0 0
0 0 0
0 0 0
0 0 0
0 0 0
0 0 0
0 0 0
0 0 0
0 0 0
0 0 0
0 0 0
0 0 0
0 0 0
0 0 0
0 0 0
0 0 0
0 0 0
0 0 0
0 0 0
0 0 0
0 0 0
0 0 0
0 0 0
0 0 0
0 0 0
0 0 0
0 0 0
0 0 0
0 0 0
0 0 0
0 0 0
0 0 0
0 0 0
0 0 0
0 0 0
0 0 0
0 0 0
0 0 0
0 0 0
0 0 0
0 0 0
0 0 0
0 0 0
0 0 0
0 0 0
0 0 0
0 0 0
0 0 0
0 0 0
0 0 0
0 0 0
0 0 0
0 0 0
0 0 0
0 0 0
0 0 0
0 0 0
0 0 0
0 0 0
0 0 0
0 0 0
0 0 0
0 0 0
0 0 0
0 0 0
0 0 0
0 0 0
0 0 0
0 0 0
0 0 0
0 0 0
0 0 0
0 0 0
0 0 0
0 0 0
0 0 0
0 0 0
0 0 0
0 0 0
0 0 0
0 0 0
0 0 0
0 0 0
0 0 0
0 0 0
0 0 0
0 0 0
0 0 0
0 0 0
0 0 0
0 0 0
0 0 0
0 0 0
0 0 0
0 0 0
0 0 0
0 0 0
0 0 0
0 0 0
0 0 0
0 0 0
0 0 0
0 0 0
0 0 0
0 0 0
0 0 0
0 0 0
0 0 0
0 0 0
0 0 0
0 0 0
0 0 0
0 0 0
0 0 0
0 0 0
0 0 0
0 0 0
0 0 0
0 0 0
0 0 0
0 0 0
0 0 0
0 0 0
0 0 0
0 0 0
0 0 0
0 0 0
0 0 0
0 0 0
0 0 0
0 0 0
0 0 0
0 0 0
0 0 0
0 0 0
0 0 0
0 0 0
0 0 0
0 0 0
0 0 0
0 0 0
0 0 0
0 0 0
0 0 0
0 0 0
0 0 0
0 0 0
0 0 0
0 0 0
0 0 0
0 0 0
0 0 0
0 0 0
0 0 0
0 0 0
0 0 0
0 0 0
0 0 0
0 0 0
0 0 0
0 0 0
0 0 0
0 0 0
0 0 0
0 0 0
0 0 0
0 0 0
0 0 0
0 0 0
0 0 0
0 0 0
0 0 0
0 0 0
0 0 0
0 0 0
0 0 0
0 0 0
0 0 0
0 0 0
0 0 0
0 0 0
0 0 0
0 0 0
0 0 0
0 0 0
0 0 0
0 0 0
0 0 0
0 0 0
0 0 0
0 0 0
0 0 0
0 0 0
0 0 0
0 0 0
0 0 0
0 0 0
0 0 0
0 0 0
0 0 0
0 0 0
0 0 0
0 0 0
0 0 0
0 0 0
0 0 0
0 0 0
0 0 0
0 0 0
0 0 0
0 0 0
0 0 0
0 0 0
0 0 0
0 0 0
0 0 0
0 0 0
0 0 0
0 0 0
0 0 0
0 0 0
0 0 0
0 0 0
0 0 0
0 0 0
0 0 0
0 0 0
0 0 0
0 0 0
0 0 0
0 0 0
0 0 0
0 0 0
0 0 0
0 0 0
0 0 0
0 0 0
0 0 0
0 0 0
0 0 0
0 0 0
0 0 0
0 0 0
0 0 0
0 0 0
0 0 0
0 0 0
0 0 0
0 0 0
0 0 0
0 0 0
0 0 0
0 0 0
0 0 0
0 0 0
0 0 0
0 0 0
0 0 0
0 0 0
0 0 0
0 0 0
0 0 0
0 0 0
0 0 0
0 0 0
0 0 0
0 0 0
0 0 0
0 0 0
0 0 0
0 0 0
0 0 0
0 0 0
0 0 0
0 0 0
0 0 0
0 0 0
0 0 0
0 0 0
0 0 0
0 0 0
0 0 0
0 0 0
0 0 0
0 0 0
0 0 0
0 0 0
0 0 0
0 0 0
0 0 0
0 0 0
0 0 0
0 0 0
0 0 0
0 0 0
0 0 0
0 0 0
0 0 0
0 0 0
0 0 0
0 0 0
0 0 0
0 0 0
0 0 0
0 0 0
0 0 0
0 0 0
0 0 0
0 0 0
0 0 0
0 0 0
0 0 0
0 0 0
0 0 0
0 0 0
0 0 0
0 0 0
0 0 0
0 0 0
0 0 0
0 0 0
0 0 0
0 0 0
0 0 0
0 0 0
0 0 0
0 0 0
0 0 0
0 0 0
0 0 0
0 0 0
0 0 0
0 0 0
0 0 0
0 0 0
0 0 0
0 0 0
0 0 0
0 0 0
0 0 0
0 0 0
0 0 0
0 0 0
0 0 0
0 0 0
0 0 0
0 0 0
0 0 0
0 0 0
0 0 0
0 0 0
0 0 0
0 0 0
0 0 0
0 0 0
0 0 0
0 0 0
0 0 0
0 0 0
0 0 0
0 0 0
0 0 0
0 0 0
0 0 0
0 0 0
0 0 0
0 0 0
0 0 0
0 0 0
0 0 0
0 0 0
0 0 0
0 0 0
0 0 0
0 0 0
0 0 0
0 0 0
0 0 0
0 0 0
0 0 0
0 0 0
0 0 0
0 0 0
0 0 0
0 0 0
0 0 0
0 0 0
0 0 0
0 0 0
0 0 0
0 0 0
0 0 0
0 0 0
0 0 0
0 0 0
0 0 0
0 0 0
0 0 0
0 0 0
0 0 0
0 0 0
0 0 0
0 0 0
0 0 0
0 0 0
0 0 0
0 0 0
0 0 0
0 0 0
0 0 0
0 0 0
0 0 0
0 0 0
0 0 0
0 0 0
0 0 0
0 0 0
0 0 0
0 0 0
0 0 0
0 0 0
0 0 0
0 0 0
0 0 0
0 0 0
0 0 0
0 0 0
0 0 0
0 0 0
0 0 0
0 0 0
0 0 0
0 0 0
0 0 0
0 0 0
0 0 0
0 0 0
0 0 0
0 0 0
0 0 0
0 0 0
0 0 0
0 0 0
0 0 0
0 0 0
0 0 0
0 0 0
0 0 0
0 0 0
0 0 0
0 0 0
0 0 0
0 0 0
0 0 0
0 0 0
0 0 0
0 0 0
0 0 0
0 0 0
0 0 0
0 0 0
0 0 0
0 0 0
0 0 0
0 0 0
0 0 0
0 0 0
0 0 0
0 0 0
0 0 0
0 0 0
0 0 0
0 0 0
0 0 0
0 0 0
0 0 0
0 0 0
0 0 0
0 0 0
0 0 0
0 0 0
0 0 0
0 0 0
0 0 0
0 0 0
0 0 0
0 0 0
0 0 0
0 0 0
0 0 0
0 0 0
0 0 0
0 0 0
0 0 0
0 0 0
0 0 0
0 0 0
0 0 0
0 0 0
0 0 0
0 0 0
0 0 0
0 0 0
0 0 0
0 0 0
0 0 0
0 0 0
0 0 0
0 0 0
0 0 0
0 0 0
0 0 0
0 0 0
0 0 0
0 0 0
0 0 0
0 0 0
0 0 0
0 0 0
0 0 0
0 0 0
0 0 0
0 0 0
0 0 0
0 0 0
0 0 0
0 0 0
0 0 0
0 0 0
0 0 0
0 0 0
0 0 0
0 0 0
0 0 0
0 0 0
0 0 0
0 0 0
0 0 0
0 0 0
0 0 0
0 0 0
0 0 0
0 0 0
0 0 0
0 0 0
0 0 0
0 0 0
0 0 0
0 0 0
0 0 0
0 0 0
0 0 0
0 0 0
0 0 0
0 0 0
0 0 0
0 0 0
0 0 0
0 0 0
0 0 0
0 0 0
0 0 0
0 0 0
0 0 0
0 0 0
0 0 0
0 0 0
0 0 0
0 0 0
0 0 0
0 0 0
0 0 0
0 0 0
0 0 0
0 0 0
0 0 0
0 0 0
0 0 0
0 0 0
0 0 0
0 0 0
0 0 0
0 0 0
0 0 0
0 0 0
0 0 0
0 0 0
0 0 0
0 0 0
0 0 0
0 0 0
0 0 0
0 0 0
0 0 0
0 0 0
0 0 0
0 0 0
0 0 0
0 0 0
0 0 0
0 0 0
0 0 0
0 0 0
0 0 0
0 0 0
0 0 0
0 0 0
0 0 0
0 0 0
0 0 0
0 0 0
0 0 0
0 0 0
0 0 0
0 0 0
0 0 0
0 0 0
0 0 0
0 0 0
0 0 0
0 0 0
0 0 0
0 0 0
0 0 0
0 0 0
0 0 0
0 0 0
0 0 0
0 0 0
0 0 0
0 0 0
0 0 0
0 0 0
0 0 0
0 0 0
0 0 0
0 0 0
0 0 0
0 0 0
0 0 0
0 0 0
0 0 0
0 0 0
0 0 0
0 0 0
0 0 0
0 0 0
0 0 0
0 0 0
0 0 0
0 0 0
0 0 0
0 0 0
0 0 0
0 0 0
0 0 0
0 0 0
0 0 0
0 0 0
0 0 0
0 0 0
0 0 0
0 0 0
0 0 0
0 0 0
0 0 0
0 0 0
0 0 0
0 0 0
0 0 0
0 0 0
0 0 0
0 0 0
0 0 0
0 0 0
0 0 0
0 0 0
0 0 0
0 0 0
0 0 0
0 0 0
0 0 0
0 0 0
0 0 0
0 0 0
0 0 0
0 0 0
0 0 0
0 0 0
0 0 0
0 0 0
0 0 0
0 0 0
0 0 0
0 0 0
0 0 0
0 0 0
0 0 0
0 0 0
0 0 0
0 0 0
0 0 0
0 0 0
0 0 0
0 0 0
0 0 0
0 0 0
0 0 0
0 0 0
0 0 0
0 0 0
0 0 0
0 0 0
0 0 0
0 0 0
0 0 0
0 0 0
0 0 0
0 0 0
0 0 0
0 0 0
0 0 0
0 0 0
0 0 0
0 0 0
0 0 0
0 0 0
0 0 0
0 0 0
0 0 0
0 0 0
0 0 0
0 0 0
0 0 0
0 0 0
0 0 0
0 0 0
0 0 0
0 0 0
0 0 0
0 0 0
0 0 0
0 0 0
0 0 0
0 0 0
0 0 0
0 0 0
0 0 0
0 0 0
0 0 0
0 0 0
0 0 0
0 0 0
0 0 0
0 0 0
0 0 0
0 0 0
0 0 0
0 0 0
0 0 0
0 0 0
0 0 0
0 0 0
0 0 0
0 0 0
0 0 0
0 0 0
0 0 0
0 0 0
0 0 0
0 0 0
0 0 0
0 0 0
0 0 0
0 0 0
0 0 0
0 0 0
0 0 0
0 0 0
0 0 0
0 0 0
0 0 0
0 0 0
0 0 0
0 0 0
0 0 0
0 0 0
0 0 0
0 0 0
0 0 0
0 0 0
0 0 0
0 0 0
0 0 0
0 0 0
0 0 0
0 0 0
0 0 0
0 0 0
0 0 0
0 0 0
0 0 0
0 0 0
0 0 0
0 0 0
0 0 0
0 0 0
0 0 0
0 0 0
0 0 0
0 0 0
0 0 0
0 0 0
0 0 0
0 0 0
0 0 0
0 0 0
0 0 0
0 0 0
0 0 0
0 0 0
0 0 0
0 0 0
0 0 0
0 0 0
0 0 0
0 0 0
0 0 0
0 0 0
0 0 0
0 0 0
0 0 0
0 0 0
0 0 0
0 0 0
0 0 0
0 0 0
0 0 0
0 0 0
0 0 0
0 0 0
0 0 0
0 0 0
0 0 0
0 0 0
0 0 0
0 0 0
0 0 0
0 0 0
0 0 0
0 0 0
0 0 0
0 0 0
0 0 0
0 0 0
0 0 0
0 0 0
0 0 0
0 0 0
0 0 0
0 0 0
0 0 0
0 0 0
0 0 0
0 0 0
0 0 0
0 0 0
0 0 0
0 0 0
0 0 0
0 0 0
0 0 0
0 0 0
0 0 0
0 0 0
0 0 0
0 0 0
0 0 0
0 0 0
0 0 0
0 0 0
0 0 0
0 0 0
0 0 0
0 0 0
0 0 0
0 0 0
0 0 0
0 0 0
0 0 0
0 0 0
0 0 0
0 0 0
0 0 0
0 0 0
0 0 0
0 0 0
0 0 0
0 0 0
0 0 0
0 0 0
0 0 0
0 0 0
0 0 0
0 0 0
0 0 0
0 0 0
0 0 0
0 0 0
0 0 0
0 0 0
0 0 0
0 0 0
0 0 0
0 0 0
0 0 0
0 0 0
0 0 0
0 0 0
0 0 0
0 0 0
0 0 0
0 0 0
0 0 0
0 0 0
0 0 0
0 0 0
0 0 0
0 0 0
0 0 0
0 0 0
0 0 0
0 0 0
0 0 0
0 0 0
0 0 0
0 0 0
0 0 0
0 0 0
0 0 0
0 0 0
0 0 0
0 0 0
0 0 0
0 0 0
0 0 0
0 0 0
0 0 0
0 0 0
0 0 0
0 0 0
0 0 0
0 0 0
0 0 0
0 0 0
0 0 0
0 0 0
0 0 0
0 0 0
0 0 0
0 0 0
0 0 0
0 0 0
0 0 0
0 0 0
0 0 0
0 0 0
0 0 0
0 0 0
0 0 0
0 0 0
0 0 0
0 0 0
0 0 0
0 0 0
0 0 0
0 0 0
0 0 0
0 0 0
0 0 0
0 0 0
0 0 0
0 0 0
0 0 0
0 0 0
0 0 0
0 0 0
0 0 0
0 0 0
0 0 0
0 0 0
0 0 0
0 0 0
0 0 0
0 0 0
0 0 0
0 0 0
0 0 0
0 0 0
0 0 0
0 0 0
0 0 0
0 0 0
0 0 0
0 0 0
0 0 0
0 0 0
0 0 0
0 0 0
0 0 0
0 0 0
0 0 0
0 0 0
0 0 0
0 0 0
0 0 0
0 0 0
0 0 0
0 0 0
0 0 0
0 0 0
0 0 0
0 0 0
0 0 0
0 0 0
0 0 0
0 0 0
0 0 0
0 0 0
0 0 0
0 0 0
0 0 0
0 0 0
0 0 0
0 0 0
0 0 0
0 0 0
0 0 0
0 0 0
0 0 0
0 0 0
0 0 0
0 0 0
0 0 0
0 0 0
0 0 0
0 0 0
0 0 0
0 0 0
0 0 0
0 0 0
0 0 0
0 0 0
0 0 0
0 0 0
0 0 0
0 0 0
0 0 0
0 0 0
0 0 0
0 0 0
0 0 0
0 0 0
0 0 0
0 0 0
0 0 0
0 0 0
0 0 0
0 0 0
0 0 0
0 0 0
0 0 0
0 0 0
0 0 0
0 0 0
0 0 0
0 0 0
0 0 0
0 0 0
0 0 0
0 0 0
0 0 0
0 0 0
0 0 0
0 0 0
0 0 0
0 0 0
0 0 0
0 0 0
0 0 0
0 0 0
0 0 0
0 0 0
0 0 0
0 0 0
0 0 0
0 0 0
0 0 0
0 0 0
0 0 0
0 0 0
0 0 0
0 0 0
0 0 0
0 0 0
0 0 0
0 0 0
0 0 0
0 0 0
0 0 0
0 0 0
0 0 0
0 0 0
0 0 0
0 0 0
0 0 0
0 0 0
0 0 0
0 0 0
0 0 0
0 0 0
0 0 0
0 0 0
0 0 0
0 0 0
0 0 0
0 0 0
0 0 0
0 0 0
0 0 0
0 0 0
0 0 0
0 0 0
0 0 0
0 0 0
0 0 0
0 0 0
0 0 0
0 0 0
0 0 0
0 0 0
0 0 0
0 0 0
0 0 0
0 0 0
0 0 0
0 0 0
0 0 0
0 0 0
0 0 0
0 0 0
0 0 0
0 0 0
0 0 0
0 0 0
0 0 0
0 0 0
0 0 0
0 0 0
0 0 0
0 0 0
0 0 0
0 0 0
0 0 0
0 0 0
0 0 0
0 0 0
0 0 0
0 0 0
0 0 0
0 0 0
0 0 0
0 0 0
0 0 0
0 0 0
0 0 0
0 0 0
0 0 0
0 0 0
0 0 0
0 0 0
0 0 0
0 0 0
0 0 0
0 0 0
0 0 0
0 0 0
0 0 0
0 0 0
0 0 0
0 0 0
0 0 0
0 0 0
0 0 0
0 0 0
0 0 0
0 0 0
0 0 0
0 0 0
0 0 0
0 0 0
0 0 0
0 0 0
0 0 0
0 0 0
0 0 0
0 0 0
0 0 0
0 0 0
0 0 0
0 0 0
0 0 0
0 0 0
0 0 0
0 0 0
0 0 0
0 0 0
0 0 0
0 0 0
0 0 0
0 0 0
0 0 0
0 0 0
0 0 0
0 0 0
0 0 0
0 0 0
0 0 0
0 0 0
0 0 0
0 0 0
0 0 0
0 0 0
0 0 0
0 0 0
0 0 0
0 0 0
0 0 0
0 0 0
0 0 0
0 0 0
0 0 0
0 0 0
0 0 0
0 0 0
0 0 0
0 0 0
0 0 0
0 0 0
0 0 0
0 0 0
0 0 0
0 0 0
0 0 0
0 0 0
0 0 0
0 0 0
0 0 0
0 0 0
0 0 0
0 0 0
0 0 0
0 0 0
0 0 0
0 0 0
0 0 0
0 0 0
0 0 0
0 0 0
0 0 0
0 0 0
0 0 0
0 0 0
0 0 0
0 0 0
0 0 0
0 0 0
0 0 0
0 0 0
0 0 0
0 0 0
0 0 0
0 0 0
0 0 0
0 0 0
0 0 0
0 0 0
0 0 0
0 0 0
0 0 0
0 0 0
0 0 0
0 0 0
0 0 0
0 0 0
0 0 0
0 0 0
0 0 0
0 0 0
0 0 0
0 0 0
0 0 0
0 0 0
0 0 0
0 0 0
0 0 0
0 0 0
0 0 0
0 0 0
0 0 0
0 0 0
0 0 0
0 0 0
0 0 0
0 0 0
0 0 0
0 0 0
0 0 0
0 0 0
0 0 0
0 0 0
0 0 0
0 0 0
0 0 0
0 0 0
0 0 0
0 0 0
0 0 0
0 0 0
0 0 0
0 0 0
0 0 0
0 0 0
0 0 0
0 0 0
0 0 0
0 0 0
0 0 0
0 0 0
0 0 0
0 0 0
0 0 0
0 0 0
0 0 0
0 0 0
0 0 0
0 0 0
0 0 0
0 0 0
0 0 0
0 0 0
0 0 0
0 0 0
0 0 0
0 0 0
0 0 0
0 0 0
0 0 0
0 0 0
0 0 0
0 0 0
0 0 0
0 0 0
0 0 0
0 0 0
0 0 0
0 0 0
0 0 0
0 0 0
0 0 0
0 0 0
0 0 0
0 0 0
0 0 0
0 0 0
0 0 0
0 0 0
0 0 0
0 0 0
0 0 0
0 0 0
0 0 0
0 0 0
0 0 0
0 0 0
0 0 0
0 0 0
0 0 0
0 0 0
0 0 0
0 0 0
0 0 0
0 0 0
0 0 0
0 0 0
0 0 0
0 0 0
0 0 0
0 0 0
0 0 0
0 0 0
0 0 0
0 0 0
0 0 0
0 0 0
0 0 0
0 0 0
0 0 0
0 0 0
0 0 0
0 0 0
0 0 0
0 0 0
0 0 0
0 0 0
0 0 0
0 0 0
0 0 0
0 0 0
0 0 0
0 0 0
0 0 0
0 0 0
0 0 0
0 0 0
0 0 0
0 0 0
0 0 0
0 0 0
0 0 0
0 0 0
0 0 0
0 0 0
0 0 0
0 0 0
0 0 0
0 0 0
0 0 0
0 0 0
0 0 0
0 0 0
0 0 0
0 0 0
0 0 0
0 0 0
0 0 0
0 0 0
0 0 0
0 0 0
0 0 0
0 0 0
0 0 0
0 0 0
0 0 0
0 0 0
0 0 0
0 0 0
0 0 0
0 0 0
0 0 0
0 0 0
0 0 0
0 0 0
0 0 0
0 0 0
0 0 0
0 0 0
0 0 0
0 0 0
0 0 0
0 0 0
0 0 0
0 0 0
0 0 0
0 0 0
0 0 0
0 0 0
0 0 0
0 0 0
0 0 0
0 0 0
0 0 0
0 0 0
0 0 0
0 0 0
0 0 0
0 0 0
0 0 0
0 0 0
0 0 0
0 0 0
0 0 0
0 0 0
0 0 0
0 0 0
0 0 0
0 0 0
0 0 0
0 0 0
0 0 0
0 0 0
0 0 0
0 0 0
0 0 0
0 0 0
0 0 0
0 0 0
0 0 0
0 0 0
0 0 0
0 0 0
0 0 0
0 0 0
0 0 0
0 0 0
0 0 0
0 0 0
0 0 0
0 0 0
0 0 0
0 0 0
0 0 0
0 0 0
0 0 0
0 0 0
0 0 0
0 0 0
0 0 0
0 0 0
0 0 0
0 0 0
0 0 0
0 0 0
0 0 0
0 0 0
0 0 0
0 0 0
0 0 0
0 0 0
0 0 0
0 0 0
0 0 0
0 0 0
0 0 0
0 0 0
0 0 0
0 0 0
0 0 0
0 0 0
0 0 0
0 0 0
0 0 0
0 0 0
0 0 0
0 0 0
0 0 0
0 0 0
0 0 0
0 0 0
0 0 0
0 0 0
0 0 0
0 0 0
0 0 0
0 0 0
0 0 0
0 0 0
0 0 0
0 0 0
0 0 0
0 0 0
0 0 0
0 0 0
0 0 0
0 0 0
0 0 0
0 0 0
0 0 0
0 0 0
0 0 0
0 0 0
0 0 0
0 0 0
0 0 0
0 0 0
0 0 0
0 0 0
0 0 0
0 0 0
0 0 0
0 0 0
0 0 0
0 0 0
0 0 0
0 0 0
0 0 0
0 0 0
0 0 0
0 0 0
0 0 0
0 0 0
0 0 0
0 0 0
0 0 0
0 0 0
0 0 0
0 0 0
0 0 0
0 0 0
0 0 0
0 0 0
0 0 0
0 0 0
0 0 0
0 0 0
0 0 0
0 0 0
0 0 0
0 0 0
0 0 0
0 0 0
0 0 0
0 0 0
0 0 0
0 0 0
0 0 0
0 0 0
0 0 0
0 0 0
0 0 0
0 0 0
0 0 0
0 0 0
0 0 0
0 0 0
0 0 0
0 0 0
0 0 0
0 0 0
0 0 0
0 0 0
0 0 0
0 0 0
0 0 0
0 0 0
0 0 0
0 0 0
0 0 0
0 0 0
0 0 0
0 0 0
0 0 0
0 0 0
0 0 0
0 0 0
0 0 0
0 0 0
0 0 0
0 0 0
0 0 0
0 0 0
0 0 0
0 0 0
0 0 0
0 0 0
0 0 0
0 0 0
0 0 0
0 0 0
0 0 0
0 0 0
0 0 0
0 0 0
0 0 0
0 0 0
0 0 0
0 0 0
0 0 0
0 0 0
0 0 0
0 0 0
0 0 0
0 0 0
0 0 0
0 0 0
0 0 0
0 0 0
0 0 0
0 0 0
0 0 0
0 0 0
0 0 0
0 0 0
0 0 0
0 0 0
0 0 0
0 0 0
0 0 0
0 0 0
0 0 0
0 0 0
0 0 0
0 0 0
0 0 0
0 0 0
0 0 0
0 0 0
0 0 0
0 0 0
0 0 0
0 0 0
0 0 0
0 0 0
0 0 0
0 0 0
0 0 0
0 0 0
0 0 0
0 0 0
0 0 0
0 0 0
0 0 0
0 0 0
0 0 0
0 0 0
0 0 0
0 0 0
0 0 0
0 0 0
0 0 0
0 0 0
0 0 0
0 0 0
0 0 0
0 0 0
0 0 0
0 0 0
0 0 0
0 0 0
0 0 0
0 0 0
0 0 0
0 0 0
0 0 0
0 0 0
0 0 0
0 0 0
0 0 0
0 0 0
0 0 0
0 0 0
0 0 0
0 0 0
0 0 0
0 0 0
0 0 0
0 0 0
0 0 0
0 0 0
0 0 0
0 0 0
0 0 0
0 0 0
0 0 0
0 0 0
0 0 0
0 0 0
0 0 0
0 0 0
0 0 0
0 0 0
0 0 0
0 0 0
0 0 0
0 0 0
0 0 0
0 0 0
0 0 0
0 0 0
0 0 0
0 0 0
0 0 0
0 0 0
0 0 0
0 0 0
0 0 0
0 0 0
0 0 0
0 0 0
0 0 0
0 0 0
0 0 0
0 0 0
0 0 0
0 0 0
0 0 0
0 0 0
0 0 0
0 0 0
0 0 0
0 0 0
0 0 0
0 0 0
0 0 0
0 0 0
0 0 0
0 0 0
0 0 0
0 0 0
0 0 0
0 0 0
0 0 0
0 0 0
0 0 0
0 0 0
0 0 0
0 0 0
0 0 0
0 0 0
0 0 0
0 0 0
0 0 0
0 0 0
0 0 0
0 0 0
0 0 0
0 0 0
0 0 0
0 0 0
0 0 0
0 0 0
0 0 0
0 0 0
0 0 0
0 0 0
0 0 0
0 0 0
0 0 0
0 0 0
0 0 0
0 0 0
0 0 0
0 0 0
0 0 0
0 0 0
0 0 0
0 0 0
0 0 0
0 0 0
0 0 0
0 0 0
0 0 0
0 0 0
0 0 0
0 0 0
0 0 0
0 0 0
0 0 0
0 0 0
0 0 0
0 0 0
0 0 0
0 0 0
0 0 0
0 0 0
0 0 0
0 0 0
0 0 0
0 0 0
0 0 0
0 0 0
0 0 0
0 0 0
0 0 0
0 0 0
0 0 0
0 0 0
0 0 0
0 0 0
0 0 0
0 0 0
0 0 0
0 0 0
0 0 0
0 0 0
0 0 0
0 0 0
0 0 0
0 0 0
0 0 0
0 0 0
0 0 0
0 0 0
0 0 0
0 0 0
0 0 0
0 0 0
0 0 0
0 0 0
0 0 0
0 0 0
0 0 0
0 0 0
0 0 0
0 0 0
0 0 0
0 0 0
0 0 0
0 0 0
0 0 0
0 0 0
0 0 0
0 0 0
0 0 0
0 0 0
0 0 0
0 0 0
0 0 0
0 0 0
0 0 0
0 0 0
0 0 0
0 0 0
0 0 0
0 0 0
0 0 0
0 0 0
0 0 0
0 0 0
0 0 0
0 0 0
0 0 0
0 0 0
0 0 0
0 0 0
0 0 0
0 0 0
0 0 0
0 0 0
0 0 0
0 0 0
0 0 0
0 0 0
0 0 0
0 0 0
0 0 0
0 0 0
0 0 0
0 0 0
0 0 0
0 0 0
0 0 0
0 0 0
0 0 0
0 0 0
0 0 0
0 0 0
0 0 0
0 0 0
0 0 0
0 0 0
0 0 0
0 0 0
0 0 0
0 0 0
0 0 0
0 0 0
0 0 0
0 0 0
0 0 0
0 0 0
0 0 0
0 0 0
0 0 0
0 0 0
0 0 0
0 0 0
0 0 0
0 0 0
0 0 0
0 0 0
0 0 0
0 0 0
0 0 0
0 0 0
0 0 0
0 0 0
0 0 0
0 0 0
0 0 0
0 0 0
0 0 0
0 0 0
0 0 0
0 0 0
0 0 0
0 0 0
0 0 0
0 0 0
0 0 0
0 0 0
0 0 0
0 0 0
0 0 0
0 0 0
0 0 0
0 0 0
0 0 0
0 0 0
0 0 0
0 0 0
0 0 0
0 0 0
0 0 0
0 0 0
0 0 0
0 0 0
0 0 0
0 0 0
0 0 0
0 0 0
0 0 0
0 0 0
0 0 0
0 0 0
0 0 0
0 0 0
0 0 0
0 0 0
0 0 0
0 0 0
0 0 0
0 0 0
0 0 0
0 0 0
0 0 0
0 0 0
0 0 0
0 0 0
0 0 0
0 0 0
0 0 0
0 0 0
0 0 0
0 0 0
0 0 0
0 0 0
0 0 0
0 0 0
0 0 0
0 0 0
0 0 0
0 0 0
0 0 0
0 0 0
0 0 0
0 0 0
0 0 0
0 0 0
0 0 0
0 0 0
0 0 0
0 0 0
0 0 0
0 0 0
0 0 0
0 0 0
0 0 0
0 0 0
0 0 0
0 0 0
0 0 0
0 0 0
0 0 0
0 0 0
0 0 0
0 0 0
0 0 0
0 0 0
0 0 0
0 0 0
0 0 0
0 0 0
0 0 0
0 0 0
0 0 0
0 0 0
0 0 0
0 0 0
0 0 0
0 0 0
0 0 0
0 0 0
0 0 0
0 0 0
0 0 0
0 0 0
0 0 0
0 0 0
0 0 0
0 0 0
0 0 0
0 0 0
0 0 0
0 0 0
0 0 0
0 0 0
0 0 0
0 0 0
0 0 0
0 0 0
0 0 0
0 0 0
0 0 0
0 0 0
0 0 0
0 0 0
0 0 0
0 0 0
0 0 0
0 0 0
0 0 0
0 0 0
0 0 0
0 0 0
0 0 0
0 0 0
0 0 0
0 0 0
0 0 0
0 0 0
0 0 0
0 0 0
0 0 0
0 0 0
0 0 0
0 0 0
0 0 0
0 0 0
0 0 0
0 0 0
0 0 0
0 0 0
0 0 0
0 0 0
0 0 0
0 0 0
0 0 0
0 0 0
0 0 0
0 0 0
0 0 0
0 0 0
0 0 0
0 0 0
0 0 0
0 0 0
0 0 0
0 0 0
0 0 0
0 0 0
0 0 0
0 0 0
0 0 0
0 0 0
0 0 0
0 0 0
0 0 0
0 0 0
0 0 0
0 0 0
0 0 0
0 0 0
0 0 0
0 0 0
0 0 0
0 0 0
0 0 0
0 0 0
0 0 0
0 0 0
0 0 0
0 0 0
0 0 0
0 0 0
0 0 0
0 0 0
0 0 0
0 0 0
0 0 0
0 0 0
0 0 0
0 0 0
0 0 0
0 0 0
0 0 0
0 0 0
0 0 0
0 0 0
0 0 0
0 0 0
0 0 0
0 0 0
0 0 0
0 0 0
0 0 0
0 0 0
0 0 0
0 0 0
0 0 0
0 0 0
0 0 0
0 0 0
0 0 0
0 0 0
0 0 0
0 0 0
0 0 0
0 0 0
0 0 0
0 0 0
0 0 0
0 0 0
0 0 0
0 0 0
0 0 0
0 0 0
0 0 0
0 0 0
0 0 0
0 0 0
0 0 0
0 0 0
0 0 0
0 0 0
0 0 0
0 0 0
0 0 0
0 0 0
0 0 0
0 0 0
0 0 0
0 0 0
0 0 0
0 0 0
0 0 0
0 0 0
0 0 0
0 0 0
0 0 0
0 0 0
0 0 0
0 0 0
0 0 0
0 0 0
0 0 0
0 0 0
0 0 0
0 0 0
0 0 0
0 0 0
0 0 0
0 0 0
0 0 0
0 0 0
0 0 0
0 0 0
0 0 0
0 0 0
0 0 0
0 0 0
0 0 0
0 0 0
0 0 0
0 0 0
0 0 0
0 0 0
0 0 0
0 0 0
0 0 0
0 0 0
0 0 0
0 0 0
0 0 0
0 0 0
0 0 0
0 0 0
0 0 0
0 0 0
0 0 0
0 0 0
0 0 0
0 0 0
0 0 0
0 0 0
0 0 0
0 0 0
0 0 0
0 0 0
0 0 0
0 0 0
0 0 0
0 0 0
0 0 0
0 0 0
0 0 0
0 0 0
0 0 0
0 0 0
0 0 0
0 0 0
0 0 0
0 0 0
0 0 0
0 0 0
0 0 0
0 0 0
0 0 0
0 0 0
0 0 0
0 0 0
0 0 0
0 0 0
0 0 0
0 0 0
0 0 0
0 0 0
0 0 0
0 0 0
0 0 0
0 0 0
0 0 0
0 0 0
0 0 0
0 0 0
0 0 0
0 0 0
0 0 0
0 0 0
0 0 0
0 0 0
0 0 0
0 0 0
0 0 0
0 0 0
0 0 0
0 0 0
0 0 0
0 0 0
0 0 0
0 0 0
0 0 0
0 0 0
0 0 0
0 0 0
0 0 0
0 0 0
0 0 0
0 0 0
0 0 0
0 0 0
0 0 0
0 0 0
0 0 0
0 0 0
0 0 0
0 0 0
0 0 0
0 0 0
0 0 0
0 0 0
0 0 0
0 0 0
0 0 0
0 0 0
0 0 0
0 0 0
0 0 0
0 0 0
0 0 0
0 0 0
0 0 0
0 0 0
0 0 0
0 0 0
0 0 0
0 0 0
0 0 0
0 0 0
0 0 0
0 0 0
0 0 0
0 0 0
0 0 0
0 0 0
0 0 0
0 0 0
0 0 0
0 0 0
0 0 0
0 0 0
0 0 0
0 0 0
0 0 0
0 0 0
0 0 0
0 0 0
0 0 0
0 0 0
0 0 0
0 0 0
0 0 0
0 0 0
0 0 0
0 0 0
0 0 0
0 0 0
0 0 0
0 0 0
0 0 0
0 0 0
0 0 0
0 0 0
0 0 0
0 0 0
0 0 0
0 0 0
0 0 0
0 0 0
0 0 0
0 0 0
0 0 0
0 0 0
0 0 0
0 0 0
0 0 0
0 0 0
0 0 0
0 0 0
0 0 0
0 0 0
0 0 0
0 0 0
0 0 0
0 0 0
0 0 0
0 0 0
0 0 0
0 0 0
0 0 0
0 0 0
0 0 0
0 0 0
0 0 0
0 0 0
0 0 0
0 0 0
0 0 0
0 0 0
0 0 0
0 0 0
0 0 0
0 0 0
0 0 0
0 0 0
0 0 0
0 0 0
0 0 0
0 0 0
0 0 0
0 0 0
0 0 0
0 0 0
0 0 0
0 0 0
0 0 0
0 0 0
0 0 0
0 0 0
0 0 0
0 0 0
0 0 0
0 0 0
0 0 0
0 0 0
0 0 0
0 0 0
0 0 0
0 0 0
0 0 0
0 0 0
0 0 0
0 0 0
0 0 0
0 0 0
0 0 0
0 0 0
0 0 0
0 0 0
0 0 0
0 0 0
0 0 0
0 0 0
0 0 0
0 0 0
0 0 0
0 0 0
0 0 0
0 0 0
0 0 0
0 0 0
0 0 0
0 0 0
0 0 0
0 0 0
0 0 0
0 0 0
0 0 0
0 0 0
0 0 0
0 0 0
0 0 0
0 0 0
0 0 0
0 0 0
0 0 0
0 0 0
0 0 0
0 0 0
0 0 0
0 0 0
0 0 0
0 0 0
0 0 0
0 0 0
0 0 0
0 0 0
0 0 0
0 0 0
0 0 0
0 0 0
0 0 0
0 0 0
0 0 0
0 0 0
0 0 0
0 0 0
0 0 0
0 0 0
0 0 0
0 0 0
0 0 0
0 0 0
0 0 0
0 0 0
0 0 0
0 0 0
0 0 0
0 0 0
0 0 0
0 0 0
0 0 0
0 0 0
0 0 0
0 0 0
0 0 0
0 0 0
0 0 0
0 0 0
0 0 0
0 0 0
0 0 0
0 0 0
0 0 0
0 0 0
0 0 0
0 0 0
0 0 0
0 0 0
0 0 0
0 0 0
0 0 0
0 0 0
0 0 0
0 0 0
0 0 0
0 0 0
0 0 0
0 0 0
0 0 0
0 0 0
0 0 0
0 0 0
0 0 0
0 0 0
0 0 0
0 0 0
0 0 0
0 0 0
0 0 0
0 0 0
0 0 0
0 0 0
0 0 0
0 0 0
0 0 0
0 0 0
0 0 0
0 0 0
0 0 0
0 0 0
0 0 0
0 0 0
0 0 0
0 0 0
0 0 0
0 0 0
0 0 0
0 0 0
0 0 0
0 0 0
0 0 0
0 0 0
0 0 0
0 0 0
0 0 0
0 0 0
0 0 0
0 0 0
0 0 0
0 0 0
0 0 0
0 0 0
0 0 0
0 0 0
0 0 0
0 0 0
0 0 0
0 0 0
0 0 0
0 0 0
0 0 0
0 0 0
0 0 0
0 0 0
0 0 0
0 0 0
0 0 0
0 0 0
0 0 0
0 0 0
0 0 0
0 0 0
0 0 0
0 0 0
0 0 0
0 0 0
0 0 0
0 0 0
0 0 0
0 0 0
0 0 0
0 0 0
0 0 0
0 0 0
0 0 0
0 0 0
0 0 0
0 0 0
0 0 0
0 0 0
0 0 0
0 0 0
0 0 0
0 0 0
0 0 0
0 0 0
0 0 0
0 0 0
0 0 0
0 0 0
0 0 0
0 0 0
0 0 0
0 0 0
0 0 0
0 0 0
0 0 0
0 0 0
0 0 0
0 0 0
0 0 0
0 0 0
0 0 0
0 0 0
0 0 0
0 0 0
0 0 0
0 0 0
0 0 0
0 0 0
0 0 0
0 0 0
0 0 0
0 0 0
0 0 0
0 0 0
0 0 0
0 0 0
0 0 0
0 0 0
0 0 0
0 0 0
0 0 0
0 0 0
0 0 0
0 0 0
0 0 0
0 0 0
0 0 0
0 0 0
0 0 0
0 0 0
0 0 0
0 0 0
0 0 0
0 0 0
0 0 0
0 0 0
0 0 0
0 0 0
0 0 0
0 0 0
0 0 0
0 0 0
0 0 0
0 0 0
0 0 0
0 0 0
0 0 0
0 0 0
0 0 0
0 0 0
0 0 0
0 0 0
0 0 0
0 0 0
0 0 0
0 0 0
0 0 0
0 0 0
0 0 0
0 0 0
0 0 0
0 0 0
0 0 0
0 0 0
0 0 0
0 0 0
0 0 0
0 0 0
0 0 0
0 0 0
0 0 0
0 0 0
0 0 0
0 0 0
0 0 0
0 0 0
0 0 0
0 0 0
0 0 0
0 0 0
0 0 0
0 0 0
0 0 0
0 0 0
0 0 0
0 0 0
0 0 0
0 0 0
0 0 0
0 0 0
0 0 0
0 0 0
0 0 0
0 0 0
0 0 0
0 0 0
0 0 0
0 0 0
0 0 0
0 0 0
0 0 0
0 0 0
0 0 0
0 0 0
0 0 0
0 0 0
0 0 0
0 0 0
0 0 0
0 0 0
0 0 0
0 0 0
0 0 0
0 0 0
0 0 0
0 0 0
0 0 0
0 0 0
0 0 0
0 0 0
0 0 0
0 0 0
0 0 0
0 0 0
0 0 0
0 0 0
0 0 0
0 0 0
0 0 0
0 0 0
0 0 0
0 0 0
0 0 0
0 0 0
0 0 0
0 0 0
0 0 0
0 0 0
0 0 0
0 0 0
0 0 0
0 0 0
0 0 0
0 0 0
0 0 0
0 0 0
0 0 0
0 0 0
0 0 0
0 0 0
0 0 0
0 0 0
0 0 0
0 0 0
0 0 0
0 0 0
0 0 0
0 0 0
0 0 0
0 0 0
0 0 0
0 0 0
0 0 0
0 0 0
0 0 0
0 0 0
0 0 0
0 0 0
0 0 0
0 0 0
0 0 0
0 0 0
0 0 0
0 0 0
0 0 0
0 0 0
0 0 0
0 0 0
0 0 0
0 0 0
0 0 0
0 0 0
0 0 0
0 0 0
0 0 0
0 0 0
0 0 0
0 0 0
0 0 0
0 0 0
0 0 0
0 0 0
0 0 0
0 0 0
0 0 0
0 0 0
0 0 0
0 0 0
0 0 0
0 0 0
0 0 0
0 0 0
0 0 0
0 0 0
0 0 0
0 0 0
0 0 0
0 0 0
0 0 0
0 0 0
0 0 0
0 0 0
0 0 0
0 0 0
0 0 0
0 0 0
0 0 0
0 0 0
0 0 0
0 0 0
0 0 0
0 0 0
0 0 0
0 0 0
0 0 0
0 0 0
0 0 0
0 0 0
0 0 0
0 0 0
0 0 0
0 0 0
0 0 0
0 0 0
0 0 0
0 0 0
0 0 0
0 0 0
0 0 0
0 0 0
0 0 0
0 0 0
0 0 0
0 0 0
0 0 0
0 0 0
0 0 0
0 0 0
0 0 0
0 0 0
0 0 0
0 0 0
0 0 0
0 0 0
0 0 0
0 0 0
0 0 0
0 0 0
0 0 0
0 0 0
0 0 0
0 0 0
0 0 0
0 0 0
0 0 0
0 0 0
0 0 0
0 0 0
0 0 0
0 0 0
0 0 0
0 0 0
0 0 0
0 0 0
0 0 0
0 0 0
0 0 0
0 0 0
0 0 0
0 0 0
0 0 0
0 0 0
0 0 0
0 0 0
0 0 0
0 0 0
0 0 0
0 0 0
0 0 0
0 0 0
0 0 0
0 0 0
0 0 0
0 0 0
0 0 0
0 0 0
0 0 0
0 0 0
0 0 0
0 0 0
0 0 0
0 0 0
0 0 0
0 0 0
0 0 0
0 0 0
0 0 0
0 0 0
0 0 0
0 0 0
0 0 0
0 0 0
0 0 0
0 0 0
0 0 0
0 0 0
0 0 0
0 0 0
0 0 0
0 0 0
0 0 0
0 0 0
0 0 0
0 0 0
0 0 0
0 0 0
0 0 0
0 0 0
0 0 0
0 0 0
0 0 0
0 0 0
0 0 0
0 0 0
0 0 0
0 0 0
0 0 0
0 0 0
0 0 0
0 0 0
0 0 0
0 0 0
0 0 0
0 0 0
0 0 0
0 0 0
0 0 0
0 0 0
0 0 0
0 0 0
0 0 0
0 0 0
0 0 0
0 0 0
0 0 0
0 0 0
0 0 0
0 0 0
0 0 0
0 0 0
0 0 0
0 0 0
0 0 0
0 0 0
0 0 0
0 0 0
0 0 0
0 0 0
0 0 0
0 0 0
0 0 0
0 0 0
0 0 0
0 0 0
0 0 0
0 0 0
0 0 0
0 0 0
0 0 0
0 0 0
0 0 0
0 0 0
0 0 0
0 0 0
0 0 0
0 0 0
0 0 0
0 0 0
0 0 0
0 0 0
0 0 0
0 0 0
0 0 0
0 0 0
0 0 0
0 0 0
0 0 0
0 0 0
0 0 0
0 0 0
0 0 0
0 0 0
0 0 0
0 0 0
0 0 0
0 0 0
0 0 0
0 0 0
0 0 0
0 0 0
0 0 0
0 0 0
0 0 0
0 0 0
0 0 0
0 0 0
0 0 0
0 0 0
0 0 0
0 0 0
0 0 0
0 0 0
0 0 0
0 0 0
0 0 0
0 0 0
0 0 0
0 0 0
0 0 0
0 0 0
0 0 0
0 0 0
0 0 0
0 0 0
0 0 0
0 0 0
0 0 0
0 0 0
0 0 0
0 0 0
0 0 0
0 0 0
0 0 0
0 0 0
0 0 0
0 0 0
0 0 0
0 0 0
0 0 0
0 0 0
0 0 0
0 0 0
0 0 0
0 0 0
0 0 0
0 0 0
0 0 0
0 0 0
0 0 0
0 0 0
0 0 0
0 0 0
0 0 0
0 0 0
0 0 0
0 0 0
0 0 0
0 0 0
0 0 0
0 0 0
0 0 0
0 0 0
0 0 0
0 0 0
0 0 0
0 0 0
0 0 0
0 0 0
0 0 0
0 0 0
0 0 0
0 0 0
0 0 0
0 0 0
0 0 0
0 0 0
0 0 0
0 0 0
0 0 0
0 0 0
0 0 0
0 0 0
0 0 0
0 0 0
0 0 0
0 0 0
0 0 0
0 0 0
0 0 0
0 0 0
0 0 0
0 0 0
0 0 0
0 0 0
0 0 0
0 0 0
0 0 0
0 0 0
0 0 0
0 0 0
0 0 0
0 0 0
0 0 0
0 0 0
0 0 0
0 0 0
0 0 0
0 0 0
0 0 0
0 0 0
0 0 0
0 0 0
0 0 0
0 0 0
0 0 0
0 0 0
0 0 0
0 0 0
0 0 0
0 0 0
0 0 0
0 0 0
0 0 0
0 0 0
0 0 0
0 0 0
0 0 0
0 0 0
0 0 0
0 0 0
0 0 0
0 0 0
0 0 0
0 0 0
0 0 0
0 0 0
0 0 0
0 0 0
0 0 0
0 0 0
0 0 0
0 0 0
0 0 0
0 0 0
0 0 0
0 0 0
0 0 0
0 0 0
0 0 0
0 0 0
0 0 0
0 0 0
0 0 0
0 0 0
0 0 0
0 0 0
0 0 0
0 0 0
0 0 0
0 0 0
0 0 0
0 0 0
0 0 0
0 0 0
0 0 0
0 0 0
0 0 0
0 0 0
0 0 0
0 0 0
0 0 0
0 0 0
0 0 0
0 0 0
0 0 0
0 0 0
0 0 0
0 0 0
0 0 0
0 0 0
0 0 0
0 0 0
0 0 0
0 0 0
0 0 0
0 0 0
0 0 0
0 0 0
0 0 0
0 0 0
0 0 0
0 0 0
0 0 0
0 0 0
0 0 0
0 0 0
0 0 0
0 0 0
0 0 0
0 0 0
0 0 0
0 0 0
0 0 0
0 0 0
0 0 0
0 0 0
0 0 0
0 0 0
0 0 0
0 0 0
0 0 0
0 0 0
0 0 0
0 0 0
0 0 0
0 0 0
0 0 0
0 0 0
0 0 0
0 0 0
0 0 0
0 0 0
0 0 0
0 0 0
0 0 0
0 0 0
0 0 0
0 0 0
0 0 0
0 0 0
0 0 0
0 0 0
0 0 0
0 0 0
0 0 0
0 0 0
0 0 0
0 0 0
0 0 0
0 0 0
0 0 0
0 0 0
0 0 0
0 0 0
0 0 0
0 0 0
0 0 0
0 0 0
0 0 0
0 0 0
0 0 0
0 0 0
0 0 0
0 0 0
0 0 0
0 0 0
0 0 0
0 0 0
0 0 0
0 0 0
0 0 0
0 0 0
0 0 0
0 0 0
0 0 0
0 0 0
0 0 0
0 0 0
0 0 0
0 0 0
0 0 0
0 0 0
0 0 0
0 0 0
0 0 0
0 0 0
0 0 0
0 0 0
0 0 0
0 0 0
0 0 0
0 0 0
0 0 0
0 0 0
0 0 0
0 0 0
0 0 0
0 0 0
0 0 0
0 0 0
0 0 0
0 0 0
0 0 0
0 0 0
0 0 0
0 0 0
0 0 0
0 0 0
0 0 0
0 0 0
0 0 0
0 0 0
0 0 0
0 0 0
0 0 0
0 0 0
0 0 0
0 0 0
0 0 0
0 0 0
0 0 0
0 0 0
0 0 0
0 0 0
0 0 0
0 0 0
0 0 0
0 0 0
0 0 0
0 0 0
0 0 0
0 0 0
0 0 0
0 0 0
0 0 0
0 0 0
0 0 0
0 0 0
0 0 0
0 0 0
0 0 0
0 0 0
0 0 0
0 0 0
0 0 0
0 0 0
0 0 0
0 0 0
0 0 0
0 0 0
0 0 0
0 0 0
0 0 0
0 0 0
0 0 0
0 0 0
0 0 0
0 0 0
0 0 0
0 0 0
0 0 0
0 0 0
0 0 0
0 0 0
0 0 0
0 0 0
0 0 0
0 0 0
0 0 0
0 0 0
0 0 0
0 0 0
0 0 0
0 0 0
0 0 0
0 0 0
0 0 0
0 0 0
0 0 0
0 0 0
0 0 0
0 0 0
0 0 0
0 0 0
0 0 0
0 0 0
0 0 0
0 0 0
0 0 0
0 0 0
0 0 0
0 0 0
0 0 0
0 0 0
0 0 0
0 0 0
0 0 0
0 0 0
0 0 0
0 0 0
0 0 0
0 0 0
0 0 0
0 0 0
0 0 0
0 0 0
0 0 0
0 0 0
0 0 0
0 0 0
0 0 0
0 0 0
0 0 0
0 0 0
0 0 0
0 0 0
0 0 0
0 0 0
0 0 0
0 0 0
0 0 0
0 0 0
0 0 0
0 0 0
0 0 0
0 0 0
0 0 0
0 0 0
0 0 0
0 0 0
0 0 0
0 0 0
0 0 0
0 0 0
0 0 0
0 0 0
0 0 0
0 0 0
0 0 0
0 0 0
0 0 0
0 0 0
0 0 0
0 0 0
0 0 0
0 0 0
0 0 0
0 0 0
0 0 0
0 0 0
0 0 0
0 0 0
0 0 0
0 0 0
0 0 0
0 0 0
0 0 0
0 0 0
0 0 0
0 0 0
0 0 0
0 0 0
0 0 0
0 0 0
0 0 0
0 0 0
0 0 0
0 0 0
0 0 0
0 0 0
0 0 0
0 0 0
0 0 0
0 0 0
0 0 0
0 0 0
0 0 0
0 0 0
0 0 0
0 0 0
0 0 0
0 0 0
0 0 0
0 0 0
0 0 0
0 0 0
0 0 0
0 0 0
0 0 0
0 0 0
0 0 0
0 0 0
0 0 0
0 0 0
0 0 0
0 0 0
0 0 0
0 0 0
0 0 0
0 0 0
0 0 0
0 0 0
0 0 0
0 0 0
0 0 0
0 0 0
0 0 0
0 0 0
0 0 0
0 0 0
0 0 0
0 0 0
0 0 0
0 0 0
0 0 0
0 0 0
0 0 0
0 0 0
0 0 0
0 0 0
0 0 0
0 0 0
0 0 0
0 0 0
0 0 0
0 0 0
0 0 0
0 0 0
0 0 0
0 0 0
0 0 0
0 0 0
0 0 0
0 0 0
0 0 0
0 0 0
0 0 0
0 0 0
0 0 0
0 0 0
0 0 0
0 0 0
0 0 0
0 0 0
0 0 0
0 0 0
0 0 0
0 0 0
0 0 0
0 0 0
0 0 0
0 0 0
0 0 0
0 0 0
0 0 0
0 0 0
0 0 0
0 0 0
0 0 0
0 0 0
0 0 0
0 0 0
0 0 0
0 0 0
0 0 0
0 0 0
0 0 0
0 0 0
0 0 0
0 0 0
0 0 0
0 0 0
0 0 0
0 0 0
0 0 0
0 0 0
0 0 0
0 0 0
0 0 0
0 0 0
0 0 0
0 0 0
0 0 0
0 0 0
0 0 0
0 0 0
0 0 0
0 0 0
0 0 0
0 0 0
0 0 0
0 0 0
0 0 0
0 0 0
0 0 0
0 0 0
0 0 0
0 0 0
0 0 0
0 0 0
0 0 0
0 0 0
0 0 0
0 0 0
0 0 0
0 0 0
0 0 0
0 0 0
0 0 0
0 0 0
0 0 0
0 0 0
0 0 0
0 0 0
0 0 0
0 0 0
0 0 0
0 0 0
0 0 0
0 0 0
0 0 0
0 0 0
0 0 0
0 0 0
0 0 0
0 0 0
0 0 0
0 0 0
0 0 0
0 0 0
0 0 0
0 0 0
0 0 0
0 0 0
0 0 0
0 0 0
0 0 0
0 0 0
0 0 0
0 0 0
0 0 0
0 0 0
0 0 0
0 0 0
0 0 0
0 0 0
0 0 0
0 0 0
0 0 0
0 0 0
0 0 0
0 0 0
0 0 0
0 0 0
0 0 0
0 0 0
0 0 0
0 0 0
0 0 0
0 0 0
0 0 0
0 0 0
0 0 0
0 0 0
0 0 0
0 0 0
0 0 0
0 0 0
0 0 0
0 0 0
0 0 0
0 0 0
0 0 0
0 0 0
0 0 0
0 0 0
0 0 0
0 0 0
0 0 0
0 0 0
0 0 0
0 0 0
0 0 0
0 0 0
0 0 0
0 0 0
0 0 0
0 0 0
0 0 0
0 0 0
0 0 0
0 0 0
0 0 0
0 0 0
0 0 0
0 0 0
0 0 0
0 0 0
0 0 0
0 0 0
0 0 0
0 0 0
0 0 0
0 0 0
0 0 0
0 0 0
0 0 0
0 0 0
0 0 0
0 0 0
0 0 0
0 0 0
0 0 0
0 0 0
0 0 0
0 0 0
0 0 0
0 0 0
0 0 0
0 0 0
0 0 0
0 0 0
0 0 0
0 0 0
0 0 0
0 0 0
0 0 0
0 0 0
0 0 0
0 0 0
0 0 0
0 0 0
0 0 0
0 0 0
0 0 0
0 0 0
0 0 0
0 0 0
0 0 0
0 0 0
0 0 0
0 0 0
0 0 0
0 0 0
0 0 0
0 0 0
0 0 0
0 0 0
0 0 0
0 0 0
0 0 0
0 0 0
0 0 0
0 0 0
0 0 0
0 0 0
0 0 0
0 0 0
0 0 0
0 0 0
0 0 0
0 0 0
0 0 0
0 0 0
0 0 0
0 0 0
0 0 0
0 0 0
0 0 0
0 0 0
0 0 0
0 0 0
0 0 0
0 0 0
0 0 0
0 0 0
0 0 0
0 0 0
0 0 0
0 0 0
0 0 0
0 0 0
0 0 0
0 0 0
0 0 0
0 0 0
0 0 0
0 0 0
0 0 0
0 0 0
0 0 0
0 0 0
0 0 0
0 0 0
0 0 0
0 0 0
0 0 0
0 0 0
0 0 0
0 0 0
0 0 0
0 0 0
0 0 0
0 0 0
0 0 0
0 0 0
0 0 0
0 0 0
0 0 0
0 0 0
0 0 0
0 0 0
0 0 0
0 0 0
0 0 0
0 0 0
0 0 0
0 0 0
0 0 0
0 0 0
0 0 0
0 0 0
0 0 0
0 0 0
0 0 0
0 0 0
0 0 0
0 0 0
0 0 0
0 0 0
0 0 0
0 0 0
0 0 0
0 0 0
0 0 0
0 0 0
0 0 0
0 0 0
0 0 0
0 0 0
0 0 0
0 0 0
0 0 0
0 0 0
0 0 0
0 0 0
0 0 0
0 0 0
0 0 0
0 0 0
0 0 0
0 0 0
0 0 0
0 0 0
0 0 0
0 0 0
0 0 0
0 0 0
0 0 0
0 0 0
0 0 0
0 0 0
0 0 0
0 0 0
0 0 0
0 0 0
0 0 0
0 0 0
0 0 0
0 0 0
0 0 0
0 0 0
0 0 0
0 0 0
0 0 0
0 0 0
0 0 0
0 0 0
0 0 0
0 0 0
0 0 0
0 0 0
0 0 0
0 0 0
0 0 0
0 0 0
0 0 0
0 0 0
0 0 0
0 0 0
0 0 0
0 0 0
0 0 0
0 0 0
0 0 0
0 0 0
0 0 0
0 0 0
0 0 0
0 0 0
0 0 0
0 0 0
0 0 0
0 0 0
0 0 0
0 0 0
0 0 0
0 0 0
0 0 0
0 0 0
0 0 0
0 0 0
0 0 0
0 0 0
0 0 0
0 0 0
0 0 0
0 0 0
0 0 0
0 0 0
0 0 0
0 0 0
0 0 0
0 0 0
0 0 0
0 0 0
0 0 0
0 0 0
0 0 0
0 0 0
0 0 0
0 0 0
0 0 0
0 0 0
0 0 0
0 0 0
0 0 0
0 0 0
0 0 0
0 0 0
0 0 0
0 0 0
0 0 0
0 0 0
0 0 0
0 0 0
0 0 0
0 0 0
0 0 0
0 0 0
0 0 0
0 0 0
0 0 0
0 0 0
0 0 0
0 0 0
0 0 0
0 0 0
0 0 0
0 0 0
0 0 0
0 0 0
0 0 0
0 0 0
0 0 0
0 0 0
0 0 0
0 0 0
0 0 0
0 0 0
0 0 0
0 0 0
0 0 0
0 0 0
0 0 0
0 0 0
0 0 0
0 0 0
0 0 0
0 0 0
0 0 0
0 0 0
0 0 0
0 0 0
0 0 0
0 0 0
0 0 0
0 0 0
0 0 0
0 0 0
0 0 0
0 0 0
0 0 0
0 0 0
0 0 0
0 0 0
0 0 0
0 0 0
0 0 0
0 0 0
0 0 0
0 0 0
0 0 0
0 0 0
0 0 0
0 0 0
0 0 0
0 0 0
0 0 0
0 0 0
0 0 0
0 0 0
0 0 0
0 0 0
0 0 0
0 0 0
0 0 0
0 0 0
0 0 0
0 0 0
0 0 0
0 0 0
0 0 0
0 0 0
0 0 0
0 0 0
0 0 0
0 0 0
0 0 0
0 0 0
0 0 0
0 0 0
0 0 0
0 0 0
0 0 0
0 0 0
0 0 0
0 0 0
0 0 0
0 0 0
0 0 0
0 0 0
0 0 0
0 0 0
0 0 0
0 0 0
0 0 0
0 0 0
0 0 0
0 0 0
0 0 0
0 0 0
0 0 0
0 0 0
0 0 0
0 0 0
0 0 0
0 0 0
0 0 0
0 0 0
0 0 0
0 0 0
0 0 0
0 0 0
0 0 0
0 0 0
0 0 0
0 0 0
0 0 0
0 0 0
0 0 0
0 0 0
0 0 0
0 0 0
0 0 0
0 0 0
0 0 0
0 0 0
0 0 0
0 0 0
0 0 0
0 0 0
0 0 0
0 0 0
0 0 0
0 0 0
0 0 0
0 0 0
0 0 0
0 0 0
0 0 0
0 0 0
0 0 0
0 0 0
0 0 0
0 0 0
0 0 0
0 0 0
0 0 0
0 0 0
0 0 0
0 0 0
0 0 0
0 0 0
0 0 0
0 0 0
0 0 0
0 0 0
0 0 0
0 0 0
0 0 0
0 0 0
0 0 0
0 0 0
0 0 0
0 0 0
0 0 0
0 0 0
0 0 0
0 0 0
0 0 0
0 0 0
0 0 0
0 0 0
0 0 0
0 0 0
0 0 0
0 0 0
0 0 0
0 0 0
0 0 0
0 0 0
0 0 0
0 0 0
0 0 0
0 0 0
0 0 0
0 0 0
0 0 0
0 0 0
0 0 0
0 0 0
0 0 0
0 0 0
0 0 0
0 0 0
0 0 0
0 0 0
0 0 0
0 0 0
0 0 0
0 0 0
0 0 0
0 0 0
0 0 0
0 0 0
0 0 0
0 0 0
0 0 0
0 0 0
0 0 0
0 0 0
0 0 0
0 0 0
0 0 0
0 0 0
0 0 0
0 0 0
0 0 0
0 0 0
0 0 0
0 0 0
0 0 0
0 0 0
0 0 0
0 0 0
0 0 0
0 0 0
0 0 0
0 0 0
0 0 0
0 0 0
0 0 0
0 0 0
0 0 0
0 0 0
0 0 0
0 0 0
0 0 0
0 0 0
0 0 0
0 0 0
0 0 0
0 0 0
0 0 0
0 0 0
0 0 0
0 0 0
0 0 0
0 0 0
0 0 0
0 0 0
0 0 0
0 0 0
0 0 0
0 0 0
0 0 0
0 0 0
0 0 0
0 0 0
0 0 0
0 0 0
0 0 0
0 0 0
0 0 0
0 0 0
0 0 0
0 0 0
0 0 0
0 0 0
0 0 0
0 0 0
0 0 0
0 0 0
0 0 0
0 0 0
0 0 0
0 0 0
0 0 0
0 0 0
0 0 0
0 0 0
0 0 0
0 0 0
0 0 0
0 0 0
0 0 0
0 0 0
0 0 0
0 0 0
0 0 0
0 0 0
0 0 0
0 0 0
0 0 0
0 0 0
0 0 0
0 0 0
0 0 0
0 0 0
0 0 0
0 0 0
0 0 0
0 0 0
0 0 0
0 0 0
0 0 0
0 0 0
0 0 0
0 0 0
0 0 0
0 0 0
0 0 0
0 0 0
0 0 0
0 0 0
0 0 0
0 0 0
0 0 0
0 0 0
0 0 0
0 0 0
0 0 0
0 0 0
0 0 0
0 0 0
0 0 0
0 0 0
0 0 0
0 0 0
0 0 0
0 0 0
0 0 0
0 0 0
0 0 0
0 0 0
0 0 0
0 0 0
0 0 0
0 0 0
0 0 0
0 0 0
0 0 0
0 0 0
0 0 0
0 0 0
0 0 0
0 0 0
0 0 0
0 0 0
0 0 0
0 0 0
0 0 0
0 0 0
0 0 0
0 0 0
0 0 0
0 0 0
0 0 0
0 0 0
0 0 0
0 0 0
0 0 0
0 0 0
0 0 0
0 0 0
0 0 0
0 0 0
0 0 0
0 0 0
0 0 0
0 0 0
0 0 0
0 0 0
0 0 0
0 0 0
0 0 0
0 0 0
0 0 0
0 0 0
0 0 0
0 0 0
0 0 0
0 0 0
0 0 0
0 0 0
0 0 0
0 0 0
0 0 0
0 0 0
0 0 0
0 0 0
0 0 0
0 0 0
0 0 0
0 0 0
0 0 0
0 0 0
0 0 0
0 0 0
0 0 0
0 0 0
0 0 0
0 0 0
0 0 0
0 0 0
0 0 0
0 0 0
0 0 0
0 0 0
0 0 0
0 0 0
0 0 0
0 0 0
0 0 0
0 0 0
0 0 0
0 0 0
0 0 0
0 0 0
0 0 0
0 0 0
0 0 0
0 0 0
0 0 0
0 0 0
0 0 0
0 0 0
0 0 0
0 0 0
0 0 0
0 0 0
0 0 0
0 0 0
0 0 0
0 0 0
0 0 0
0 0 0
0 0 0
0 0 0
0 0 0
0 0 0
0 0 0
0 0 0
0 0 0
0 0 0
0 0 0
0 0 0
0 0 0
0 0 0
0 0 0
0 0 0
0 0 0
0 0 0
0 0 0
0 0 0
0 0 0
0 0 0
0 0 0
0 0 0
0 0 0
0 0 0
0 0 0
0 0 0
0 0 0
0 0 0
0 0 0
0 0 0
0 0 0
0 0 0
0 0 0
0 0 0
0 0 0
0 0 0
0 0 0
0 0 0
0 0 0
0 0 0
0 0 0
0 0 0
0 0 0
0 0 0
0 0 0
0 0 0
0 0 0
0 0 0
0 0 0
0 0 0
0 0 0
0 0 0
0 0 0
0 0 0
0 0 0
0 0 0
0 0 0
0 0 0
0 0 0
0 0 0
0 0 0
0 0 0
0 0 0
0 0 0
0 0 0
0 0 0
0 0 0
0 0 0
0 0 0
0 0 0
0 0 0
0 0 0
0 0 0
0 0 0
0 0 0
0 0 0
0 0 0
0 0 0
0 0 0
0 0 0
0 0 0
0 0 0
0 0 0
0 0 0
0 0 0
0 0 0
0 0 0
0 0 0
0 0 0
0 0 0
0 0 0
0 0 0
0 0 0
0 0 0
0 0 0
0 0 0
0 0 0
0 0 0
0 0 0
0 0 0
0 0 0
0 0 0
0 0 0
0 0 0
0 0 0
0 0 0
0 0 0
0 0 0
0 0 0
0 0 0
0 0 0
0 0 0
0 0 0
0 0 0
0 0 0
0 0 0
0 0 0
0 0 0
0 0 0
0 0 0
0 0 0
0 0 0
0 0 0
0 0 0
0 0 0
0 0 0
0 0 0
0 0 0
0 0 0
0 0 0
0 0 0
0 0 0
0 0 0
0 0 0
0 0 0
0 0 0
0 0 0
0 0 0
0 0 0
0 0 0
0 0 0
0 0 0
0 0 0
0 0 0
0 0 0
0 0 0
0 0 0
0 0 0
0 0 0
0 0 0
0 0 0
0 0 0
0 0 0
0 0 0
0 0 0
0 0 0
0 0 0
0 0 0
0 0 0
0 0 0
0 0 0
0 0 0
0 0 0
0 0 0
0 0 0
0 0 0
0 0 0
0 0 0
0 0 0
0 0 0
0 0 0
0 0 0
0 0 0
0 0 0
0 0 0
0 0 0
0 0 0
0 0 0
0 0 0
0 0 0
0 0 0
0 0 0
0 0 0
0 0 0
0 0 0
0 0 0
0 0 0
0 0 0
0 0 0
0 0 0
0 0 0
0 0 0
0 0 0
0 0 0
0 0 0
0 0 0
0 0 0
0 0 0
0 0 0
0 0 0
0 0 0
0 0 0
0 0 0
0 0 0
0 0 0
0 0 0
0 0 0
0 0 0
0 0 0
0 0 0
0 0 0
0 0 0
0 0 0
0 0 0
0 0 0
0 0 0
0 0 0
0 0 0
0 0 0
0 0 0
0 0 0
0 0 0
0 0 0
0 0 0
0 0 0
0 0 0
0 0 0
0 0 0
0 0 0
0 0 0
0 0 0
0 0 0
0 0 0
0 0 0
0 0 0
0 0 0
0 0 0
0 0 0
0 0 0
0 0 0
0 0 0
0 0 0
0 0 0
0 0 0
0 0 0
0 0 0
0 0 0
0 0 0
0 0 0
0 0 0
0 0 0
0 0 0
0 0 0
0 0 0
0 0 0
0 0 0
0 0 0
0 0 0
0 0 0
0 0 0
0 0 0
0 0 0
0 0 0
0 0 0
0 0 0
0 0 0
0 0 0
0 0 0
0 0 0
0 0 0
0 0 0
0 0 0
0 0 0
0 0 0
0 0 0
0 0 0
0 0 0
0 0 0
0 0 0
0 0 0
0 0 0
0 0 0
0 0 0
0 0 0
0 0 0
0 0 0
0 0 0
0 0 0
0 0 0
0 0 0
0 0 0
0 0 0
0 0 0
0 0 0
0 0 0
0 0 0
0 0 0
0 0 0
0 0 0
0 0 0
0 0 0
0 0 0
0 0 0
0 0 0
0 0 0
0 0 0
0 0 0
0 0 0
0 0 0
0 0 0
0 0 0
0 0 0
0 0 0
0 0 0
0 0 0
0 0 0
0 0 0
0 0 0
0 0 0
0 0 0
0 0 0
0 0 0
0 0 0
0 0 0
0 0 0
0 0 0
0 0 0
0 0 0
0 0 0
0 0 0
0 0 0
0 0 0
0 0 0
0 0 0
0 0 0
0 0 0
0 0 0
0 0 0
0 0 0
0 0 0
0 0 0
0 0 0
0 0 0
0 0 0
0 0 0
0 0 0
0 0 0
0 0 0
0 0 0
0 0 0
0 0 0
0 0 0
0 0 0
0 0 0
0 0 0
0 0 0
0 0 0
0 0 0
0 0 0
0 0 0
0 0 0
0 0 0
0 0 0
0 0 0
0 0 0
0 0 0
0 0 0
0 0 0
0 0 0
0 0 0
0 0 0
0 0 0
0 0 0
0 0 0
0 0 0
0 0 0
0 0 0
0 0 0
0 0 0
0 0 0
0 0 0
0 0 0
0 0 0
0 0 0
0 0 0
0 0 0
0 0 0
0 0 0
0 0 0
0 0 0
0 0 0
0 0 0
0 0 0
0 0 0
0 0 0
0 0 0
0 0 0
0 0 0
0 0 0
0 0 0
0 0 0
0 0 0
0 0 0
0 0 0
0 0 0
0 0 0
0 0 0
0 0 0
0 0 0
0 0 0
0 0 0
0 0 0
0 0 0
0 0 0
0 0 0
0 0 0
0 0 0
0 0 0
0 0 0
0 0 0
0 0 0
0 0 0
0 0 0
0 0 0
0 0 0
0 0 0
0 0 0
0 0 0
0 0 0
0 0 0
0 0 0
0 0 0
0 0 0
0 0 0
0 0 0
0 0 0
0 0 0
0 0 0
0 0 0
0 0 0
0 0 0
0 0 0
0 0 0
0 0 0
0 0 0
0 0 0
0 0 0
0 0 0
0 0 0
0 0 0
0 0 0
0 0 0
0 0 0
0 0 0
0 0 0
0 0 0
0 0 0
0 0 0
0 0 0
0 0 0
0 0 0
0 0 0
0 0 0
0 0 0
0 0 0
0 0 0
0 0 0
0 0 0
0 0 0
0 0 0
0 0 0
0 0 0
0 0 0
0 0 0
0 0 0
0 0 0
0 0 0
0 0 0
0 0 0
0 0 0
0 0 0
0 0 0
0 0 0
0 0 0
0 0 0
0 0 0
0 0 0
0 0 0
0 0 0
0 0 0
0 0 0
0 0 0
0 0 0
0 0 0
0 0 0
0 0 0
0 0 0
0 0 0
0 0 0
0 0 0
0 0 0
0 0 0
0 0 0
0 0 0
0 0 0
0 0 0
0 0 0
0 0 0
0 0 0
0 0 0
0 0 0
0 0 0
0 0 0
0 0 0
0 0 0
0 0 0
0 0 0
0 0 0
0 0 0
0 0 0
0 0 0
0 0 0
0 0 0
0 0 0
0 0 0
0 0 0
0 0 0
0 0 0
0 0 0
0 0 0
0 0 0
0 0 0
0 0 0
0 0 0
0 0 0
0 0 0
0 0 0
0 0 0
0 0 0
0 0 0
0 0 0
0 0 0
0 0 0
0 0 0
0 0 0
0 0 0
0 0 0
0 0 0
0 0 0
0 0 0
0 0 0
0 0 0
0 0 0
0 0 0
0 0 0
0 0 0
0 0 0
0 0 0
0 0 0
0 0 0
0 0 0
0 0 0
0 0 0
0 0 0
0 0 0
0 0 0
0 0 0
0 0 0
0 0 0
0 0 0
0 0 0
0 0 0
0 0 0
0 0 0
0 0 0
0 0 0
0 0 0
0 0 0
0 0 0
0 0 0
0 0 0
0 0 0
0 0 0
0 0 0
0 0 0
0 0 0
0 0 0
0 0 0
0 0 0
0 0 0
0 0 0
0 0 0
0 0 0
0 0 0
0 0 0
0 0 0
0 0 0
0 0 0
0 0 0
0 0 0
0 0 0
0 0 0
0 0 0
0 0 0
0 0 0
0 0 0
0 0 0
0 0 0
0 0 0
0 0 0
0 0 0
0 0 0
0 0 0
0 0 0
0 0 0
0 0 0
0 0 0
0 0 0
0 0 0
0 0 0
0 0 0
0 0 0
0 0 0
0 0 0
0 0 0
0 0 0
0 0 0
0 0 0
0 0 0
0 0 0
0 0 0
0 0 0
0 0 0
0 0 0
0 0 0
0 0 0
0 0 0
0 0 0
0 0 0
0 0 0
0 0 0
0 0 0
0 0 0
0 0 0
0 0 0
0 0 0
0 0 0
0 0 0
0 0 0
0 0 0
0 0 0
0 0 0
0 0 0
0 0 0
0 0 0
0 0 0
0 0 0
0 0 0
0 0 0
0 0 0
0 0 0
0 0 0
0 0 0
0 0 0
0 0 0
0 0 0
0 0 0
0 0 0
0 0 0
0 0 0
0 0 0
0 0 0
0 0 0
0 0 0
0 0 0
0 0 0
0 0 0
0 0 0
0 0 0
0 0 0
0 0 0
0 0 0
0 0 0
0 0 0
0 0 0
0 0 0
0 0 0
0 0 0
0 0 0
0 0 0
0 0 0
0 0 0
0 0 0
0 0 0
0 0 0
0 0 0
0 0 0
0 0 0
0 0 0
0 0 0
0 0 0
0 0 0
0 0 0
0 0 0
0 0 0
0 0 0
0 0 0
0 0 0
0 0 0
0 0 0
0 0 0
0 0 0
0 0 0
0 0 0
0 0 0
0 0 0
0 0 0
0 0 0
0 0 0
0 0 0
0 0 0
0 0 0
0 0 0
0 0 0
0 0 0
0 0 0
0 0 0
0 0 0
0 0 0
0 0 0
0 0 0
0 0 0
0 0 0
0 0 0
0 0 0
0 0 0
0 0 0
0 0 0
0 0 0
0 0 0
0 0 0
0 0 0
0 0 0
0 0 0
0 0 0
0 0 0
0 0 0
0 0 0
0 0 0
0 0 0
0 0 0
0 0 0
0 0 0
0 0 0
0 0 0
0 0 0
0 0 0
0 0 0
0 0 0
0 0 0
0 0 0
0 0 0
0 0 0
0 0 0
0 0 0
0 0 0
0 0 0
0 0 0
0 0 0
0 0 0
0 0 0
0 0 0
0 0 0
0 0 0
0 0 0
0 0 0
0 0 0
0 0 0
0 0 0
0 0 0
0 0 0
0 0 0
0 0 0
0 0 0
0 0 0
0 0 0
0 0 0
0 0 0
0 0 0
0 0 0
0 0 0
0 0 0
0 0 0
0 0 0
0 0 0
0 0 0
0 0 0
0 0 0
0 0 0
0 0 0
0 0 0
0 0 0
0 0 0
0 0 0
0 0 0
0 0 0
0 0 0
0 0 0
0 0 0
0 0 0
0 0 0
0 0 0
0 0 0
0 0 0
0 0 0
0 0 0
0 0 0
0 0 0
0 0 0
0 0 0
0 0 0
0 0 0
0 0 0
0 0 0
0 0 0
0 0 0
0 0 0
0 0 0
0 0 0
0 0 0
0 0 0
0 0 0
0 0 0
0 0 0
0 0 0
0 0 0
0 0 0
0 0 0
0 0 0
0 0 0
0 0 0
0 0 0
0 0 0
0 0 0
0 0 0
0 0 0
0 0 0
0 0 0
0 0 0
0 0 0
0 0 0
0 0 0
0 0 0
0 0 0
0 0 0
0 0 0
0 0 0
0 0 0
0 0 0
0 0 0
0 0 0
0 0 0
0 0 0
0 0 0
0 0 0
0 0 0
0 0 0
0 0 0
0 0 0
0 0 0
0 0 0
0 0 0
0 0 0
0 0 0
0 0 0
0 0 0
0 0 0
0 0 0
0 0 0
0 0 0
0 0 0
0 0 0
0 0 0
0 0 0
0 0 0
0 0 0
0 0 0
0 0 0
0 0 0
0 0 0
0 0 0
0 0 0
0 0 0
0 0 0
0 0 0
0 0 0
0 0 0
0 0 0
0 0 0
0 0 0
0 0 0
0 0 0
0 0 0
0 0 0
0 0 0
0 0 0
0 0 0
0 0 0
0 0 0
0 0 0
0 0 0
0 0 0
0 0 0
0 0 0
0 0 0
0 0 0
0 0 0
0 0 0
0 0 0
0 0 0
0 0 0
0 0 0
0 0 0
0 0 0
0 0 0
0 0 0
0 0 0
0 0 0
0 0 0
0 0 0
0 0 0
0 0 0
0 0 0
0 0 0
0 0 0
0 0 0
0 0 0
0 0 0
0 0 0
0 0 0
0 0 0
0 0 0
0 0 0
0 0 0
0 0 0
0 0 0
0 0 0
0 0 0
0 0 0
0 0 0
0 0 0
0 0 0
0 0 0
0 0 0
0 0 0
0 0 0
0 0 0
0 0 0
0 0 0
0 0 0
0 0 0
0 0 0
0 0 0
0 0 0
0 0 0
0 0 0
0 0 0
0 0 0
0 0 0
0 0 0
0 0 0
0 0 0
0 0 0
0 0 0
0 0 0
0 0 0
0 0 0
0 0 0
0 0 0
0 0 0
0 0 0
0 0 0
0 0 0
0 0 0
0 0 0
0 0 0
0 0 0
0 0 0
0 0 0
0 0 0
0 0 0
0 0 0
0 0 0
0 0 0
0 0 0
0 0 0
0 0 0
0 0 0
0 0 0
0 0 0
0 0 0
0 0 0
0 0 0
0 0 0
0 0 0
0 0 0
0 0 0
0 0 0
0 0 0
0 0 0
0 0 0
0 0 0
0 0 0
0 0 0
0 0 0
0 0 0
0 0 0
0 0 0
0 0 0
0 0 0
0 0 0
0 0 0
0 0 0
0 0 0
0 0 0
0 0 0
0 0 0
0 0 0
0 0 0
0 0 0
0 0 0
0 0 0
0 0 0
0 0 0
0 0 0
0 0 0
0 0 0
0 0 0
0 0 0
0 0 0
0 0 0
0 0 0
0 0 0
0 0 0
0 0 0
0 0 0
0 0 0
0 0 0
0 0 0
0 0 0
0 0 0
0 0 0
0 0 0
0 0 0
0 0 0
0 0 0
0 0 0
0 0 0
0 0 0
0 0 0
0 0 0
0 0 0
0 0 0
0 0 0
0 0 0
0 0 0
0 0 0
0 0 0
0 0 0
0 0 0
0 0 0
0 0 0
0 0 0
0 0 0
0 0 0
0 0 0
0 0 0
0 0 0
0 0 0
0 0 0
0 0 0
0 0 0
0 0 0
0 0 0
0 0 0
0 0 0
0 0 0
0 0 0
0 0 0
0 0 0
0 0 0
0 0 0
0 0 0
0 0 0
0 0 0
0 0 0
0 0 0
0 0 0
0 0 0
0 0 0
0 0 0
0 0 0
0 0 0
0 0 0
0 0 0
0 0 0
0 0 0
0 0 0
0 0 0
0 0 0
0 0 0
0 0 0
0 0 0
0 0 0
0 0 0
0 0 0
0 0 0
0 0 0
0 0 0
0 0 0
0 0 0
0 0 0
0 0 0
0 0 0
0 0 0
0 0 0
0 0 0
0 0 0
0 0 0
0 0 0
0 0 0
0 0 0
0 0 0
0 0 0
0 0 0
0 0 0
0 0 0
0 0 0
0 0 0
0 0 0
0 0 0
0 0 0
0 0 0
0 0 0
0 0 0
0 0 0
0 0 0
0 0 0
0 0 0
0 0 0
0 0 0
0 0 0
0 0 0
0 0 0
0 0 0
0 0 0
0 0 0
0 0 0
0 0 0
0 0 0
0 0 0
0 0 0
0 0 0
0 0 0
0 0 0
0 0 0
0 0 0
0 0 0
0 0 0
0 0 0
0 0 0
0 0 0
0 0 0
0 0 0
0 0 0
0 0 0
0 0 0
0 0 0
0 0 0
0 0 0
0 0 0
0 0 0
0 0 0
0 0 0
0 0 0
0 0 0
0 0 0
0 0 0
0 0 0
0 0 0
0 0 0
0 0 0
0 0 0
0 0 0
0 0 0
0 0 0
0 0 0
0 0 0
0 0 0
0 0 0
0 0 0
0 0 0
0 0 0
0 0 0
0 0 0
0 0 0
0 0 0
0 0 0
0 0 0
0 0 0
0 0 0
0 0 0
0 0 0
0 0 0
0 0 0
0 0 0
0 0 0
0 0 0
0 0 0
0 0 0
0 0 0
0 0 0
0 0 0
0 0 0
0 0 0
0 0 0
0 0 0
0 0 0
0 0 0
0 0 0
0 0 0
0 0 0
0 0 0
0 0 0
0 0 0
0 0 0
0 0 0
0 0 0
0 0 0
0 0 0
0 0 0
0 0 0
0 0 0
0 0 0
0 0 0
0 0 0
0 0 0
0 0 0
0 0 0
0 0 0
0 0 0
0 0 0
0 0 0
0 0 0
0 0 0
0 0 0
0 0 0
0 0 0
0 0 0
0 0 0
0 0 0
0 0 0
0 0 0
0 0 0
0 0 0
0 0 0
0 0 0
0 0 0
0 0 0
0 0 0
0 0 0
0 0 0
0 0 0
0 0 0
0 0 0
0 0 0
0 0 0
0 0 0
0 0 0
0 0 0
0 0 0
0 0 0
0 0 0
0 0 0
0 0 0
0 0 0
0 0 0
0 0 0
0 0 0
0 0 0
0 0 0
0 0 0
0 0 0
0 0 0
0 0 0
0 0 0
0 0 0
0 0 0
0 0 0
0 0 0
0 0 0
0 0 0
0 0 0
0 0 0
0 0 0
0 0 0
0 0 0
0 0 0
0 0 0
0 0 0
0 0 0
0 0 0
0 0 0
0 0 0
0 0 0
0 0 0
0 0 0
0 0 0
0 0 0
0 0 0
0 0 0
0 0 0
0 0 0
0 0 0
0 0 0
0 0 0
0 0 0
0 0 0
0 0 0
0 0 0
0 0 0
0 0 0
0 0 0
0 0 0
0 0 0
0 0 0
0 0 0
0 0 0
0 0 0
0 0 0
0 0 0
0 0 0
0 0 0
0 0 0
0 0 0
0 0 0
0 0 0
0 0 0
0 0 0
0 0 0
0 0 0
0 0 0
0 0 0
0 0 0
0 0 0
0 0 0
0 0 0
0 0 0
0 0 0
0 0 0
0 0 0
0 0 0
0 0 0
0 0 0
0 0 0
0 0 0
0 0 0
0 0 0
0 0 0
0 0 0
0 0 0
0 0 0
0 0 0
0 0 0
0 0 0
0 0 0
0 0 0
0 0 0
0 0 0
0 0 0
0 0 0
0 0 0
0 0 0
0 0 0
0 0 0
0 0 0
0 0 0
0 0 0
0 0 0
0 0 0
0 0 0
0 0 0
0 0 0
0 0 0
0 0 0
0 0 0
0 0 0
0 0 0
0 0 0
0 0 0
0 0 0
0 0 0
0 0 0
0 0 0
0 0 0
0 0 0
0 0 0
0 0 0
0 0 0
0 0 0
0 0 0
0 0 0
0 0 0
0 0 0
0 0 0
0 0 0
0 0 0
0 0 0
0 0 0
0 0 0
0 0 0
0 0 0
0 0 0
0 0 0
0 0 0
0 0 0
0 0 0
0 0 0
0 0 0
0 0 0
0 0 0
0 0 0
0 0 0
0 0 0
0 0 0
0 0 0
0 0 0
0 0 0
0 0 0
0 0 0
0 0 0
0 0 0
0 0 0
0 0 0
0 0 0
0 0 0
0 0 0
0 0 0
0 0 0
0 0 0
0 0 0
0 0 0
0 0 0
0 0 0
0 0 0
0 0 0
0 0 0
0 0 0
0 0 0
0 0 0
0 0 0
0 0 0
0 0 0
0 0 0
0 0 0
0 0 0
0 0 0
0 0 0
0 0 0
0 0 0
0 0 0
0 0 0
0 0 0
0 0 0
0 0 0
0 0 0
0 0 0
0 0 0
0 0 0
0 0 0
0 0 0
0 0 0
0 0 0
0 0 0
0 0 0
0 0 0
0 0 0
0 0 0
0 0 0
0 0 0
0 0 0
0 0 0
0 0 0
0 0 0
0 0 0
0 0 0
0 0 0
0 0 0
0 0 0
0 0 0
0 0 0
0 0 0
0 0 0
0 0 0
0 0 0
0 0 0
0 0 0
0 0 0
0 0 0
0 0 0
0 0 0
0 0 0
0 0 0
0 0 0
0 0 0
0 0 0
0 0 0
0 0 0
0 0 0
0 0 0
0 0 0
0 0 0
0 0 0
0 0 0
0 0 0
0 0 0
0 0 0
0 0 0
0 0 0
0 0 0
0 0 0
0 0 0
0 0 0
0 0 0
0 0 0
0 0 0
0 0 0
0 0 0
0 0 0
0 0 0
0 0 0
0 0 0
0 0 0
0 0 0
0 0 0
0 0 0
0 0 0
0 0 0
0 0 0
0 0 0
0 0 0
0 0 0
0 0 0
0 0 0
0 0 0
0 0 0
0 0 0
0 0 0
0 0 0
0 0 0
0 0 0
0 0 0
0 0 0
0 0 0
0 0 0
0 0 0
0 0 0
0 0 0
0 0 0
0 0 0
0 0 0
0 0 0
0 0 0
0 0 0
0 0 0
0 0 0
0 0 0
0 0 0
0 0 0
0 0 0
0 0 0
0 0 0
0 0 0
0 0 0
0 0 0
0 0 0
0 0 0
0 0 0
0 0 0
0 0 0
0 0 0
0 0 0
0 0 0
0 0 0
0 0 0
0 0 0
0 0 0
0 0 0
0 0 0
0 0 0
0 0 0
0 0 0
0 0 0
0 0 0
0 0 0
0 0 0
0 0 0
0 0 0
0 0 0
0 0 0
0 0 0
0 0 0
0 0 0
0 0 0
0 0 0
0 0 0
0 0 0
0 0 0
0 0 0
0 0 0
0 0 0
0 0 0
0 0 0
0 0 0
0 0 0
0 0 0
0 0 0
0 0 0
0 0 0
0 0 0
0 0 0
0 0 0
0 0 0
0 0 0
0 0 0
0 0 0
0 0 0
0 0 0
0 0 0
0 0 0
0 0 0
0 0 0
0 0 0
0 0 0
0 0 0
0 0 0
0 0 0
0 0 0
0 0 0
0 0 0
0 0 0
0 0 0
0 0 0
0 0 0
0 0 0
0 0 0
0 0 0
0 0 0
0 0 0
0 0 0
0 0 0
0 0 0
0 0 0
0 0 0
0 0 0
0 0 0
0 0 0
0 0 0
0 0 0
0 0 0
0 0 0
0 0 0
0 0 0
0 0 0
0 0 0
0 0 0
0 0 0
0 0 0
0 0 0
0 0 0
0 0 0
0 0 0
0 0 0
0 0 0
0 0 0
0 0 0
0 0 0
0 0 0
0 0 0
0 0 0
0 0 0
0 0 0
0 0 0
0 0 0
0 0 0
0 0 0
0 0 0
0 0 0
0 0 0
0 0 0
0 0 0
0 0 0
0 0 0
0 0 0
0 0 0
0 0 0
0 0 0
0 0 0
0 0 0
0 0 0
0 0 0
0 0 0
0 0 0
0 0 0
0 0 0
0 0 0
0 0 0
0 0 0
0 0 0
0 0 0
0 0 0
0 0 0
0 0 0
0 0 0
0 0 0
0 0 0
0 0 0
0 0 0
0 0 0
0 0 0
0 0 0
0 0 0
0 0 0
0 0 0
0 0 0
0 0 0
0 0 0
0 0 0
0 0 0
0 0 0
0 0 0
0 0 0
0 0 0
0 0 0
0 0 0
0 0 0
0 0 0
0 0 0
0 0 0
0 0 0
0 0 0
0 0 0
0 0 0
0 0 0
0 0 0
0 0 0
0 0 0
0 0 0
0 0 0
0 0 0
0 0 0
0 0 0
0 0 0
0 0 0
0 0 0
0 0 0
0 0 0
0 0 0
0 0 0
0 0 0
0 0 0
0 0 0
0 0 0
0 0 0
0 0 0
0 0 0
0 0 0
0 0 0
0 0 0
0 0 0
0 0 0
0 0 0
0 0 0
0 0 0
0 0 0
0 0 0
0 0 0
0 0 0
0 0 0
0 0 0
0 0 0
0 0 0
0 0 0
0 0 0
0 0 0
0 0 0
0 0 0
0 0 0
0 0 0
0 0 0
0 0 0
0 0 0
0 0 0
0 0 0
0 0 0
0 0 0
0 0 0
0 0 0
0 0 0
0 0 0
0 0 0
0 0 0
0 0 0
0 0 0
0 0 0
0 0 0
0 0 0
0 0 0
0 0 0
0 0 0
0 0 0
0 0 0
0 0 0
0 0 0
0 0 0
0 0 0
0 0 0
0 0 0
0 0 0
0 0 0
0 0 0
0 0 0
0 0 0
0 0 0
0 0 0
0 0 0
0 0 0
0 0 0
0 0 0
0 0 0
0 0 0
0 0 0
0 0 0
0 0 0
0 0 0
0 0 0
0 0 0
0 0 0
0 0 0
0 0 0
0 0 0
0 0 0
0 0 0
0 0 0
0 0 0
0 0 0
0 0 0
0 0 0
0 0 0
0 0 0
0 0 0
0 0 0
0 0 0
0 0 0
0 0 0
0 0 0
0 0 0
0 0 0
0 0 0
0 0 0
0 0 0
0 0 0
0 0 0
0 0 0
0 0 0
0 0 0
0 0 0
0 0 0
0 0 0
0 0 0
0 0 0
0 0 0
0 0 0
0 0 0
0 0 0
0 0 0
0 0 0
0 0 0
0 0 0
0 0 0
0 0 0
0 0 0
0 0 0
0 0 0
0 0 0
0 0 0
0 0 0
0 0 0
0 0 0
0 0 0
0 0 0
0 0 0
0 0 0
0 0 0
0 0 0
0 0 0
0 0 0
0 0 0
0 0 0
0 0 0
0 0 0
0 0 0
0 0 0
0 0 0
0 0 0
0 0 0
0 0 0
0 0 0
0 0 0
0 0 0
0 0 0
0 0 0
0 0 0
0 0 0
0 0 0
0 0 0
0 0 0
0 0 0
0 0 0
0 0 0
0 0 0
0 0 0
0 0 0
0 0 0
0 0 0
0 0 0
0 0 0
0 0 0
0 0 0
0 0 0
0 0 0
0 0 0
0 0 0
0 0 0
0 0 0
0 0 0
0 0 0
0 0 0
0 0 0
0 0 0
0 0 0
0 0 0
0 0 0
0 0 0
0 0 0
0 0 0
0 0 0
0 0 0
0 0 0
0 0 0
0 0 0
0 0 0
0 0 0
0 0 0
0 0 0
0 0 0
0 0 0
0 0 0
0 0 0
0 0 0
0 0 0
0 0 0
0 0 0
0 0 0
0 0 0
0 0 0
0 0 0
0 0 0
0 0 0
0 0 0
0 0 0
0 0 0
0 0 0
0 0 0
0 0 0
0 0 0
0 0 0
0 0 0
0 0 0
0 0 0
0 0 0
0 0 0
0 0 0
0 0 0
0 0 0
0 0 0
0 0 0
0 0 0
0 0 0
0 0 0
0 0 0
0 0 0
0 0 0
0 0 0
0 0 0
0 0 0
0 0 0
0 0 0
0 0 0
0 0 0
0 0 0
0 0 0
0 0 0
0 0 0
0 0 0
0 0 0
0 0 0
0 0 0
0 0 0
0 0 0
0 0 0
0 0 0
0 0 0
0 0 0
0 0 0
0 0 0
0 0 0
0 0 0
0 0 0
0 0 0
0 0 0
0 0 0
0 0 0
0 0 0
0 0 0
0 0 0
0 0 0
0 0 0
0 0 0
0 0 0
0 0 0
0 0 0
0 0 0
0 0 0
0 0 0
0 0 0
0 0 0
0 0 0
0 0 0
0 0 0
0 0 0
0 0 0
0 0 0
0 0 0
0 0 0
0 0 0
0 0 0
0 0 0
0 0 0
0 0 0
0 0 0
0 0 0
0 0 0
0 0 0
0 0 0
0 0 0
0 0 0
0 0 0
0 0 0
0 0 0
0 0 0
0 0 0
0 0 0
0 0 0
0 0 0
0 0 0
0 0 0
0 0 0
0 0 0
0 0 0
0 0 0
0 0 0
0 0 0
0 0 0
0 0 0
0 0 0
0 0 0
0 0 0
0 0 0
0 0 0
0 0 0
0 0 0
0 0 0
0 0 0
0 0 0
0 0 0
0 0 0
0 0 0
0 0 0
0 0 0
0 0 0
0 0 0
0 0 0
0 0 0
0 0 0
0 0 0
0 0 0
0 0 0
0 0 0
0 0 0
0 0 0
0 0 0
0 0 0
0 0 0
0 0 0
0 0 0
0 0 0
0 0 0
0 0 0
0 0 0
0 0 0
0 0 0
0 0 0
0 0 0
0 0 0
0 0 0
0 0 0
0 0 0
0 0 0
0 0 0
0 0 0
0 0 0
0 0 0
0 0 0
0 0 0
0 0 0
0 0 0
0 0 0
0 0 0
0 0 0
0 0 0
0 0 0
0 0 0
0 0 0
0 0 0
0 0 0
0 0 0
0 0 0
0 0 0
0 0 0
0 0 0
0 0 0
0 0 0
0 0 0
0 0 0
0 0 0
0 0 0
0 0 0
0 0 0
0 0 0
0 0 0
0 0 0
0 0 0
0 0 0
0 0 0
0 0 0
0 0 0
0 0 0
0 0 0
0 0 0
0 0 0
0 0 0
0 0 0
0 0 0
0 0 0
0 0 0
0 0 0
0 0 0
0 0 0
0 0 0
0 0 0
0 0 0
0 0 0
0 0 0
0 0 0
0 0 0
0 0 0
0 0 0
0 0 0
0 0 0
0 0 0
0 0 0
0 0 0
0 0 0
0 0 0
0 0 0
0 0 0
0 0 0
0 0 0
0 0 0
0 0 0
0 0 0
0 0 0
0 0 0
0 0 0
0 0 0
0 0 0
0 0 0
0 0 0
0 0 0
0 0 0
0 0 0
0 0 0
0 0 0
0 0 0
0 0 0
0 0 0
0 0 0
0 0 0
0 0 0
0 0 0
0 0 0
0 0 0
0 0 0
0 0 0
0 0 0
0 0 0
0 0 0
0 0 0
0 0 0
0 0 0
0 0 0
0 0 0
0 0 0
0 0 0
0 0 0
0 0 0
0 0 0
0 0 0
0 0 0
0 0 0
0 0 0
0 0 0
0 0 0
0 0 0
0 0 0
0 0 0
0 0 0
0 0 0
0 0 0
0 0 0
0 0 0
0 0 0
0 0 0
0 0 0
0 0 0
0 0 0
0 0 0
0 0 0
0 0 0
0 0 0
0 0 0
0 0 0
0 0 0
0 0 0
0 0 0
0 0 0
0 0 0
0 0 0
0 0 0
0 0 0
0 0 0
0 0 0
0 0 0
0 0 0
0 0 0
0 0 0
0 0 0
0 0 0
0 0 0
0 0 0
0 0 0
0 0 0
0 0 0
0 0 0
0 0 0
0 0 0
0 0 0
0 0 0
0 0 0
0 0 0
0 0 0
0 0 0
0 0 0
0 0 0
0 0 0
0 0 0
0 0 0
0 0 0
0 0 0
0 0 0
0 0 0
0 0 0
0 0 0
0 0 0
0 0 0
0 0 0
0 0 0
0 0 0
0 0 0
0 0 0
0 0 0
0 0 0
0 0 0
0 0 0
0 0 0
0 0 0
0 0 0
0 0 0
0 0 0
0 0 0
0 0 0
0 0 0
0 0 0
0 0 0
0 0 0
0 0 0
0 0 0
0 0 0
0 0 0
0 0 0
0 0 0
0 0 0
0 0 0
0 0 0
0 0 0
0 0 0
0 0 0
0 0 0
0 0 0
0 0 0
0 0 0
0 0 0
0 0 0
0 0 0
0 0 0
0 0 0
0 0 0
0 0 0
0 0 0
0 0 0
0 0 0
0 0 0
0 0 0
0 0 0
0 0 0
0 0 0
0 0 0
0 0 0
0 0 0
0 0 0
0 0 0
0 0 0
0 0 0
0 0 0
0 0 0
0 0 0
0 0 0
0 0 0
0 0 0
0 0 0
0 0 0
0 0 0
0 0 0
0 0 0
0 0 0
0 0 0
0 0 0
0 0 0
0 0 0
0 0 0
0 0 0
0 0 0
0 0 0
0 0 0
0 0 0
0 0 0
0 0 0
0 0 0
0 0 0
0 0 0
0 0 0
0 0 0
0 0 0
0 0 0
0 0 0
0 0 0
0 0 0
0 0 0
0 0 0
0 0 0
0 0 0
0 0 0
0 0 0
0 0 0
0 0 0
0 0 0
0 0 0
0 0 0
0 0 0
0 0 0
0 0 0
0 0 0
0 0 0
0 0 0
0 0 0
0 0 0
0 0 0
0 0 0
0 0 0
0 0 0
0 0 0
0 0 0
0 0 0
0 0 0
0 0 0
0 0 0
0 0 0
0 0 0
0 0 0
0 0 0
0 0 0
0 0 0
0 0 0
0 0 0
0 0 0
0 0 0
0 0 0
0 0 0
0 0 0
0 0 0
0 0 0
0 0 0
0 0 0
0 0 0
0 0 0
0 0 0
0 0 0
0 0 0
0 0 0
0 0 0
0 0 0
0 0 0
0 0 0
0 0 0
0 0 0
0 0 0
0 0 0
0 0 0
0 0 0
0 0 0
0 0 0
0 0 0
0 0 0
0 0 0
0 0 0
0 0 0
0 0 0
0 0 0
0 0 0
0 0 0
0 0 0
0 0 0
0 0 0
0 0 0
0 0 0
0 0 0
0 0 0
0 0 0
0 0 0
0 0 0
0 0 0
0 0 0
0 0 0
0 0 0
0 0 0
0 0 0
0 0 0
0 0 0
0 0 0
0 0 0
0 0 0
0 0 0
0 0 0
0 0 0
0 0 0
0 0 0
0 0 0
0 0 0
0 0 0
0 0 0
0 0 0
0 0 0
0 0 0
0 0 0
0 0 0
0 0 0
0 0 0
0 0 0
0 0 0
0 0 0
0 0 0
0 0 0
0 0 0
0 0 0
0 0 0
0 0 0
0 0 0
0 0 0
0 0 0
0 0 0
0 0 0
0 0 0
0 0 0
0 0 0
0 0 0
0 0 0
0 0 0
0 0 0
0 0 0
0 0 0
0 0 0
0 0 0
0 0 0
0 0 0
0 0 0
0 0 0
0 0 0
0 0 0
0 0 0
0 0 0
0 0 0
0 0 0
0 0 0
0 0 0
0 0 0
0 0 0
0 0 0
0 0 0
0 0 0
0 0 0
0 0 0
0 0 0
0 0 0
0 0 0
0 0 0
0 0 0
0 0 0
0 0 0
0 0 0
0 0 0
0 0 0
0 0 0
0 0 0
0 0 0
0 0 0
0 0 0
0 0 0
0 0 0
0 0 0
0 0 0
0 0 0
0 0 0
0 0 0
0 0 0
0 0 0
0 0 0
0 0 0
0 0 0
0 0 0
0 0 0
0 0 0
0 0 0
0 0 0
0 0 0
0 0 0
0 0 0
0 0 0
0 0 0
0 0 0
0 0 0
0 0 0
0 0 0
0 0 0
0 0 0
0 0 0
0 0 0
0 0 0
0 0 0
0 0 0
0 0 0
0 0 0
0 0 0
0 0 0
0 0 0
0 0 0
0 0 0
0 0 0
0 0 0
0 0 0
0 0 0
0 0 0
0 0 0
0 0 0
0 0 0
0 0 0
0 0 0
0 0 0
0 0 0
0 0 0
0 0 0
0 0 0
0 0 0
0 0 0
0 0 0
0 0 0
0 0 0
0 0 0
0 0 0
0 0 0
0 0 0
0 0 0
0 0 0
0 0 0
0 0 0
0 0 0
0 0 0
0 0 0
0 0 0
0 0 0
0 0 0
0 0 0
0 0 0
0 0 0
0 0 0
0 0 0
0 0 0
0 0 0
0 0 0
0 0 0
0 0 0
0 0 0
0 0 0
0 0 0
0 0 0
0 0 0
0 0 0
0 0 0
0 0 0
0 0 0
0 0 0
0 0 0
0 0 0
0 0 0
0 0 0
0 0 0
0 0 0
0 0 0
0 0 0
0 0 0
0 0 0
0 0 0
0 0 0
0 0 0
0 0 0
0 0 0
0 0 0
0 0 0
0 0 0
0 0 0
0 0 0
0 0 0
0 0 0
0 0 0
0 0 0
0 0 0
0 0 0
0 0 0
0 0 0
0 0 0
0 0 0
0 0 0
0 0 0
0 0 0
0 0 0
0 0 0
0 0 0
0 0 0
0 0 0
0 0 0
0 0 0
0 0 0
0 0 0
0 0 0
0 0 0
0 0 0
0 0 0
0 0 0
0 0 0
0 0 0
0 0 0
0 0 0
0 0 0
0 0 0
0 0 0
0 0 0
0 0 0
0 0 0
0 0 0
0 0 0
0 0 0
0 0 0
0 0 0
0 0 0
0 0 0
0 0 0
0 0 0
0 0 0
0 0 0
0 0 0
0 0 0
0 0 0
0 0 0
0 0 0
0 0 0
0 0 0
0 0 0
0 0 0
0 0 0
0 0 0
0 0 0
0 0 0
0 0 0
0 0 0
0 0 0
0 0 0
0 0 0
0 0 0
0 0 0
0 0 0
0 0 0
0 0 0
0 0 0
0 0 0
0 0 0
0 0 0
0 0 0
0 0 0
0 0 0
0 0 0
0 0 0
0 0 0
0 0 0
0 0 0
0 0 0
0 0 0
0 0 0
0 0 0
0 0 0
0 0 0
0 0 0
0 0 0
0 0 0
0 0 0
0 0 0
0 0 0
0 0 0
0 0 0
0 0 0
0 0 0
0 0 0
0 0 0
0 0 0
0 0 0
0 0 0
0 0 0
0 0 0
0 0 0
0 0 0
0 0 0
0 0 0
0 0 0
0 0 0
0 0 0
0 0 0
0 0 0
0 0 0
0 0 0
0 0 0
0 0 0
0 0 0
0 0 0
0 0 0
0 0 0
0 0 0
0 0 0
0 0 0
0 0 0
0 0 0
0 0 0
0 0 0
0 0 0
0 0 0
0 0 0
0 0 0
0 0 0
0 0 0
0 0 0
0 0 0
0 0 0
0 0 0
0 0 0
0 0 0
0 0 0
0 0 0
0 0 0
0 0 0
0 0 0
0 0 0
0 0 0
0 0 0
0 0 0
0 0 0
0 0 0
0 0 0
0 0 0
0 0 0
0 0 0
0 0 0
0 0 0
0 0 0
0 0 0
0 0 0
0 0 0
0 0 0
0 0 0
0 0 0
0 0 0
0 0 0
0 0 0
0 0 0
0 0 0
0 0 0
0 0 0
0 0 0
0 0 0
0 0 0
0 0 0
0 0 0
0 0 0
0 0 0
0 0 0
0 0 0
0 0 0
0 0 0
0 0 0
0 0 0
0 0 0
0 0 0
0 0 0
0 0 0
0 0 0
0 0 0
0 0 0
0 0 0
0 0 0
0 0 0
0 0 0
0 0 0
0 0 0
0 0 0
0 0 0
0 0 0
0 0 0
0 0 0
0 0 0
0 0 0
0 0 0
0 0 0
0 0 0
0 0 0
0 0 0
0 0 0
0 0 0
0 0 0
0 0 0
0 0 0
0 0 0
0 0 0
0 0 0
0 0 0
0 0 0
0 0 0
0 0 0
0 0 0
0 0 0
0 0 0
0 0 0
0 0 0
0 0 0
0 0 0
0 0 0
0 0 0
0 0 0
0 0 0
0 0 0
0 0 0
0 0 0
0 0 0
0 0 0
0 0 0
0 0 0
0 0 0
0 0 0
0 0 0
0 0 0
0 0 0
0 0 0
0 0 0
0 0 0
0 0 0
0 0 0
0 0 0
0 0 0
0 0 0
0 0 0
0 0 0
0 0 0
0 0 0
0 0 0
0 0 0
0 0 0
0 0 0
0 0 0
0 0 0
0 0 0
0 0 0
0 0 0
0 0 0
0 0 0
0 0 0
0 0 0
0 0 0
0 0 0
0 0 0
0 0 0
0 0 0
0 0 0
0 0 0
0 0 0
0 0 0
0 0 0
0 0 0
0 0 0
0 0 0
0 0 0
0 0 0
0 0 0
0 0 0
0 0 0
0 0 0
0 0 0
0 0 0
0 0 0
0 0 0
0 0 0
0 0 0
0 0 0
0 0 0
0 0 0
0 0 0
0 0 0
0 0 0
0 0 0
0 0 0
0 0 0
0 0 0
0 0 0
0 0 0
0 0 0
0 0 0
0 0 0
0 0 0
0 0 0
0 0 0
0 0 0
0 0 0
0 0 0
0 0 0
0 0 0
0 0 0
0 0 0
0 0 0
0 0 0
0 0 0
0 0 0
0 0 0
0 0 0
0 0 0
0 0 0
0 0 0
0 0 0
0 0 0
0 0 0
0 0 0
0 0 0
0 0 0
0 0 0
0 0 0
0 0 0
0 0 0
0 0 0
0 0 0
0 0 0
0 0 0
0 0 0
0 0 0
0 0 0
0 0 0
0 0 0
0 0 0
0 0 0
0 0 0
0 0 0
0 0 0
0 0 0
0 0 0
0 0 0
0 0 0
0 0 0
0 0 0
0 0 0
0 0 0
0 0 0
0 0 0
0 0 0
0 0 0
0 0 0
0 0 0
0 0 0
0 0 0
0 0 0
0 0 0
0 0 0
0 0 0
0 0 0
0 0 0
0 0 0
0 0 0
0 0 0
0 0 0
0 0 0
0 0 0
0 0 0
0 0 0
0 0 0
0 0 0
0 0 0
0 0 0
0 0 0
0 0 0
0 0 0
0 0 0
0 0 0
0 0 0
0 0 0
0 0 0
0 0 0
0 0 0
0 0 0
0 0 0
0 0 0
0 0 0
0 0 0
0 0 0
0 0 0
0 0 0
0 0 0
0 0 0
0 0 0
0 0 0
0 0 0
0 0 0
0 0 0
0 0 0
0 0 0
0 0 0
0 0 0
0 0 0
0 0 0
0 0 0
0 0 0
0 0 0
0 0 0
0 0 0
0 0 0
0 0 0
0 0 0
0 0 0
0 0 0
0 0 0
0 0 0
0 0 0
0 0 0
0 0 0
0 0 0
0 0 0
0 0 0
0 0 0
0 0 0
0 0 0
0 0 0
0 0 0
0 0 0
0 0 0
0 0 0
0 0 0
0 0 0
0 0 0
0 0 0
0 0 0
0 0 0
0 0 0
0 0 0
0 0 0
0 0 0
0 0 0
0 0 0
0 0 0
0 0 0
0 0 0
0 0 0
0 0 0
0 0 0
0 0 0
0 0 0
0 0 0
0 0 0
0 0 0
0 0 0
0 0 0
0 0 0
0 0 0
0 0 0
0 0 0
0 0 0
0 0 0
0 0 0
0 0 0
0 0 0
0 0 0
0 0 0
0 0 0
0 0 0
0 0 0
0 0 0
0 0 0
0 0 0
0 0 0
0 0 0
0 0 0
0 0 0
0 0 0
0 0 0
0 0 0
0 0 0
0 0 0
0 0 0
0 0 0
0 0 0
0 0 0
0 0 0
0 0 0
0 0 0
0 0 0
0 0 0
0 0 0
0 0 0
0 0 0
0 0 0
0 0 0
0 0 0
0 0 0
0 0 0
0 0 0
0 0 0
0 0 0
0 0 0
0 0 0
0 0 0
0 0 0
0 0 0
0 0 0
0 0 0
0 0 0
0 0 0
0 0 0
0 0 0
0 0 0
0 0 0
0 0 0
0 0 0
0 0 0
0 0 0
0 0 0
0 0 0
0 0 0
0 0 0
0 0 0
0 0 0
0 0 0
0 0 0
0 0 0
0 0 0
0 0 0
0 0 0
0 0 0
0 0 0
0 0 0
0 0 0
0 0 0
0 0 0
0 0 0
0 0 0
0 0 0
0 0 0
0 0 0
0 0 0
0 0 0
0 0 0
0 0 0
0 0 0
0 0 0
0 0 0
0 0 0
0 0 0
0 0 0
0 0 0
0 0 0
0 0 0
0 0 0
0 0 0
0 0 0
0 0 0
0 0 0
0 0 0
0 0 0
0 0 0
0 0 0
0 0 0
0 0 0
0 0 0
0 0 0
0 0 0
0 0 0
0 0 0
0 0 0
0 0 0
0 0 0
0 0 0
0 0 0
0 0 0
0 0 0
0 0 0
0 0 0
0 0 0
0 0 0
0 0 0
0 0 0
0 0 0
0 0 0
0 0 0
0 0 0
0 0 0
0 0 0
0 0 0
0 0 0
0 0 0
0 0 0
0 0 0
0 0 0
0 0 0
0 0 0
0 0 0
0 0 0
0 0 0
0 0 0
0 0 0
0 0 0
0 0 0
0 0 0
0 0 0
0 0 0
0 0 0
0 0 0
0 0 0
0 0 0
0 0 0
0 0 0
0 0 0
0 0 0
0 0 0
0 0 0
0 0 0
0 0 0
0 0 0
0 0 0
0 0 0
0 0 0
0 0 0
0 0 0
0 0 0
0 0 0
0 0 0
0 0 0
0 0 0
0 0 0
0 0 0
0 0 0
0 0 0
0 0 0
0 0 0
0 0 0
0 0 0
0 0 0
0 0 0
0 0 0
0 0 0
0 0 0
0 0 0
0 0 0
0 0 0
0 0 0
0 0 0
0 0 0
0 0 0
0 0 0
0 0 0
0 0 0
0 0 0
0 0 0
0 0 0
0 0 0
0 0 0
0 0 0
0 0 0
0 0 0
0 0 0
0 0 0
0 0 0
0 0 0
0 0 0
0 0 0
0 0 0
0 0 0
0 0 0
0 0 0
0 0 0
0 0 0
0 0 0
0 0 0
0 0 0
0 0 0
0 0 0
0 0 0
0 0 0
0 0 0
0 0 0
0 0 0
0 0 0
0 0 0
0 0 0
0 0 0
0 0 0
0 0 0
0 0 0
0 0 0
0 0 0
0 0 0
0 0 0
0 0 0
0 0 0
0 0 0
0 0 0
0 0 0
0 0 0
0 0 0
0 0 0
0 0 0
0 0 0
0 0 0
0 0 0
0 0 0
0 0 0
0 0 0
0 0 0
0 0 0
0 0 0
0 0 0
0 0 0
0 0 0
0 0 0
0 0 0
0 0 0
0 0 0
0 0 0
0 0 0
0 0 0
0 0 0
0 0 0
0 0 0
0 0 0
0 0 0
0 0 0
0 0 0
0 0 0
0 0 0
0 0 0
0 0 0
0 0 0
0 0 0
0 0 0
0 0 0
0 0 0
0 0 0
0 0 0
0 0 0
0 0 0
0 0 0
0 0 0
0 0 0
0 0 0
0 0 0
0 0 0
0 0 0
0 0 0
0 0 0
0 0 0
0 0 0
0 0 0
0 0 0
0 0 0
0 0 0
0 0 0
0 0 0
0 0 0
0 0 0
0 0 0
0 0 0
0 0 0
0 0 0
0 0 0
0 0 0
0 0 0
0 0 0
0 0 0
0 0 0
0 0 0
0 0 0
0 0 0
0 0 0
0 0 0
0 0 0
0 0 0
0 0 0
0 0 0
0 0 0
0 0 0
0 0 0
0 0 0
0 0 0
0 0 0
0 0 0
0 0 0
0 0 0
0 0 0
0 0 0
0 0 0
0 0 0
0 0 0
0 0 0
0 0 0
0 0 0
0 0 0
0 0 0
0 0 0
0 0 0
0 0 0
0 0 0
0 0 0
0 0 0
0 0 0
0 0 0
0 0 0
0 0 0
0 0 0
0 0 0
0 0 0
0 0 0
0 0 0
0 0 0
0 0 0
0 0 0
0 0 0
0 0 0
0 0 0
0 0 0
0 0 0
0 0 0
0 0 0
0 0 0
0 0 0
0 0 0
0 0 0
0 0 0
0 0 0
0 0 0
0 0 0
0 0 0
0 0 0
0 0 0
0 0 0
0 0 0
0 0 0
0 0 0
0 0 0
0 0 0
0 0 0
0 0 0
0 0 0
0 0 0
0 0 0
0 0 0
0 0 0
0 0 0
0 0 0
0 0 0
0 0 0
0 0 0
0 0 0
0 0 0
0 0 0
0 0 0
0 0 0
0 0 0
0 0 0
0 0 0
0 0 0
0 0 0
0 0 0
0 0 0
0 0 0
0 0 0
0 0 0
0 0 0
0 0 0
0 0 0
0 0 0
0 0 0
0 0 0
0 0 0
0 0 0
0 0 0
0 0 0
0 0 0
0 0 0
0 0 0
0 0 0
0 0 0
0 0 0
0 0 0
0 0 0
0 0 0
0 0 0
0 0 0
0 0 0
0 0 0
0 0 0
0 0 0
0 0 0
0 0 0
0 0 0
0 0 0
0 0 0
0 0 0
0 0 0
0 0 0
0 0 0
0 0 0
0 0 0
0 0 0
0 0 0
0 0 0
0 0 0
0 0 0
0 0 0
0 0 0
0 0 0
0 0 0
0 0 0
0 0 0
0 0 0
0 0 0
0 0 0
0 0 0
0 0 0
0 0 0
0 0 0
0 0 0
0 0 0
0 0 0
0 0 0
0 0 0
0 0 0
0 0 0
0 0 0
0 0 0
0 0 0
0 0 0
0 0 0
0 0 0
0 0 0
0 0 0
0 0 0
0 0 0
0 0 0
0 0 0
0 0 0
0 0 0
0 0 0
0 0 0
0 0 0
0 0 0
0 0 0
0 0 0
0 0 0
0 0 0
0 0 0
0 0 0
0 0 0
0 0 0
0 0 0
0 0 0
0 0 0
0 0 0
0 0 0
0 0 0
0 0 0
0 0 0
0 0 0
0 0 0
0 0 0
0 0 0
0 0 0
0 0 0
0 0 0
0 0 0
0 0 0
0 0 0
0 0 0
0 0 0
0 0 0
0 0 0
0 0 0
0 0 0
0 0 0
0 0 0
0 0 0
0 0 0
0 0 0
0 0 0
0 0 0
0 0 0
0 0 0
0 0 0
0 0 0
0 0 0
0 0 0
0 0 0
0 0 0
0 0 0
0 0 0
0 0 0
0 0 0
0 0 0
0 0 0
0 0 0
0 0 0
0 0 0
0 0 0
0 0 0
0 0 0
0 0 0
0 0 0
0 0 0
0 0 0
0 0 0
0 0 0
0 0 0
0 0 0
0 0 0
0 0 0
0 0 0
0 0 0
0 0 0
0 0 0
0 0 0
0 0 0
0 0 0
0 0 0
0 0 0
0 0 0
0 0 0
0 0 0
0 0 0
0 0 0
0 0 0
0 0 0
0 0 0
0 0 0
0 0 0
0 0 0
0 0 0
0 0 0
0 0 0
0 0 0
0 0 0
0 0 0
0 0 0
0 0 0
0 0 0
0 0 0
0 0 0
0 0 0
0 0 0
0 0 0
0 0 0
0 0 0
0 0 0
0 0 0
0 0 0
0 0 0
0 0 0
0 0 0
0 0 0
0 0 0
0 0 0
0 0 0
0 0 0
0 0 0
0 0 0
0 0 0
0 0 0
0 0 0
0 0 0
0 0 0
0 0 0
0 0 0
0 0 0
0 0 0
0 0 0
0 0 0
0 0 0
0 0 0
0 0 0
0 0 0
0 0 0
0 0 0
0 0 0
0 0 0
0 0 0
0 0 0
0 0 0
0 0 0
0 0 0
0 0 0
0 0 0
0 0 0
0 0 0
0 0 0
0 0 0
0 0 0
0 0 0
0 0 0
0 0 0
0 0 0
0 0 0
0 0 0
0 0 0
0 0 0
0 0 0
0 0 0
0 0 0
0 0 0
0 0 0
0 0 0
0 0 0
0 0 0
0 0 0
0 0 0
0 0 0
0 0 0
0 0 0
0 0 0
0 0 0
0 0 0
0 0 0
0 0 0
0 0 0
0 0 0
0 0 0
0 0 0
0 0 0
0 0 0
0 0 0
0 0 0
0 0 0
0 0 0
0 0 0
0 0 0
0 0 0
0 0 0
0 0 0
0 0 0
0 0 0
0 0 0
0 0 0
0 0 0
0 0 0
0 0 0
0 0 0
0 0 0
0 0 0
0 0 0
0 0 0
0 0 0
0 0 0
0 0 0
0 0 0
0 0 0
0 0 0
0 0 0
0 0 0
0 0 0
0 0 0
0 0 0
0 0 0
0 0 0
0 0 0
0 0 0
0 0 0
0 0 0
0 0 0
0 0 0
0 0 0
0 0 0
0 0 0
0 0 0
0 0 0
0 0 0
0 0 0
0 0 0
0 0 0
0 0 0
0 0 0
0 0 0
0 0 0
0 0 0
0 0 0
0 0 0
0 0 0
0 0 0
0 0 0
0 0 0
0 0 0
0 0 0
0 0 0
0 0 0
0 0 0
0 0 0
0 0 0
0 0 0
0 0 0
0 0 0
0 0 0
0 0 0
0 0 0
0 0 0
0 0 0
0 0 0
0 0 0
0 0 0
0 0 0
0 0 0
0 0 0
0 0 0
0 0 0
0 0 0
0 0 0
0 0 0
0 0 0
0 0 0
0 0 0
0 0 0
0 0 0
0 0 0
0 0 0
0 0 0
0 0 0
0 0 0
0 0 0
0 0 0
0 0 0
0 0 0
0 0 0
0 0 0
0 0 0
0 0 0
0 0 0
0 0 0
0 0 0
0 0 0
0 0 0
0 0 0
0 0 0
0 0 0
0 0 0
0 0 0
0 0 0
0 0 0
0 0 0
0 0 0
0 0 0
0 0 0
0 0 0
0 0 0
0 0 0
0 0 0
0 0 0
0 0 0
0 0 0
0 0 0
0 0 0
0 0 0
0 0 0
0 0 0
0 0 0
0 0 0
0 0 0
0 0 0
0 0 0
0 0 0
0 0 0
0 0 0
0 0 0
0 0 0
0 0 0
0 0 0
0 0 0
0 0 0
0 0 0
0 0 0
0 0 0
0 0 0
0 0 0
0 0 0
0 0 0
0 0 0
0 0 0
0 0 0
0 0 0
0 0 0
0 0 0
0 0 0
0 0 0
0 0 0
0 0 0
0 0 0
0 0 0
0 0 0
0 0 0
0 0 0
0 0 0
0 0 0
0 0 0
0 0 0
0 0 0
0 0 0
0 0 0
0 0 0
0 0 0
0 0 0
0 0 0
0 0 0
0 0 0
0 0 0
0 0 0
0 0 0
0 0 0
0 0 0
0 0 0
0 0 0
0 0 0
0 0 0
0 0 0
0 0 0
0 0 0
0 0 0
0 0 0
0 0 0
0 0 0
0 0 0
0 0 0
0 0 0
0 0 0
0 0 0
0 0 0
0 0 0
0 0 0
0 0 0
0 0 0
0 0 0
0 0 0
0 0 0
0 0 0
0 0 0
0 0 0
0 0 0
0 0 0
0 0 0
0 0 0
0 0 0
0 0 0
0 0 0
0 0 0
0 0 0
0 0 0
0 0 0
0 0 0
0 0 0
0 0 0
0 0 0
0 0 0
0 0 0
0 0 0
0 0 0
0 0 0
0 0 0
0 0 0
0 0 0
0 0 0
0 0 0
0 0 0
0 0 0
0 0 0
0 0 0
0 0 0
0 0 0
0 0 0
0 0 0
0 0 0
0 0 0
0 0 0
0 0 0
0 0 0
0 0 0
0 0 0
0 0 0
0 0 0
0 0 0
0 0 0
0 0 0
0 0 0
0 0 0
0 0 0
0 0 0
0 0 0
0 0 0
0 0 0
0 0 0
0 0 0
0 0 0
0 0 0
0 0 0
0 0 0
0 0 0
0 0 0
0 0 0
0 0 0
0 0 0
0 0 0
0 0 0
0 0 0
0 0 0
0 0 0
0 0 0
0 0 0
0 0 0
0 0 0
0 0 0
0 0 0
0 0 0
0 0 0
0 0 0
0 0 0
0 0 0
0 0 0
0 0 0
0 0 0
0 0 0
0 0 0
0 0 0
0 0 0
0 0 0
0 0 0
0 0 0
0 0 0
0 0 0
0 0 0
0 0 0
0 0 0
0 0 0
0 0 0
0 0 0
0 0 0
0 0 0
0 0 0
0 0 0
0 0 0
0 0 0
0 0 0
0 0 0
0 0 0
0 0 0
0 0 0
0 0 0
0 0 0
0 0 0
0 0 0
0 0 0
0 0 0
0 0 0
0 0 0
0 0 0
0 0 0
0 0 0
0 0 0
0 0 0
0 0 0
0 0 0
0 0 0
0 0 0
0 0 0
0 0 0
0 0 0
0 0 0
0 0 0
0 0 0
0 0 0
0 0 0
0 0 0
0 0 0
0 0 0
0 0 0
0 0 0
0 0 0
0 0 0
0 0 0
0 0 0
0 0 0
0 0 0
0 0 0
0 0 0
0 0 0
0 0 0
0 0 0
0 0 0
0 0 0
0 0 0
0 0 0
0 0 0
0 0 0
0 0 0
0 0 0
0 0 0
0 0 0
0 0 0
0 0 0
0 0 0
0 0 0
0 0 0
0 0 0
0 0 0
0 0 0
0 0 0
0 0 0
0 0 0
0 0 0
0 0 0
0 0 0
0 0 0
0 0 0
0 0 0
0 0 0
0 0 0
0 0 0
0 0 0
0 0 0
0 0 0
0 0 0
0 0 0
0 0 0
0 0 0
0 0 0
0 0 0
0 0 0
0 0 0
0 0 0
0 0 0
0 0 0
0 0 0
0 0 0
0 0 0
0 0 0
0 0 0
0 0 0
0 0 0
0 0 0
0 0 0
0 0 0
0 0 0
0 0 0
0 0 0
0 0 0
0 0 0
0 0 0
0 0 0
0 0 0
0 0 0
0 0 0
0 0 0
0 0 0
0 0 0
0 0 0
0 0 0
0 0 0
0 0 0
0 0 0
0 0 0
0 0 0
0 0 0
0 0 0
0 0 0
0 0 0
0 0 0
0 0 0
0 0 0
0 0 0
0 0 0
0 0 0
0 0 0
0 0 0
0 0 0
0 0 0
0 0 0
0 0 0
0 0 0
0 0 0
0 0 0
0 0 0
0 0 0
0 0 0
0 0 0
0 0 0
0 0 0
0 0 0
0 0 0
0 0 0
0 0 0
0 0 0
0 0 0
0 0 0
0 0 0
0 0 0
0 0 0
0 0 0
0 0 0
0 0 0
0 0 0
0 0 0
0 0 0
0 0 0
0 0 0
0 0 0
0 0 0
0 0 0
0 0 0
0 0 0
0 0 0
0 0 0
0 0 0
0 0 0
0 0 0
0 0 0
0 0 0
0 0 0
0 0 0
0 0 0
0 0 0
0 0 0
0 0 0
0 0 0
0 0 0
0 0 0
0 0 0
0 0 0
0 0 0
0 0 0
0 0 0
0 0 0
0 0 0
0 0 0
0 0 0
0 0 0
0 0 0
0 0 0
0 0 0
0 0 0
0 0 0
0 0 0
0 0 0
0 0 0
0 0 0
0 0 0
0 0 0
0 0 0
0 0 0
0 0 0
0 0 0
0 0 0
0 0 0
0 0 0
0 0 0
0 0 0
0 0 0
0 0 0
0 0 0
0 0 0
0 0 0
0 0 0
0 0 0
0 0 0
0 0 0
0 0 0
0 0 0
0 0 0
0 0 0
0 0 0
0 0 0
0 0 0
0 0 0
0 0 0
0 0 0
0 0 0
0 0 0
0 0 0
0 0 0
0 0 0
0 0 0
0 0 0
0 0 0
0 0 0
0 0 0
0 0 0
0 0 0
0 0 0
0 0 0
0 0 0
0 0 0
0 0 0
0 0 0
0 0 0
0 0 0
0 0 0
0 0 0
0 0 0
0 0 0
0 0 0
0 0 0
0 0 0
0 0 0
0 0 0
0 0 0
0 0 0
0 0 0
0 0 0
0 0 0
0 0 0
0 0 0
0 0 0
0 0 0
0 0 0
0 0 0
0 0 0
0 0 0
0 0 0
0 0 0
0 0 0
0 0 0
0 0 0
0 0 0
0 0 0
0 0 0
0 0 0
0 0 0
0 0 0
0 0 0
0 0 0
0 0 0
0 0 0
0 0 0
0 0 0
0 0 0
0 0 0
0 0 0
0 0 0
0 0 0
0 0 0
0 0 0
0 0 0
0 0 0
0 0 0
0 0 0
0 0 0
0 0 0
0 0 0
0 0 0
0 0 0
0 0 0
0 0 0
0 0 0
0 0 0
0 0 0
0 0 0
0 0 0
0 0 0
0 0 0
0 0 0
0 0 0
0 0 0
0 0 0
0 0 0
0 0 0
0 0 0
0 0 0
0 0 0
0 0 0
0 0 0
0 0 0
0 0 0
0 0 0
0 0 0
0 0 0
0 0 0
0 0 0
0 0 0
0 0 0
0 0 0
0 0 0
0 0 0
0 0 0
0 0 0
0 0 0
0 0 0
0 0 0
0 0 0
0 0 0
0 0 0
0 0 0
0 0 0
0 0 0
0 0 0
0 0 0
0 0 0
0 0 0
0 0 0
0 0 0
0 0 0
0 0 0
0 0 0
0 0 0
0 0 0
0 0 0
0 0 0
0 0 0
0 0 0
0 0 0
0 0 0
0 0 0
0 0 0
0 0 0
0 0 0
0 0 0
0 0 0
0 0 0
0 0 0
0 0 0
0 0 0
0 0 0
0 0 0
0 0 0
0 0 0
0 0 0
0 0 0
0 0 0
0 0 0
0 0 0
0 0 0
0 0 0
0 0 0
0 0 0
0 0 0
0 0 0
0 0 0
0 0 0
0 0 0
0 0 0
0 0 0
0 0 0
0 0 0
0 0 0
0 0 0
0 0 0
0 0 0
0 0 0
0 0 0
0 0 0
0 0 0
0 0 0
0 0 0
0 0 0
0 0 0
0 0 0
0 0 0
0 0 0
0 0 0
0 0 0
0 0 0
0 0 0
0 0 0
0 0 0
0 0 0
0 0 0
0 0 0
0 0 0
0 0 0
0 0 0
0 0 0
0 0 0
0 0 0
0 0 0
0 0 0
0 0 0
0 0 0
0 0 0
0 0 0
0 0 0
0 0 0
0 0 0
0 0 0
0 0 0
0 0 0
0 0 0
0 0 0
0 0 0
0 0 0
0 0 0
0 0 0
0 0 0
0 0 0
0 0 0
0 0 0
0 0 0
0 0 0
0 0 0
0 0 0
0 0 0
0 0 0
0 0 0
0 0 0
0 0 0
0 0 0
0 0 0
0 0 0
0 0 0
0 0 0
0 0 0
0 0 0
0 0 0
0 0 0
0 0 0
0 0 0
0 0 0
0 0 0
0 0 0
0 0 0
0 0 0
0 0 0
0 0 0
0 0 0
0 0 0
0 0 0
0 0 0
0 0 0
0 0 0
0 0 0
0 0 0
0 0 0
0 0 0
0 0 0
0 0 0
0 0 0
0 0 0
0 0 0
0 0 0
0 0 0
0 0 0
0 0 0
0 0 0
0 0 0
0 0 0
0 0 0
0 0 0
0 0 0
0 0 0
0 0 0
0 0 0
0 0 0
0 0 0
0 0 0
0 0 0
0 0 0
0 0 0
0 0 0
0 0 0
0 0 0
0 0 0
0 0 0
0 0 0
0 0 0
0 0 0
0 0 0
0 0 0
0 0 0
0 0 0
0 0 0
0 0 0
0 0 0
0 0 0
0 0 0
0 0 0
0 0 0
0 0 0
0 0 0
0 0 0
0 0 0
0 0 0
0 0 0
0 0 0
0 0 0
0 0 0
0 0 0
0 0 0
0 0 0
0 0 0
0 0 0
0 0 0
0 0 0
0 0 0
0 0 0
0 0 0
0 0 0
0 0 0
0 0 0
0 0 0
0 0 0
0 0 0
0 0 0
0 0 0
0 0 0
0 0 0
0 0 0
0 0 0
0 0 0
0 0 0
0 0 0
0 0 0
0 0 0
0 0 0
0 0 0
0 0 0
0 0 0
0 0 0
0 0 0
0 0 0
0 0 0
0 0 0
0 0 0
0 0 0
0 0 0
0 0 0
0 0 0
0 0 0
0 0 0
0 0 0
0 0 0
0 0 0
0 0 0
0 0 0
0 0 0
0 0 0
0 0 0
0 0 0
0 0 0
0 0 0
0 0 0
0 0 0
0 0 0
0 0 0
0 0 0
0 0 0
0 0 0
0 0 0
0 0 0
0 0 0
0 0 0
0 0 0
0 0 0
0 0 0
0 0 0
0 0 0
0 0 0
0 0 0
0 0 0
0 0 0
0 0 0
0 0 0
0 0 0
0 0 0
0 0 0
0 0 0
0 0 0
0 0 0
0 0 0
0 0 0
0 0 0
0 0 0
0 0 0
0 0 0
0 0 0
0 0 0
0 0 0
0 0 0
0 0 0
0 0 0
0 0 0
0 0 0
0 0 0
0 0 0
0 0 0
0 0 0
0 0 0
0 0 0
0 0 0
0 0 0
0 0 0
0 0 0
0 0 0
0 0 0
0 0 0
0 0 0
0 0 0
0 0 0
0 0 0
0 0 0
0 0 0
0 0 0
0 0 0
0 0 0
0 0 0
0 0 0
0 0 0
0 0 0
0 0 0
0 0 0
0 0 0
0 0 0
0 0 0
0 0 0
0 0 0
0 0 0
0 0 0
0 0 0
0 0 0
0 0 0
0 0 0
0 0 0
0 0 0
0 0 0
0 0 0
0 0 0
0 0 0
0 0 0
0 0 0
0 0 0
0 0 0
0 0 0
0 0 0
0 0 0
0 0 0
0 0 0
0 0 0
0 0 0
0 0 0
0 0 0
0 0 0
0 0 0
0 0 0
0 0 0
0 0 0
0 0 0
0 0 0
0 0 0
0 0 0
0 0 0
0 0 0
0 0 0
0 0 0
0 0 0
0 0 0
0 0 0
0 0 0
0 0 0
0 0 0
0 0 0
0 0 0
0 0 0
0 0 0
0 0 0
0 0 0
0 0 0
0 0 0
0 0 0
0 0 0
0 0 0
0 0 0
0 0 0
0 0 0
0 0 0
0 0 0
0 0 0
0 0 0
0 0 0
0 0 0
0 0 0
0 0 0
0 0 0
0 0 0
0 0 0
0 0 0
0 0 0
0 0 0
0 0 0
0 0 0
0 0 0
0 0 0
0 0 0
0 0 0
0 0 0
0 0 0
0 0 0
0 0 0
0 0 0
0 0 0
0 0 0
0 0 0
0 0 0
0 0 0
0 0 0
0 0 0
0 0 0
0 0 0
0 0 0
0 0 0
0 0 0
0 0 0
0 0 0
0 0 0
0 0 0
0 0 0
0 0 0
0 0 0
0 0 0
0 0 0
0 0 0
0 0 0
0 0 0
0 0 0
0 0 0
0 0 0
0 0 0
0 0 0
0 0 0
0 0 0
0 0 0
0 0 0
0 0 0
0 0 0
0 0 0
0 0 0
0 0 0
0 0 0
0 0 0
0 0 0
0 0 0
0 0 0
0 0 0
0 0 0
0 0 0
0 0 0
0 0 0
0 0 0
0 0 0
0 0 0
0 0 0
0 0 0
0 0 0
0 0 0
0 0 0
0 0 0
0 0 0
0 0 0
0 0 0
0 0 0
0 0 0
0 0 0
0 0 0
0 0 0
0 0 0
0 0 0
0 0 0
0 0 0
0 0 0
0 0 0
0 0 0
0 0 0
0 0 0
0 0 0
0 0 0
0 0 0
0 0 0
0 0 0
0 0 0
0 0 0
0 0 0
0 0 0
0 0 0
0 0 0
0 0 0
0 0 0
0 0 0
0 0 0
0 0 0
0 0 0
0 0 0
0 0 0
0 0 0
0 0 0
0 0 0
0 0 0
0 0 0
0 0 0
0 0 0
0 0 0
0 0 0
0 0 0
0 0 0
0 0 0
0 0 0
0 0 0
0 0 0
0 0 0
0 0 0
0 0 0
0 0 0
0 0 0
0 0 0
0 0 0
0 0 0
0 0 0
0 0 0
0 0 0
0 0 0
0 0 0
0 0 0
0 0 0
0 0 0
0 0 0
0 0 0
0 0 0
0 0 0
0 0 0
0 0 0
0 0 0
0 0 0
0 0 0
0 0 0
0 0 0
0 0 0
0 0 0
0 0 0
0 0 0
0 0 0
0 0 0
0 0 0
0 0 0
0 0 0
0 0 0
0 0 0
0 0 0
0 0 0
0 0 0
0 0 0
0 0 0
0 0 0
0 0 0
0 0 0
0 0 0
0 0 0
0 0 0
0 0 0
0 0 0
0 0 0
0 0 0
0 0 0
0 0 0
0 0 0
0 0 0
0 0 0
0 0 0
0 0 0
0 0 0
0 0 0
0 0 0
0 0 0
0 0 0
0 0 0
0 0 0
0 0 0
0 0 0
0 0 0
0 0 0
0 0 0
0 0 0
0 0 0
0 0 0
0 0 0
0 0 0
0 0 0
0 0 0
0 0 0
0 0 0
0 0 0
0 0 0
0 0 0
0 0 0
0 0 0
0 0 0
0 0 0
0 0 0
0 0 0
0 0 0
0 0 0
0 0 0
0 0 0
0 0 0
0 0 0
0 0 0
0 0 0
0 0 0
0 0 0
0 0 0
0 0 0
0 0 0
0 0 0
0 0 0
0 0 0
0 0 0
0 0 0
0 0 0
0 0 0
0 0 0
0 0 0
0 0 0
0 0 0
0 0 0
0 0 0
0 0 0
0 0 0
0 0 0
0 0 0
0 0 0
0 0 0
0 0 0
0 0 0
0 0 0
0 0 0
0 0 0
0 0 0
0 0 0
0 0 0
0 0 0
0 0 0
0 0 0
0 0 0
0 0 0
0 0 0
0 0 0
0 0 0
0 0 0
0 0 0
0 0 0
0 0 0
0 0 0
0 0 0
0 0 0
0 0 0
0 0 0
0 0 0
0 0 0
0 0 0
0 0 0
0 0 0
0 0 0
0 0 0
0 0 0
0 0 0
0 0 0
0 0 0
0 0 0
0 0 0
0 0 0
0 0 0
0 0 0
0 0 0
0 0 0
0 0 0
0 0 0
0 0 0
0 0 0
0 0 0
0 0 0
0 0 0
0 0 0
0 0 0
0 0 0
0 0 0
0 0 0
0 0 0
0 0 0
0 0 0
0 0 0
0 0 0
0 0 0
0 0 0
0 0 0
0 0 0
0 0 0
0 0 0
0 0 0
0 0 0
0 0 0
0 0 0
0 0 0
0 0 0
0 0 0
0 0 0
0 0 0
0 0 0
0 0 0
0 0 0
0 0 0
0 0 0
0 0 0
0 0 0
0 0 0
0 0 0
0 0 0
0 0 0
0 0 0
0 0 0
0 0 0
0 0 0
0 0 0
0 0 0
0 0 0
0 0 0
0 0 0
0 0 0
0 0 0
0 0 0
0 0 0
0 0 0
0 0 0
0 0 0
0 0 0
0 0 0
0 0 0
0 0 0
0 0 0
0 0 0
0 0 0
0 0 0
0 0 0
0 0 0
0 0 0
0 0 0
0 0 0
0 0 0
0 0 0
0 0 0
0 0 0
0 0 0
0 0 0
0 0 0
0 0 0
0 0 0
0 0 0
0 0 0
0 0 0
0 0 0
0 0 0
0 0 0
0 0 0
0 0 0
0 0 0
0 0 0
0 0 0
0 0 0
0 0 0
0 0 0
0 0 0
0 0 0
0 0 0
0 0 0
0 0 0
0 0 0
0 0 0
0 0 0
0 0 0
0 0 0
0 0 0
0 0 0
0 0 0
0 0 0
0 0 0
0 0 0
0 0 0
0 0 0
0 0 0
0 0 0
0 0 0
0 0 0
0 0 0
0 0 0
0 0 0
0 0 0
0 0 0
0 0 0
0 0 0
0 0 0
0 0 0
0 0 0
0 0 0
0 0 0
0 0 0
0 0 0
0 0 0
0 0 0
0 0 0
0 0 0
0 0 0
0 0 0
0 0 0
0 0 0
0 0 0
0 0 0
0 0 0
0 0 0
0 0 0
0 0 0
0 0 0
0 0 0
0 0 0
0 0 0
0 0 0
0 0 0
0 0 0
0 0 0
0 0 0
0 0 0
0 0 0
0 0 0
0 0 0
0 0 0
0 0 0
0 0 0
0 0 0
0 0 0
0 0 0
0 0 0
0 0 0
0 0 0
0 0 0
0 0 0
0 0 0
0 0 0
0 0 0
0 0 0
0 0 0
0 0 0
0 0 0
0 0 0
0 0 0
0 0 0
0 0 0
0 0 0
0 0 0
0 0 0
0 0 0
0 0 0
0 0 0
0 0 0
0 0 0
0 0 0
0 0 0
0 0 0
0 0 0
0 0 0
0 0 0
0 0 0
0 0 0
0 0 0
0 0 0
0 0 0
0 0 0
0 0 0
0 0 0
0 0 0
0 0 0
0 0 0
0 0 0
0 0 0
0 0 0
0 0 0
0 0 0
0 0 0
0 0 0
0 0 0
0 0 0
0 0 0
0 0 0
0 0 0
0 0 0
0 0 0
0 0 0
0 0 0
0 0 0
0 0 0
0 0 0
0 0 0
0 0 0
0 0 0
0 0 0
0 0 0
